epfl-lasa/data_laplacian_eigenmaps/throwing/recording_throw_sideArm.csv
arm_x,arm_y,arm_z,arm_qx,arm_qy,arm_qz,arm_qw,arm_q0,arm_q1,arm_q2,arm_q3,arm_q4,arm_q5,arm_q6,hand_0,hand_1,hand_2,hand_3,hand_4,hand_5,hand_6,hand_7,hand_8,hand_9,hand_10,hand_11,hand_12,hand_13,hand_14,hand_15
0.09240344680310769,0.4470117229534597,-0.7807305436239929,0.23445164226558554,-0.5870108453857695,0.5268823389231836,0.5681951212121508,0.01849399591915938,0.6426925897804059,-0.8825778236589631,-1.5030538177395172,-0.3413840687084797,-0.7726385590912869,-0.31367108793146714,-0.06917228127407658,1.4228184678358347,0.8061194715581823,0.7981661933301135,-0.1734904422799704,1.3366344086290973,0.8309913593290996,-0.025308151931813065,-0.3197737820368245,1.424917431091151,0.8377609154108092,0.6521138676451208,0.8560394842038639,1.2546220184142984,0.6196291102944432,1.1658356058485162
0.09240344680310769,0.4470117229534597,-0.7807305436239929,0.23445164226558554,-0.5870108453857695,0.5268823389231836,0.5681951212121508,0.01849399591915938,0.6426925897804059,-0.8825780034278761,-1.5030536978572142,-0.3413840687084797,-0.7726387388601998,-0.31367108793146714,-0.069360741506417,1.422838776183799,0.8061096440802054,0.7981985360927442,-0.17348528033285346,1.3366181519489309,0.8309405408788616,-0.025308151931813065,-0.319843502010655,1.4249778382102904,0.8376867135747132,0.6520442205632214,0.8559893517157252,1.2545969306364193,0.6196446261914588,1.1657510469336338
0.09240348792135766,0.4470118808894828,-0.7807303958249409,0.23445168917074277,-0.5870109428655824,0.5268823805534918,0.5681949625465987,0.01849387614593946,0.6426925897804059,-0.882578063423569,-1.5030536978572142,-0.3413840687084797,-0.7726385590912869,-0.31367108793146714,-0.069360741506417,1.422838776183799,0.8061096440802054,0.7981985360927442,-0.17348528033285346,1.3366181519489309,0.8309405408788616,-0.025308151931813065,-0.319843502010655,1.4249778382102904,0.8376867135747132,0.6520442205632214,0.8559893517157252,1.2545969306364193,0.6196446261914588,1.1657510469336338
0.09240348792135766,0.4470118808894828,-0.7807303958249409,0.23445168917074277,-0.5870109428655824,0.5268823805534918,0.5681949625465987,0.018494055914852415,0.642692470007186,-0.8825778836546562,-1.5030538177395172,-0.3413840687084797,-0.7726385590912869,-0.3136709081625542,-0.06917671538058205,1.4227809161215637,0.8060766095957518,0.7982149043617651,-0.173346199122023,1.3365879840333077,0.8310203273358848,-0.025308151931813065,-0.3198182674914565,1.4249648250520128,0.8377235152838576,0.6520956609468959,0.8558666958607988,1.2546812232059386,0.619518446478521,1.1658187430545157
0.09240354229780628,0.4470118042436938,-0.7807304559847609,0.23445156165920067,-0.5870109191544653,0.5268823153968398,0.5681951000765992,0.018494055914852415,0.6426925897804059,-0.882578063423569,-1.5030536978572142,-0.3413840687084797,-0.7726385590912869,-0.31367108793146714,-0.06917671538058205,1.4227809161215637,0.8060766095957518,0.7982149043617651,-0.173346199122023,1.3365879840333077,0.8310203273358848,-0.025308151931813065,-0.3198182674914565,1.4249648250520128,0.8377235152838576,0.6520956609468959,0.8558666958607988,1.2546812232059386,0.619518446478521,1.1658187430545157
0.09240354229780628,0.4470118042436938,-0.7807304559847609,0.23445156165920067,-0.5870109191544653,0.5268823153968398,0.5681951000765992,0.018494055914852415,0.6426925897804059,-0.882578063423569,-1.5030536978572142,-0.34138416470158855,-0.7726385590912869,-0.31367108793146714,-0.06917671538058205,1.4227809161215637,0.8060766095957518,0.7982149043617651,-0.173346199122023,1.3365879840333077,0.8310203273358848,-0.025308151931813065,-0.3198182674914565,1.4249648250520128,0.8377235152838576,0.6520956609468959,0.8558666958607988,1.2546812232059386,0.619518446478521,1.1658187430545157
0.09240354229780628,0.4470118042436938,-0.7807304559847609,0.23445156165920067,-0.5870109191544653,0.5268823153968398,0.5681951000765992,0.018494055914852415,0.6426925897804059,-0.882578123310179,-1.5030535780839942,-0.34138416470158855,-0.7726385590912869,-0.3136709081625542,-0.06924342779890297,1.4228342189945773,0.8060982594336029,0.7981099917100983,-0.17337105720699336,1.3366232597191527,0.8310736810253334,-0.025308151931813065,-0.31981593199982644,1.424986159776508,0.8378298448415664,0.6521500868850857,0.855954780624733,1.2546080043432335,0.6195576943109901,1.1658466093063082
0.0924034328255931,0.44701188236229095,-0.7807305013083599,0.23445173480569192,-0.5870108684999714,0.5268823158912023,0.5681950805054843,0.018494235683765372,0.6426925897804059,-0.882578123310179,-1.5030535780839942,-0.34138416470158855,-0.7726385590912869,-0.31367108793146714,-0.06924342779890297,1.4228342189945773,0.8060982594336029,0.7981099917100983,-0.17337105720699336,1.3366232597191527,0.8310736810253334,-0.025308151931813065,-0.31981593199982644,1.424986159776508,0.8378298448415664,0.6521500868850857,0.855954780624733,1.2546080043432335,0.6195576943109901,1.1658466093063082
0.0924034328255931,0.44701188236229095,-0.7807305013083599,0.23445173480569192,-0.5870108684999714,0.5268823158912023,0.5681950805054843,0.01849435545698529,0.6426925897804059,-0.882578063423569,-1.5030535780839942,-0.34138416470158855,-0.77263861908698,-0.31367108793146714,-0.06917091109722265,1.4227858427965827,0.8060737585973818,0.7982037824299858,-0.1732396138165328,1.336560336132076,0.8310063118097806,-0.025308151931813065,-0.3196792628794013,1.4249415974075545,0.8377107171511213,0.6521680267795611,0.8559089088797147,1.2546848060646996,0.6197810311377611,1.1657815159751914
0.09240324713588294,0.4470118416745029,-0.7807306198998717,0.234451790122721,-0.587010742544827,0.5268823582421558,0.568195148534733,0.018494415452678326,0.6426925897804059,-0.882578063423569,-1.5030534582016912,-0.3413843563387404,-0.7726387388601998,-0.3136709081625542,-0.06917091109722265,1.4227858427965827,0.8060737585973818,0.7982037824299858,-0.1732396138165328,1.336560336132076,0.8310063118097806,-0.025308151931813065,-0.3196792628794013,1.4249415974075545,0.8377107171511213,0.6521680267795611,0.8559089088797147,1.2546848060646996,0.6197810311377611,1.1657815159751914
0.09240324713588294,0.4470118416745029,-0.7807306198998717,0.234451790122721,-0.587010742544827,0.5268823582421558,0.568195148534733,0.018494535225898244,0.6426925897804059,-0.882578063423569,-1.5030533983150813,-0.3413843563387404,-0.772638439318067,-0.3136709081625542,-0.0693118567146573,1.422827117744541,0.8061215304238466,0.7981752247325582,-0.173498268120945,1.3366117236783555,0.8309852950320775,-0.025308151931813065,-0.31974939759003407,1.424783079497329,0.8377573689443865,0.6520608730110337,0.8559624748628791,1.2546588055628096,0.6194559829730737,1.1657538111510202
0.09240306404525361,0.4470119435932557,-0.7807305962621522,0.23445201282944753,-0.5870106792923124,0.5268823211212568,0.5681951564092007,0.018494415452678326,0.642692649776099,-0.882578063423569,-1.5030533383193883,-0.34138454815042524,-0.7726385590912869,-0.3136709081625542,-0.0693118567146573,1.422827117744541,0.8061215304238466,0.7981752247325582,-0.173498268120945,1.3366117236783555,0.8309852950320775,-0.025308151931813065,-0.31974939759003407,1.424783079497329,0.8377573689443865,0.6520608730110337,0.8559624748628791,1.2546588055628096,0.6194559829730737,1.1657538111510202
0.09240306404525361,0.4470119435932557,-0.7807305962621522,0.23445201282944753,-0.5870106792923124,0.5268823211212568,0.5681951564092007,0.018494475339288285,0.642692649776099,-0.882578063423569,-1.5030533983150813,-0.34138454815042524,-0.7726387388601998,-0.3136709081625542,-0.06910311622907808,1.4227796919165918,0.8061226874622729,0.7981567199165753,-0.1734970681467582,1.3365424195962863,0.8310476736689774,-0.025308151931813065,-0.3196662478558707,1.4248290087314932,0.8377957365894239,0.6522345922193077,0.8559266126828939,1.2546793285642224,0.619443837156063,1.1657734549606817
0.09240306404525361,0.4470119435932557,-0.7807305962621522,0.23445201282944753,-0.5870106792923124,0.5268823211212568,0.5681951564092007,0.018494475339288285,0.642692649776099,-0.8825780034278761,-1.5030533983150813,-0.34138454815042524,-0.7726385590912869,-0.31367108793146714,-0.06910311622907808,1.4227796919165918,0.8061226874622729,0.7981567199165753,-0.1734970681467582,1.3365424195962863,0.8310476736689774,-0.025308151931813065,-0.3196662478558707,1.4248290087314932,0.8377957365894239,0.6522345922193077,0.8559266126828939,1.2546793285642224,0.619443837156063,1.1657734549606817
0.09240301244339483,0.447012051822408,-0.7807304602465261,0.2344521498426895,-0.5870107433235682,0.5268822316798721,0.5681951166605457,0.018494475339288285,0.642692649776099,-0.882578063423569,-1.5030533983150813,-0.34138454815042524,-0.7726387388601998,-0.3136709081625542,-0.06917792710669637,1.4227916036413935,0.8060800366145928,0.7982880628260985,-0.17342553702412794,1.3366211527681924,0.8309997564606705,-0.025308151931813065,-0.31968924635719353,1.4248637937656903,0.8378521487426863,0.6521224217892259,0.8559477901693856,1.254688180688909,0.6194871203231473,1.1657854327591928
0.09240301244339483,0.447012051822408,-0.7807304602465261,0.2344521498426895,-0.5870107433235682,0.5268822316798721,0.5681951166605457,0.018494415452678326,0.642692649776099,-0.8825779435412661,-1.5030533983150813,-0.34138473996211005,-0.7726387388601998,-0.3136709081625542,-0.06917792710669637,1.4227916036413935,0.8060800366145928,0.7982880628260985,-0.17342553702412794,1.3366211527681924,0.8309997564606705,-0.025308151931813065,-0.31968924635719353,1.4248637937656903,0.8378521487426863,0.6521224217892259,0.8559477901693856,1.254688180688909,0.6194871203231473,1.1657854327591928
0.0924029874860065,0.44701213268611195,-0.7807304362423962,0.23445214268569609,-0.5870107523582667,0.5268822496180456,0.5681950936459197,0.018494475339288285,0.642692649776099,-0.8825778836546562,-1.5030534582016912,-0.34138473996211005,-0.7726387388601998,-0.3136709081625542,-0.06917792710669637,1.4227916036413935,0.8060800366145928,0.7982880628260985,-0.17342553702412794,1.3366211527681924,0.8309997564606705,-0.025308151931813065,-0.31968924635719353,1.4248637937656903,0.8378521487426863,0.6521224217892259,0.8559477901693856,1.254688180688909,0.6194871203231473,1.1657854327591928
0.0924029874860065,0.44701213268611195,-0.7807304362423962,0.23445214268569609,-0.5870107523582667,0.5268822496180456,0.5681950936459197,0.018494535225898244,0.642692649776099,-0.8825777038857432,-1.5030534582016912,-0.34138483578068596,-0.7726387388601998,-0.3136709081625542,-0.06926884092782867,1.4227447142681455,0.8061056224923969,0.7981119083780138,-0.17334601516758302,1.3365054406951666,0.8309244506712687,-0.025308151931813065,-0.31965728961802364,1.4249122768013427,0.8377105808137509,0.6520746590285833,0.8559809135899479,1.2546689284769281,0.619427394337531,1.1657876999209118
0.09240301074266155,0.4470121551721521,-0.780730381085493,0.2344522282244316,-0.5870107723452459,0.5268820855365582,0.5681951898528217,0.018494535225898244,0.6426925897804059,-0.8825778236589631,-1.5030534582016912,-0.34138483578068596,-0.7726389186291128,-0.31367108793146714,-0.06926884092782867,1.4227447142681455,0.8061056224923969,0.7981119083780138,-0.17334601516758302,1.3365054406951666,0.8309244506712687,-0.025308151931813065,-0.31965728961802364,1.4249122768013427,0.8377105808137509,0.6520746590285833,0.8559809135899479,1.2546689284769281,0.619427394337531,1.1657876999209118
0.09240301074266155,0.4470121551721521,-0.780730381085493,0.2344522282244316,-0.5870107723452459,0.5268820855365582,0.5681951898528217,0.01849393603254942,0.6426925897804059,-0.8825813590415291,-1.5030535780839942,-0.34138473996211005,-0.7726387388601998,-0.3136709081625542,-0.06921048870262557,1.4227429969493264,0.8061394382173497,0.7981396366861293,-0.17326872463090853,1.3365292938203808,0.8309444423059857,-0.025308151931813065,-0.31984653668531904,1.4248002101826098,0.8376762956099436,0.6520632359157896,0.8559043824120585,1.2546429452228205,0.6195290631860985,1.165639637512123
0.09240273026857831,0.44701229446600066,-0.780730452061538,0.23445196241256225,-0.5870107258746264,0.5268830131338318,0.5681944873897119,0.018494475339288285,0.642692649776099,-0.8825777038857432,-1.503053877626127,-0.34138483578068596,-0.7726387388601998,-0.3136709081625542,-0.06921048870262557,1.4227429969493264,0.8061394382173497,0.7981396366861293,-0.17326872463090853,1.3365292938203808,0.8309444423059857,-0.025308151931813065,-0.31984653668531904,1.4248002101826098,0.8376762956099436,0.6520632359157896,0.8559043824120585,1.2546429452228205,0.6195290631860985,1.165639637512123
0.09240273026857831,0.44701229446600066,-0.780730452061538,0.23445196241256225,-0.5870107258746264,0.5268830131338318,0.5681944873897119,0.018494415452678326,0.642692649776099,-0.8825795014657897,-1.503053877626127,-0.34138483578068596,-0.7726388587425028,-0.31367108793146714,-0.06921512552958317,1.422730241789125,0.806036718668866,0.7982268121441247,-0.1734034832631264,1.336570819751819,0.8309878446064587,-0.025308151931813065,-0.32052496132958747,1.424849411532153,0.8376807844946947,0.6521114298104921,0.8559451369359757,1.2546297259640007,0.6194987293133541,1.16572520116579
0.0924028248700518,0.44701227170995,-0.7807301916930206,0.23445203213345428,-0.5870108495587084,0.5268826558583906,0.5681946621400679,0.01849435545698529,0.6426925897804059,-0.8825806999615704,-1.503054237163953,-0.34138483578068596,-0.7726390385114158,-0.31367108793146714,-0.06921512552958317,1.422730241789125,0.806036718668866,0.7982268121441247,-0.1734034832631264,1.336570819751819,0.8309878446064587,-0.025308151931813065,-0.32052496132958747,1.424849411532153,0.8376807844946947,0.6521114298104921,0.8559451369359757,1.2546297259640007,0.6194987293133541,1.16572520116579
0.0924028248700518,0.44701227170995,-0.7807301916930206,0.23445203213345428,-0.5870108495587084,0.5268826558583906,0.5681946621400679,0.018493456612420512,0.642692470007186,-0.8825860329241829,-1.5030538177395172,-0.34138483578068596,-0.7726392182803288,-0.3136709081625542,-0.06926695667573204,1.4228181405969411,0.8061474486835947,0.7982568199294272,-0.17343107925535783,1.3365668891591873,0.8309656618162071,-0.025308151931813065,-0.32056910583405446,1.424825580695285,0.8377735028686442,0.6521901667419485,0.8559229035362066,1.2547368346982983,0.6194014371253197,1.165755693716449
0.0924028248700518,0.44701227170995,-0.7807301916930206,0.23445203213345428,-0.5870108495587084,0.5268826558583906,0.5681946621400679,0.018493456612420512,0.642692649776099,-0.8825870515419676,-1.5030571133574773,-0.3413850274178378,-0.7726393381626318,-0.31367108793146714,-0.06926695667573204,1.4228181405969411,0.8061474486835947,0.7982568199294272,-0.17343107925535783,1.3365668891591873,0.8309656618162071,-0.025308151931813065,-0.32056910583405446,1.424825580695285,0.8377735028686442,0.6521901667419485,0.8559229035362066,1.2547368346982983,0.6194014371253197,1.165755693716449
0.09240133095412423,0.44701265035299687,-0.7807309090499998,0.23445176278442617,-0.5870102201138169,0.5268850271221017,0.5681932247077095,0.018496213032724803,0.6426972636630597,-0.882578123310179,-1.5030747901612245,-0.3413857944900441,-0.772638259549154,-0.3136709081625542,-0.06935718239781151,1.4227772999821175,0.8061355349846958,0.7982588983097004,-0.17337059740335825,1.3365896954575796,0.8309938409849428,-0.025308151931813065,-0.3205932538704332,1.4248957115111642,0.8377480720746818,0.6521920169697306,0.8559160551824276,1.2546961506892136,0.619305399468493,1.1657910490111583
0.09240133095412423,0.44701265035299687,-0.7807309090499998,0.23445176278442617,-0.5870102201138169,0.5268850271221017,0.5681932247077095,0.018500107953116785,0.6427009188188456,-0.8825588885819082,-1.5033257997054217,-0.3413876160901844,-0.772638259549154,-0.31367108793146714,-0.06925995040309105,1.4227658714504088,0.8060966315388111,0.7982598558588617,-0.17326827414433682,1.3365358015175743,0.8309591248566025,-0.025308151931813065,-0.3205311967935882,1.4248980985377386,0.8378061052862502,0.6522000763456114,0.8559126884092612,1.2546924033057878,0.6192340513971916,1.1657421785393343
0.09247623456191162,0.44703191287799127,-0.7806291077844503,0.2344314989827459,-0.5870812172664375,0.5268580288093482,0.5681532663787024,0.018532585148920974,0.642677849274959,-0.8821353661129546,-1.5043771757930138,-0.3413976828002441,-0.7726570747439059,-0.31367042885150836,-0.06925995040309105,1.4227658714504088,0.8060966315388111,0.7982598558588617,-0.17326827414433682,1.3365358015175743,0.8309591248566025,-0.025308151931813065,-0.3205311967935882,1.4248980985377386,0.8378061052862502,0.6522000763456114,0.8559126884092612,1.2546924033057878,0.6192340513971916,1.1657421785393343
0.09247623456191162,0.44703191287799127,-0.7806291077844503,0.2344314989827459,-0.5870812172664375,0.5268580288093482,0.5681532663787024,0.018554396419500067,0.6425752642756806,-0.8805970110936312,-1.5069646297906707,-0.34139950440038436,-0.772804900204559,-0.3136703089692054,-0.06899737549154648,1.4226952013352308,0.8060185589446516,0.7981778965041414,-0.17327284606121296,1.3365093413580975,0.8309889870964018,-0.025308151931813065,-0.32030126027594136,1.4248746450297733,0.8378019162752179,0.6522415980318106,0.8559723585869432,1.254424444526254,0.6192440364319601,1.1656969480608512
0.09434383113615408,0.4472476981052684,-0.7784078530271668,0.23406790352549625,-0.5886003847436688,0.5255933618569357,0.5679026515087854,0.01860227341887615,0.6424985053496763,-0.877188517782088,-1.5118645599624192,-0.34138253473860014,-0.7731592737102962,-0.3136688109312918,-0.06899737549154648,1.4226952013352308,0.8060185589446516,0.7981778965041414,-0.17327284606121296,1.3365093413580975,0.8309889870964018,-0.025308151931813065,-0.32030126027594136,1.4248746450297733,0.8378019162752179,0.6522415980318106,0.8559723585869432,1.254424444526254,0.6192440364319601,1.1656969480608512
0.09434383113615408,0.4472476981052684,-0.7784078530271668,0.23406790352549625,-0.5886003847436688,0.5255933618569357,0.5679026515087854,0.018904455689492554,0.6425043776190278,-0.8713329655214995,-1.519484969091338,-0.3413233806433281,-0.7736349276368438,-0.313667912086727,-0.06812087930411388,1.4225716327084283,0.80568017901963,0.7980328327985146,-0.17261730539204542,1.3364080057464518,0.8309353608803853,-0.025308151931813065,-0.31990434770971043,1.424721895405391,0.8377964811250429,0.6524431019551995,0.8564329685717708,1.254537032091256,0.6194190017904667,1.165561611477654
0.10220894963744714,0.44772414022375595,-0.7691779593287802,0.23303970031434632,-0.5948557352495818,0.5190702028815255,0.5678074293267139,0.019632916740283737,0.6427736031646281,-0.8626222316464845,-1.5304779188400395,-0.3411936634099968,-0.7735045991019419,-0.31366431681755097,-0.06812087930411388,1.4225716327084283,0.80568017901963,0.7980328327985146,-0.17261730539204542,1.3364080057464518,0.8309353608803853,-0.025308151931813065,-0.31990434770971043,1.424721895405391,0.8377964811250429,0.6524431019551995,0.8564329685717708,1.254537032091256,0.6194190017904667,1.165561611477654
0.10220894963744714,0.44772414022375595,-0.7691779593287802,0.23303970031434632,-0.5948557352495818,0.5190702028815255,0.5678074293267139,0.02107809441224636,0.6438669239865517,-0.8505388372693835,-1.543754642386951,-0.3409046038991437,-0.7718772613068656,-0.31361709900721674,-0.06337965240509902,1.42560803848678,0.8055049802889303,0.7979356184930757,-0.1693732545682391,1.3365641465327518,0.8309432933229678,-0.025308151931813065,-0.31982103533449074,1.4255828952318952,0.8380144401489602,0.6525529684226734,0.8571660287592606,1.2552787171435416,0.6196895442513234,1.1657769625136907
0.12540318993863075,0.44939552888254164,-0.7448989214418579,0.2312439679759225,-0.6124691652689145,0.501224259466616,0.565846260561729,0.02335719443688577,0.6463157805156432,-0.835018187536414,-1.558600340682334,-0.3400059787222536,-0.7644273876446609,-0.31337807365724535,-0.06337965240509902,1.42560803848678,0.8055049802889303,0.7979356184930757,-0.1693732545682391,1.3365641465327518,0.8309432933229678,-0.025308151931813065,-0.31982103533449074,1.4255828952318952,0.8380144401489602,0.6525529684226734,0.8571660287592606,1.2552787171435416,0.6196895442513234,1.1657769625136907
0.12540318993863075,0.44939552888254164,-0.7448989214418579,0.2312439679759225,-0.6124691652689145,0.501224259466616,0.565846260561729,0.02724188087263239,0.6503032318286641,-0.8154733547273183,-1.572604985973298,-0.338663841471421,-0.7457339143364664,-0.31271900122519336,-0.05461658514483873,1.4257580812826591,0.7963257915039901,0.7975135541706964,-0.15991086630065415,1.3365731383333406,0.8310169563388228,-0.025308151931813065,-0.3072490344942934,1.4263589184886463,0.8390166543457624,0.6526767706683492,0.8590293818074397,1.2571218180049273,0.6196405622638287,1.1659304613621297
0.12540318993863075,0.44939552888254164,-0.7448989214418579,0.2312439679759225,-0.6124691652689145,0.501224259466616,0.565846260561729,0.032747493745531236,0.6564808600590154,-0.7926148239833399,-1.584939929310418,-0.33705661314181995,-0.7197617021352131,-0.31203050745069133,-0.05461658514483873,1.4257580812826591,0.7963257915039901,0.7975135541706964,-0.15991086630065415,1.3365731383333406,0.8310169563388228,-0.025308151931813065,-0.3072490344942934,1.4263589184886463,0.8390166543457624,0.6526767706683492,0.8590293818074397,1.2571218180049273,0.6196405622638287,1.1659304613621297
0.17306963379606619,0.45525514048524185,-0.7064962060496888,-0.2284846053844593,0.644954709801181,-0.4741517259050695,-0.5540833405082907,0.03964279732822869,0.6652791386675628,-0.7674307542575667,-1.5956197312120624,-0.3352530350968366,-0.6894903889208779,-0.31184589055848927,-0.03147386882301212,1.4239265638832919,0.7986054072877251,0.7972583939499842,-0.13959189043139658,1.3366622014345562,0.8314249778386997,-0.025308151931813065,-0.29169742608798793,1.449747391917078,0.8538537473614354,0.667382124996007,0.8645500248937222,1.2588423429465125,0.6202710012769516,1.1661232712025447
0.17306963379606619,0.45525514048524185,-0.7064962060496888,-0.2284846053844593,0.644954709801181,-0.4741517259050695,-0.5540833405082907,0.04820756331833016,0.6766987268433482,-0.7400504555761986,-1.6030206492614132,-0.3336957570432301,-0.6574567354939108,-0.31182455859895597,-0.03147386882301212,1.4239265638832919,0.7986054072877251,0.7972583939499842,-0.13959189043139658,1.3366622014345562,0.8314249778386997,-0.025308151931813065,-0.29169742608798793,1.449747391917078,0.8538537473614354,0.667382124996007,0.8645500248937222,1.2588423429465125,0.6202710012769516,1.1661232712025447
0.2033434592010392,0.45910464396262485,-0.6801043374163044,-0.22940322083460055,0.6663320056475844,-0.4556665471179577,-0.5438233337748362,0.05818431070893824,0.6910259875198971,-0.7109858339905936,-1.6069906634262099,-0.3326128624473754,-0.6285184276405127,-0.31184223529362015,-0.03147386882301212,1.4239265638832919,0.7986054072877251,0.7972583939499842,-0.13959189043139658,1.3366622014345562,0.8314249778386997,-0.025308151931813065,-0.29169742608798793,1.449747391917078,0.8538537473614354,0.667382124996007,0.8645500248937222,1.2588423429465125,0.6202710012769516,1.1661232712025447
0.2033434592010392,0.45910464396262485,-0.6801043374163044,-0.22940322083460055,0.6663320056475844,-0.4556665471179577,-0.5438233337748362,0.06984675915939396,0.7079621541450224,-0.680375427082707,-1.6071573639682248,-0.33222351893569657,-0.605119947549254,-0.311868780333463,-0.013747788609115123,1.4006079561746965,0.8049308064350363,0.8060540696174435,-0.13181073547160185,1.3359068305306327,0.8476650883262994,-0.025308151931813065,-0.29532737238535733,1.457822998029341,0.8558527582724743,0.6692182735080772,0.865230689589975,1.250105636874844,0.6200965754225894,1.1657427203633737
0.2512527038017257,0.4635065389135127,-0.6303989949271847,-0.24266889716473503,0.7029200420286886,-0.413552189072269,-0.5253473210903166,0.08293071654457679,0.7268352710297153,-0.6487078318135701,-1.6030074665714067,-0.3321436561597838,-0.5866977370222292,-0.31186758194676534,-0.013747788609115123,1.4006079561746965,0.8049308064350363,0.8060540696174435,-0.13181073547160185,1.3359068305306327,0.8476650883262994,-0.025308151931813065,-0.29532737238535733,1.457822998029341,0.8558527582724743,0.6692182735080772,0.865230689589975,1.250105636874844,0.6200965754225894,1.1657427203633737
0.2512527038017257,0.4635065389135127,-0.6303989949271847,-0.24266889716473503,0.7029200420286886,-0.413552189072269,-0.5253473210903166,0.09782027703664078,0.7472905452438029,-0.6158564947954529,-1.594165745081531,-0.33180378348215395,-0.571379320989516,-0.31196465421451813,-0.02316788869981328,1.3998369141869116,0.8049421111499275,0.8066121698745177,-0.13499437423196162,1.3337657595237398,0.8519858084345701,-0.025308151931813065,-0.3193665573171097,1.4445520761254385,0.8473994580686028,0.6688324894999017,0.8619988783130472,1.2446603933099016,0.6199222765408343,1.165774384184884
0.2734296910055244,0.4610619810567109,-0.6034468194881482,-0.267519581447074,0.7206457506221653,-0.3718014581754565,-0.5204485097982339,0.11459729308684598,0.7685863331555705,-0.5818036193423053,-1.5794587043594897,-0.3287353426389701,-0.5534790834638912,-0.3123521042184915,-0.02316788869981328,1.3998369141869116,0.8049421111499275,0.8066121698745177,-0.13499437423196162,1.3337657595237398,0.8519858084345701,-0.025308151931813065,-0.3193665573171097,1.4445520761254385,0.8473994580686028,0.6688324894999017,0.8619988783130472,1.2446603933099016,0.6199222765408343,1.165774384184884
0.2734296910055244,0.4610619810567109,-0.6034468194881482,-0.267519581447074,0.7206457506221653,-0.3718014581754565,-0.5204485097982339,0.13312244804189197,0.7902018002637058,-0.5468975269216001,-1.5594669198906448,-0.318224506149478,-0.5314532765768089,-0.31299529753592575,-0.04222892786385285,1.39974759209634,0.8050694022363848,0.810451204451156,-0.15182462642218933,1.3332402111237494,0.8518178444074531,-0.025308151931813065,-0.32459331862385304,1.4366941523232235,0.8453809036365175,0.6623569269017466,0.8566509233656556,1.240594448432829,0.6190310185450528,1.1657035705659344
0.2734296910055244,0.4610619810567109,-0.6034468194881482,-0.267519581447074,0.7206457506221653,-0.3718014581754565,-0.5204485097982339,0.1535766437515849,0.8115261705599686,-0.5109589337128309,-1.534962835241104,-0.295459751902576,-0.5057339913821022,-0.3139373175103233,-0.04222892786385285,1.39974759209634,0.8050694022363848,0.810451204451156,-0.15182462642218933,1.3332402111237494,0.8518178444074531,-0.025308151931813065,-0.32459331862385304,1.4366941523232235,0.8453809036365175,0.6623569269017466,0.8566509233656556,1.240594448432829,0.6190310185450528,1.1657035705659344
0.3067721505382797,0.4456379614002219,-0.5923523736188144,0.2908510075945085,-0.7329371059512646,0.3226136174459206,0.5235736280023098,0.17577436437007482,0.8321000287702552,-0.474307698463112,-1.5072583631405445,-0.26216393192748666,-0.4819095320528016,-0.3142230813595831,-0.07906653189678997,1.3885589560212548,0.8005342264909754,0.812606269785233,-0.18759685556241046,1.3245855095075825,0.8464748913191558,-0.025308151931813065,-0.3608412998183991,1.4262338598976019,0.8381019196177171,0.6538441060745015,0.8210150510351355,1.232520889812371,0.6156136704527416,1.1653237399217864
0.3067721505382797,0.4456379614002219,-0.5923523736188144,0.2908510075945085,-0.7329371059512646,0.3226136174459206,0.5235736280023098,0.19903640411064033,0.8520632906321317,-0.43792826551946784,-1.478205785744858,-0.22144172743304816,-0.47170412569531434,-0.3142822834732261,-0.07906653189678997,1.3885589560212548,0.8005342264909754,0.812606269785233,-0.18759685556241046,1.3245855095075825,0.8464748913191558,-0.025308151931813065,-0.3608412998183991,1.4262338598976019,0.8381019196177171,0.6538441060745015,0.8210150510351355,1.232520889812371,0.6156136704527416,1.1653237399217864
0.35894201793177927,0.3997449196146093,-0.6039231280896329,0.2884796616254163,-0.7412131150810639,0.2715526897699178,0.5418872018594214,0.22354324518048552,0.871142895784382,-0.40211472766051476,-1.4479185335292954,-0.17662110989674878,-0.47186615235467555,-0.31428324220440085,-0.1530858816613453,1.2286714422041654,0.7269911304717812,0.8123338628925217,-0.21865854822964287,1.1732041420363586,0.7699354639248461,-0.025308151931813065,-0.4000464748834165,1.2662378148751932,0.7780262120184069,0.6697495152381223,0.7632295548362116,1.2033671102100492,0.6000437521458895,1.1642189341147284
0.35894201793177927,0.3997449196146093,-0.6039231280896329,0.2884796616254163,-0.7412131150810639,0.2715526897699178,0.5418872018594214,0.24950604983890448,0.8892214585084215,-0.3676341951624987,-1.4159585231792855,-0.1351394889082897,-0.4763981069062444,-0.31423129051571985,-0.1530858816613453,1.2286714422041654,0.7269911304717812,0.8123338628925217,-0.21865854822964287,1.1732041420363586,0.7699354639248461,-0.025308151931813065,-0.4000464748834165,1.2662378148751932,0.7780262120184069,0.6697495152381223,0.7632295548362116,1.2033671102100492,0.6000437521458895,1.1642189341147284
0.39283259070840243,0.3285936134207885,-0.6435057268624893,0.27611530065285006,-0.7352132039166205,0.21311123083880218,0.5812103653776447,0.27703321514066775,0.9061744029836462,-0.3353839268494881,-1.3827698900476633,-0.10456389634479206,-0.4815589934717633,-0.3141556700898033,-0.1530858816613453,1.2286714422041654,0.7269911304717812,0.8123338628925217,-0.21865854822964287,1.1732041420363586,0.7699354639248461,-0.025308151931813065,-0.4000464748834165,1.2662378148751932,0.7780262120184069,0.6697495152381223,0.7632295548362116,1.2033671102100492,0.6000437521458895,1.1642189341147284
0.39283259070840243,0.3285936134207885,-0.6435057268624893,0.27611530065285006,-0.7352132039166205,0.21311123083880218,0.5812103653776447,0.30605277614289406,0.921712909398359,-0.3065079369587801,-1.3488578292857296,-0.08740430783137436,-0.4850464628228763,-0.31384791520105143,-0.2274446960377311,0.8593216293994591,0.5670020818794036,0.7944776938042712,-0.23317262369473807,0.8442400068941357,0.5968194131769778,-0.025308151931813065,-0.4471487577116203,0.9190880263730657,0.6609688310106733,0.6659051017236481,0.7271033450682539,1.1520583968654714,0.5737626799326153,1.148558174796853
0.3984328289742235,0.2792153009877298,-0.6860122255065759,0.28193074243835214,-0.7184079707685701,0.15734120040361338,0.6161564660537897,0.336702191595895,0.9357269623412405,-0.28140014684796516,-1.3146250106048676,-0.08212281201140903,-0.4871417846951023,-0.31334739404148765,-0.2274446960377311,0.8593216293994591,0.5670020818794036,0.7944776938042712,-0.23317262369473807,0.8442400068941357,0.5968194131769778,-0.025308151931813065,-0.4471487577116203,0.9190880263730657,0.6609688310106733,0.6659051017236481,0.7271033450682539,1.1520583968654714,0.5737626799326153,1.148558174796853
0.3984328289742235,0.2792153009877298,-0.6860122255065759,0.28193074243835214,-0.7184079707685701,0.15734120040361338,0.6161564660537897,0.3691389343768472,0.948330472034919,-0.260365674976877,-1.2807728110365357,-0.08442129038310009,-0.48698197504022345,-0.3129843319594847,-0.23860095042706767,0.4365277092925661,0.3655594895033315,0.7636181948110914,-0.1964946393223481,0.47274439789051076,0.39617704738639237,-0.025308151931813065,-0.46136715235573056,0.5357362633279473,0.5293861243641956,0.6524609754879829,0.727654085583829,1.0736004501792478,0.5771859285825789,1.1263736879866844
0.38587164861794687,0.26401082813738597,-0.7234857215680088,0.3091840635483002,-0.6930497265701802,0.1107958422625391,0.6417254651999509,0.40314752820887784,0.9595770679749022,-0.24382223154081076,-1.2481296399837194,-0.09078941999230962,-0.48629372103032736,-0.31259088980385696,-0.23860095042706767,0.4365277092925661,0.3655594895033315,0.7636181948110914,-0.1964946393223481,0.47274439789051076,0.39617704738639237,-0.025308151931813065,-0.46136715235573056,0.5357362633279473,0.5293861243641956,0.6524609754879829,0.727654085583829,1.0736004501792478,0.5771859285825789,1.1263736879866844
0.38587164861794687,0.26401082813738597,-0.7234857215680088,0.3091840635483002,-0.6930497265701802,0.1107958422625391,0.6417254651999509,0.43873468399204396,0.9692347952491014,-0.23174968285784778,-1.2163832484439256,-0.09918537610091202,-0.4863318908356531,-0.3123845814142957,-0.22358413016255296,0.29524720353326583,0.25610264198774524,0.7274619664109507,-0.19097744801727493,0.4019324154382457,0.33185952712412065,-0.025308151931813065,-0.46213899517182067,0.3576992596065782,0.42849732859899414,0.652358458588379,0.7266472441314495,0.9948312653903553,0.5860835840646661,1.1052519042751174
0.38587164861794687,0.26401082813738597,-0.7234857215680088,0.3091840635483002,-0.6930497265701802,0.1107958422625391,0.6417254651999509,0.47512076827638444,0.9777057846984931,-0.22405622995440397,-1.185687873344815,-0.10780203380581808,-0.48669177707291583,-0.31235869545441164,-0.22358413016255296,0.29524720353326583,0.25610264198774524,0.7274619664109507,-0.19097744801727493,0.4019324154382457,0.33185952712412065,-0.025308151931813065,-0.46213899517182067,0.3576992596065782,0.42849732859899414,0.652358458588379,0.7266472441314495,0.9948312653903553,0.5860835840646661,1.1052519042751174
0.3648522519688439,0.2634597744233328,-0.7586285946170137,0.34253215322877384,-0.6612703996841185,0.07332977535606758,0.6633369630529374,0.5115386106808772,0.9846304496279477,-0.22007866571342938,-1.155671404708459,-0.11559609427231433,-0.4872456280767713,-0.31235504029862565,-0.21234480609318696,0.2940321170265694,0.23698095719248924,0.6974353009898127,-0.18442478316599564,0.40234158674826165,0.33039695896995874,-0.025308151931813065,-0.46502166480926377,0.2964997661664099,0.3909006146326371,0.6520664165073233,0.7266302393550041,0.893158777278789,0.6025884021864423,1.082458042438582
0.3648522519688439,0.2634597744233328,-0.7586285946170137,0.34253215322877384,-0.6612703996841185,0.07332977535606758,0.6633369630529374,0.5479784441248621,0.9904343498510709,-0.2199766799074999,-1.1266672435098046,-0.12172310123484016,-0.4880464738221289,-0.31238212464520737,-0.21234480609318696,0.2940321170265694,0.23698095719248924,0.6974353009898127,-0.18442478316599564,0.40234158674826165,0.33039695896995874,-0.025308151931813065,-0.46502166480926377,0.2964997661664099,0.3909006146326371,0.6520664165073233,0.7266302393550041,0.893158777278789,0.6025884021864423,1.082458042438582
0.3397001334375792,0.26547429236601006,-0.7937767709116058,0.37222574028831723,-0.6254732042488808,0.04377091337179889,0.6843357189099882,0.5844400888394261,0.9945659113641829,-0.22392080822149554,-1.099422905868084,-0.12607078621472811,-0.48904469983434223,-0.3123873378346,-0.21292492795453083,0.29502090623680655,0.23877689968692223,0.6913955038620915,-0.18358689722946545,0.40247710477768756,0.3306374787238455,-0.025308151931813065,-0.4662068108655787,0.29988672302710895,0.393983307685003,0.6586247667237616,0.7264823467387248,0.779721372275729,0.6052701650158503,1.0516094246240282
0.3397001334375792,0.26547429236601006,-0.7937767709116058,0.37222574028831723,-0.6254732042488808,0.04377091337179889,0.6843357189099882,0.6209385850903151,0.9972319819726667,-0.2321917809751134,-1.073027290971097,-0.12879273940788416,-0.49010859942289886,-0.31239356953269426,-0.21295906827648917,0.29520512828475265,0.23883956356576408,0.6913815874888372,-0.18347547851790436,0.40247422932175675,0.3306351561835388,-0.025308151931813065,-0.46594990448427176,0.30067300865762353,0.3967803974788671,0.6602601764144906,0.7264234771993473,0.7716712473912599,0.6050834263299317,1.0499737451954971
0.3105500917401492,0.26706231255994567,-0.8313050317965165,0.3984573069855236,-0.5839389472833382,0.019787111225767456,0.7070046326473474,0.6574201836088017,0.9991720481903646,-0.2451532594437052,-1.0469149831542814,-0.13019422256567356,-0.4907812739693932,-0.3123905735659501,-0.21295906827648917,0.29520512828475265,0.23883956356576408,0.6913815874888372,-0.18347547851790436,0.40247422932175675,0.3306351561835388,-0.025308151931813065,-0.46594990448427176,0.30067300865762353,0.3967803974788671,0.6602601764144906,0.7264234771993473,0.7716712473912599,0.6050834263299317,1.0499737451954971
0.3105500917401492,0.26706231255994567,-0.8313050317965165,0.3984573069855236,-0.5839389472833382,0.019787111225767456,0.7070046326473474,0.6938820080922786,1.0005366918982341,-0.2645738756427733,-1.0218158217331221,-0.13016613149136272,-0.4907119452372639,-0.3123856600277734,-0.21330202869198042,0.2989557478624174,0.24086078347445108,0.691307129252674,-0.17878198291378672,0.40278271380431274,0.3307462731493672,-0.025308151931813065,-0.46814750289067514,0.30606657678183397,0.4000770678592258,0.6524826558962156,0.7263420220112501,0.6573868548608744,0.6044916177490319,1.0260961111812266
0.29530616147127997,0.26868043363061006,-0.8493494763831244,0.40990416507199046,-0.5625746803318732,0.012555629748941782,0.7178653499561963,0.7303744523049033,1.0010209744053542,-0.29026847337337675,-0.9979422870177479,-0.1298192600434324,-0.49066928142728045,-0.31239728468417327,-0.21330202869198042,0.2989557478624174,0.24086078347445108,0.691307129252674,-0.17878198291378672,0.40278271380431274,0.3307462731493672,-0.025308151931813065,-0.46814750289067514,0.30606657678183397,0.4000770678592258,0.6524826558962156,0.7263420220112501,0.6573868548608744,0.6044916177490319,1.0260961111812266
0.27873109814089747,0.272059410185075,-0.8666007791236269,0.4211580365463059,-0.5403289987901605,0.009583783424503223,0.728408286892836,0.7668673159419639,1.0007119611342117,-0.32030315801113574,-0.9748675607030788,-0.12924344206381197,-0.4906647274269297,-0.31244102710763444,-0.2134729012564149,0.3011553064500351,0.24575162261816175,0.6922504277342231,-0.17790974343360924,0.40305985047010223,0.33090952608527024,-0.025308151931813065,-0.4680098316198784,0.3106667636253309,0.40537492916218226,0.6611169837942386,0.7264573681501156,0.5137833347342227,0.6059221227774292,0.9981925675314679
0.27873109814089747,0.272059410185075,-0.8666007791236269,0.4211580365463059,-0.5403289987901605,0.009583783424503223,0.728408286892836,0.801306982319126,0.9996654986938794,-0.3539343085753763,-0.9525388524697282,-0.12811960937408834,-0.4906207453479456,-0.31249903072549673,-0.2134729012564149,0.3011553064500351,0.24575162261816175,0.6922504277342231,-0.17790974343360924,0.40305985047010223,0.33090952608527024,-0.025308151931813065,-0.4680098316198784,0.3106667636253309,0.40537492916218226,0.6611169837942386,0.7264573681501156,0.5137833347342227,0.6059221227774292,0.9981925675314679
0.26058349729166136,0.27648104789173106,-0.8835824648556551,0.4320345646197049,-0.5168111919183798,0.009386117557534712,0.7390292468359841,0.8318004231510302,0.9983776739077074,-0.387113114630645,-0.9300962941185255,-0.1275442706618805,-0.49056807458361273,-0.3126322953405328,-0.21377120312021272,0.30336525999409064,0.2539531392096077,0.6927304080856295,-0.17712838917320206,0.4035507092106424,0.33094706353743286,-0.025308151931813065,-0.4680618037259649,0.31485592353924896,0.4124073056472016,0.655619281277939,0.7342713663227223,0.3610793271581953,0.6043114366185823,0.9793455546434259
0.26058349729166136,0.27648104789173106,-0.8835824648556551,0.4320345646197049,-0.5168111919183798,0.009386117557534712,0.7390292468359841,0.8586777439037461,0.9966542823535798,-0.41773616481271614,-0.9072903141474938,-0.12747572093564627,-0.49057850085331495,-0.31278904903297444,-0.21377120312021272,0.30336525999409064,0.2539531392096077,0.6927304080856295,-0.17712838917320206,0.4035507092106424,0.33094706353743286,-0.025308151931813065,-0.4680618037259649,0.31485592353924896,0.4124073056472016,0.655619281277939,0.7342713663227223,0.3610793271581953,0.6043114366185823,0.9793455546434259
0.22961429438755215,0.2836742037307721,-0.9100507470682305,0.44578022785699567,-0.4794359058153595,0.014267894626220301,0.7557894070769355,0.8816111761070722,0.9941316030877012,-0.4450397645637729,-0.8838992043635002,-0.127497484318754,-0.4906888156976842,-0.3129779203833944,-0.21401969315447666,0.30753124947737565,0.26376138098745794,0.6939085302861583,-0.17649476417116083,0.4057732953977257,0.33150391368981164,-0.025308151931813065,-0.46808911845269063,0.33790807333490985,0.42893148263990927,0.6597567530061075,0.7469479784976538,0.22845658968241378,0.5974245873862005,0.964311886901755
0.22961429438755215,0.2836742037307721,-0.9100507470682305,0.44578022785699567,-0.4794359058153595,0.014267894626220301,0.7557894070769355,0.8964590315203275,0.991848188718234,-0.46269001116298525,-0.8660880096093213,-0.1275902901073337,-0.49078355096956855,-0.31311783623004363,-0.21401969315447666,0.30753124947737565,0.26376138098745794,0.6939085302861583,-0.17649476417116083,0.4057732953977257,0.33150391368981164,-0.025308151931813065,-0.46808911845269063,0.33790807333490985,0.42893148263990927,0.6597567530061075,0.7469479784976538,0.22845658968241378,0.5974245873862005,0.964311886901755
0.19325942100805374,0.28768457107552403,-0.9401532827316936,0.4540930740412533,-0.43904843448385283,0.019091381534084406,0.775029980991808,0.9164177394909363,0.9873234847007102,-0.4859071698709188,-0.8369012687540343,-0.1276947925689615,-0.4909389863930096,-0.3132205410025419,-0.21379881215154573,0.3199531930888234,0.2791549612193113,0.691849428814155,-0.17717479871620428,0.4153457490949477,0.33494630321731045,-0.025308151931813065,-0.46787905769854854,0.3464505000108297,0.4429086264640199,0.6644230115634091,0.7805477655038433,0.07826645077085986,0.5693362137568511,0.9529260227207528
0.19325942100805374,0.28768457107552403,-0.9401532827316936,0.4540930740412533,-0.43904843448385283,0.019091381534084406,0.775029980991808,0.9281079314770155,0.9828364111817733,-0.49870104906201396,-0.8153877874518285,-0.12784684844592203,-0.4916363484036072,-0.3132281509653298,-0.21379881215154573,0.3199531930888234,0.2791549612193113,0.691849428814155,-0.17717479871620428,0.4153457490949477,0.33494630321731045,-0.025308151931813065,-0.46787905769854854,0.3464505000108297,0.4429086264640199,0.6644230115634091,0.7805477655038433,0.07826645077085986,0.5693362137568511,0.9529260227207528
0.16034087205759104,0.2854661552223237,-0.9684152662708927,0.4544620662699588,-0.40450802644508915,0.01914302570325699,0.7933921044666769,0.9368365218156078,0.9770775117645019,-0.5061828605042009,-0.7966790341132821,-0.12812823810737728,-0.4931625993464019,-0.31322209892706543,-0.21379881215154573,0.3199531930888234,0.2791549612193113,0.691849428814155,-0.17717479871620428,0.4153457490949477,0.33494630321731045,-0.025308151931813065,-0.46787905769854854,0.3464505000108297,0.4429086264640199,0.6644230115634091,0.7805477655038433,0.07826645077085986,0.5693362137568511,0.9529260227207528
0.16034087205759104,0.2854661552223237,-0.9684152662708927,0.4544620662699588,-0.40450802644508915,0.01914302570325699,0.7933921044666769,0.9432160243174725,0.9701248636439009,-0.5089179003069881,-0.7814133487315117,-0.12852429275909588,-0.4950442425218017,-0.3132205410025419,-0.21371861168156003,0.33720045875164695,0.2991722371497801,0.69216849152362,-0.17799787318581958,0.4323873351913436,0.3485066732574673,-0.025308151931813065,-0.4670692211362253,0.3487373240118127,0.44831861759643005,0.6640665822969878,0.8528421241282228,-0.07857167615687922,0.5055361807321321,0.9417361623058509
0.1289183841165847,0.275795051996026,-0.9976115711468337,0.4456987582240847,-0.3727104164873941,0.010848425631586556,0.8138316005296291,0.9472098272108908,0.9620830891639012,-0.5082067564130351,-0.769935637055561,-0.12887461559562202,-0.496875372159824,-0.31321958227136715,-0.21371861168156003,0.33720045875164695,0.2991722371497801,0.69216849152362,-0.17799787318581958,0.4323873351913436,0.3485066732574673,-0.025308151931813065,-0.4670692211362253,0.3487373240118127,0.44831861759643005,0.6640665822969878,0.8528421241282228,-0.07857167615687922,0.5055361807321321,0.9417361623058509
0.1289183841165847,0.275795051996026,-0.9976115711468337,0.4456987582240847,-0.3727104164873941,0.010848425631586556,0.8138316005296291,0.9495719778553217,0.9534569639422843,-0.5048074310978865,-0.7618317843774771,-0.12924660582214706,-0.4984479421774713,-0.3132183838846695,-0.2137438145789301,0.3727375322534184,0.309087075435192,0.6917775821395251,-0.17493576529539215,0.45961267956366825,0.3581791747645646,-0.025308151931813065,-0.46523829693805585,0.3583373149490674,0.457953966809303,0.6621284775730041,0.9384594713891438,-0.1788528836787942,0.4360654338329001,0.9250463686371011
0.1289183841165847,0.275795051996026,-0.9976115711468337,0.4456987582240847,-0.3727104164873941,0.010848425631586556,0.8138316005296291,0.9504143490196582,0.9443043118279996,-0.49965996676881386,-0.7569083651283229,-0.12945925394568325,-0.4996537948482465,-0.31321922273354125,-0.2137438145789301,0.3727375322534184,0.309087075435192,0.6917775821395251,-0.17493576529539215,0.45961267956366825,0.3581791747645646,-0.025308151931813065,-0.46523829693805585,0.3583373149490674,0.457953966809303,0.6621284775730041,0.9384594713891438,-0.1788528836787942,0.4360654338329001,0.9250463686371011
0.11921097472263725,0.268312484799318,-1.0111485655277574,0.43643133457660294,-0.36100389389742593,0.002700155598198861,0.8241338410418098,0.9503354928623915,0.9349014889093065,-0.4933525493102996,-0.754572040448083,-0.12963384010342488,-0.500947791554986,-0.3132185636535824,-0.21390359509133966,0.3891883432550248,0.3278869066826561,0.7000850352153705,-0.17430651290795918,0.49877126454221843,0.3710683040119508,-0.025308151931813065,-0.46470040811601837,0.37318719607196044,0.46864068328917896,0.6663645800186451,1.0367019453686175,-0.28553400696109776,0.3330662461564802,0.8931249892806223
0.11771575633701348,0.2653425454493933,-1.0153573911752543,0.4322287827125819,-0.3582106868394569,-0.0008047853466068289,0.8275643392204319,0.9494548320104262,0.9253090156779316,-0.4866714038445573,-0.7542935870194782,-0.12970104767146434,-0.5022075732634017,-0.31320442223240125,-0.21390359509133966,0.3891883432550248,0.3278869066826561,0.7000850352153705,-0.17430651290795918,0.49877126454221843,0.3710683040119508,-0.025308151931813065,-0.46470040811601837,0.37318719607196044,0.46864068328917896,0.6663645800186451,1.0367019453686175,-0.28553400696109776,0.3330662461564802,0.8931249892806223
0.1173492960415343,0.26263363069275936,-1.0187772120585188,0.4280741573561694,-0.35640209678187057,-0.003986615676928318,0.8304903178898211,0.947301206869122,0.9159251878319863,-0.4802628995337614,-0.7555833292679999,-0.1296926107498602,-0.5025930459184156,-0.31315462777067565,-0.21437581732841807,0.4054970336321265,0.3293857546725491,0.7017481916141151,-0.17495577784304575,0.5292921272357687,0.3869058825915431,-0.025308151931813065,-0.4651492295404437,0.38687467073952964,0.47010973718039056,0.6669771958935822,1.1092305452241054,-0.368254651885151,0.220436604037188,0.851707696709214
0.1173492960415343,0.26263363069275936,-1.0187772120585188,0.4280741573561694,-0.35640209678187057,-0.003986615676928318,0.8304903178898211,0.9441243687093682,0.9067710376797881,-0.47448242850143385,-0.7580841374857724,-0.12967957191861731,-0.502624923920871,-0.31302837392507876,-0.21437581732841807,0.4054970336321265,0.3293857546725491,0.7017481916141151,-0.17495577784304575,0.5292921272357687,0.3869058825915431,-0.025308151931813065,-0.4651492295404437,0.38687467073952964,0.47010973718039056,0.6669771958935822,1.1092305452241054,-0.368254651885151,0.220436604037188,0.851707696709214
0.11893047067025636,0.2600656876545726,-1.0218322779168687,0.42318452176626625,-0.35583831973570895,-0.006681701428331854,0.833216241807099,0.9403727670106616,0.8980150034567883,-0.4695056795170712,-0.7613785409148575,-0.1296571374564122,-0.5026279199966982,-0.31284082084365944,-0.21478673335339876,0.40437375552829913,0.32977248229884815,0.7033295910071302,-0.17494355972973938,0.5319096256439114,0.3888680170409109,-0.025308151931813065,-0.46525201612376244,0.39186511662056156,0.4701172622734494,0.667537587921417,1.146630782950352,-0.3587883158394951,0.13685022786211024,0.823811205295054
0.11893047067025636,0.2600656876545726,-1.0218322779168687,0.42318452176626625,-0.35583831973570895,-0.006681701428331854,0.833216241807099,0.9361994404230479,0.8898582403588485,-0.4654381736600859,-0.7650624916882613,-0.12965186446767607,-0.5026158758067794,-0.31255218080087543,-0.21478673335339876,0.40437375552829913,0.32977248229884815,0.7033295910071302,-0.17494355972973938,0.5319096256439114,0.3888680170409109,-0.025308151931813065,-0.46525201612376244,0.39186511662056156,0.4701172622734494,0.667537587921417,1.146630782950352,-0.3587883158394951,0.13685022786211024,0.823811205295054
0.12373012083494705,0.2569879964366589,-1.0252709509577331,0.41518774801812874,-0.3570516714618666,-0.008597591935450788,0.8366954757944097,0.9316272788305839,0.8825349800800667,-0.4622845848131317,-0.768691854234983,-0.12963403191510967,-0.5026089849196433,-0.31243994849415674,-0.21478673335339876,0.40437375552829913,0.32977248229884815,0.7033295910071302,-0.17494355972973938,0.5319096256439114,0.3888680170409109,-0.025308151931813065,-0.46525201612376244,0.39186511662056156,0.4701172622734494,0.667537587921417,1.146630782950352,-0.3587883158394951,0.13685022786211024,0.823811205295054
0.12373012083494705,0.2569879964366589,-1.0252709509577331,0.41518774801812874,-0.3570516714618666,-0.008597591935450788,0.8366954757944097,0.9265311070011505,0.876084710694769,-0.46012844301612915,-0.7722345110061271,-0.12955234736452367,-0.5026056893016833,-0.3124365329938936,-0.21477468483821163,0.40351036049379535,0.3297346861357087,0.7036339199783287,-0.1752316316104196,0.5312625639747074,0.38882698963281903,-0.025308151931813065,-0.46563678533517083,0.3916487990790885,0.47005868507500387,0.6676999017615738,1.1761669962862242,-0.33422702753034184,0.09658658615849233,0.796044821690114
0.12865814145063828,0.25525367098545687,-1.0272904864711048,0.40794658487453334,-0.3595160626528572,-0.006830748106157414,0.839214588448093,0.9210933249315504,0.8702635532014175,-0.4588819037752468,-0.7756319189680094,-0.1294390245324551,-0.5026041912637697,-0.3124377913762843,-0.21477468483821163,0.40351036049379535,0.3297346861357087,0.7036339199783287,-0.1752316316104196,0.5312625639747074,0.38882698963281903,-0.025308151931813065,-0.46563678533517083,0.3916487990790885,0.47005868507500387,0.6676999017615738,1.1761669962862242,-0.33422702753034184,0.09658658615849233,0.796044821690114
0.12865814145063828,0.25525367098545687,-1.0272904864711048,0.40794658487453334,-0.3595160626528572,-0.006830748106157414,0.839214588448093,0.9154384485557778,0.8650870271768037,-0.45843423314892884,-0.7788931860122484,-0.12935225880481777,-0.5025866343423253,-0.31244054779658864,-0.2149330631208448,0.40010993655185373,0.329703948498653,0.7039060379513581,-0.17520572668703943,0.5310007208921865,0.38880487788727874,-0.025308151931813065,-0.4660149883254733,0.39167704266689535,0.470170159364222,0.6679854465106776,1.184953624266215,-0.3086909399293831,0.10225911140185892,0.7815636156321626
0.13202142005553175,0.25483746673256424,-1.028183984037593,0.4026297388853951,-0.3621415016057795,-0.0020485360454907675,0.8406774825578833,0.9093704759807539,0.860543627846831,-0.45863131365548554,-0.7818911597759316,-0.12921132434038385,-0.5024927379193127,-0.31244276480107097,-0.2149330631208448,0.40010993655185373,0.329703948498653,0.7039060379513581,-0.17520572668703943,0.5310007208921865,0.38880487788727874,-0.025308151931813065,-0.4660149883254733,0.39167704266689535,0.470170159364222,0.6679854465106776,1.184953624266215,-0.3086909399293831,0.10225911140185892,0.7815636156321626
0.13202142005553175,0.25483746673256424,-1.028183984037593,0.4026297388853951,-0.3621415016057795,-0.0020485360454907675,0.8406774825578833,0.9028955790179629,0.8567705743062881,-0.4593537227770954,-0.7845260713485289,-0.12901717984851147,-0.5022245309914971,-0.31244480214572345,-0.21479759411978297,0.38046258657933457,0.3296460260368913,0.7041129013206906,-0.17509189127949373,0.5309215514834418,0.3888328693656146,-0.025308151931813065,-0.4660494214695782,0.3917261548367995,0.47008012013634753,0.668124353983776,1.1863078783062841,-0.2870816133167367,0.1266896943105813,0.7771279677586417
0.13475249960280147,0.255138208685088,-1.0285022873050074,0.3981188525047935,-0.3652571380238142,0.00495780907442861,0.8414654018627864,0.8963698689756616,0.8536857149981144,-0.4604837752530412,-0.7866289432969329,-0.1287998339967606,-0.5018330062982188,-0.31244665972146296,-0.21479759411978297,0.38046258657933457,0.3296460260368913,0.7041129013206906,-0.17509189127949373,0.5309215514834418,0.3888328693656146,-0.025308151931813065,-0.4660494214695782,0.3917261548367995,0.47008012013634753,0.668124353983776,1.1863078783062841,-0.2870816133167367,0.1266896943105813,0.7771279677586417
0.13475249960280147,0.255138208685088,-1.0285022873050074,0.3981188525047935,-0.3652571380238142,0.00495780907442861,0.8414654018627864,0.8899811984774023,0.8513008542385396,-0.4619405775814036,-0.7883027799357747,-0.1286126882751887,-0.5014365681758469,-0.31244731880142174,-0.21522007528689463,0.3724984116488308,0.3286392978202898,0.7042132565747576,-0.1752334857952732,0.5308828971546855,0.3887755703377646,-0.025308151931813065,-0.4664973652184656,0.39167332008161887,0.47013143583680983,0.6682090849049758,1.1882650783547704,-0.2618780978248557,0.15745746756071471,0.7765959560443703
0.13475249960280147,0.255138208685088,-1.0285022873050074,0.3981188525047935,-0.3652571380238142,0.00495780907442861,0.8414654018627864,0.8836034336689741,0.8494920152912253,-0.4636884768307215,-0.7896810856446964,-0.1284428958387706,-0.5010965158602039,-0.3124476184526377,-0.21522007528689463,0.3724984116488308,0.3286392978202898,0.7042132565747576,-0.1752334857952732,0.5308828971546855,0.3887755703377646,-0.025308151931813065,-0.4664973652184656,0.39167332008161887,0.47013143583680983,0.6682090849049758,1.1882650783547704,-0.2618780978248557,0.15745746756071471,0.7765959560443703
0.13634473659431126,0.2557435384660916,-1.0285853958324205,0.3948998643812237,-0.3679419795980695,0.011925520098133413,0.8417425846014527,0.877184562975086,0.8482053290051409,-0.46561320324054056,-0.7908231224239509,-0.12828738857321426,-0.5009084833586557,-0.3124476184526377,-0.21518329513277376,0.36953358460282704,0.3280147640437192,0.70416920752089,-0.1751742819614662,0.5308799448377368,0.3888488668663037,-0.025308151931813065,-0.466707711839572,0.3907074293068728,0.4701292575297975,0.6683654334049534,1.18831350077751,-0.23993731250702297,0.18898439363788014,0.7768066184654256
0.13634473659431126,0.2557435384660916,-1.0285853958324205,0.3948998643812237,-0.3679419795980695,0.011925520098133413,0.8417425846014527,0.8706670620889214,0.8473654744965027,-0.4676868337244905,-0.7918589789347511,-0.12812516999308518,-0.5008153658979048,-0.3124474386837247,-0.2151401185423205,0.3692631615030647,0.3278136948843806,0.7041250151759871,-0.17517651483808716,0.5308528165472488,0.3888665789728916,-0.025308151931813065,-0.46661952228434,0.39001686664824947,0.47013118345565613,0.6683190397172393,1.1883068289358703,-0.23823525345021745,0.19147682995567633,0.7768118364642935
0.13708516542998656,0.2566987373575829,-1.028409726324986,0.3916544911583623,-0.37115474666414533,0.021194733099861807,0.841666024544762,0.8641301468146563,0.84680533179886,-0.46988569932716956,-0.7927708586001299,-0.12795029620508283,-0.5007599388223507,-0.3124477382258576,-0.2151401185423205,0.3692631615030647,0.3278136948843806,0.7041250151759871,-0.17517651483808716,0.5308528165472488,0.3888665789728916,-0.025308151931813065,-0.46661952228434,0.39001686664824947,0.47013118345565613,0.6683190397172393,1.1883068289358703,-0.23823525345021745,0.19147682995567633,0.7768118364642935
0.13708516542998656,0.2566987373575829,-1.028409726324986,0.3916544911583623,-0.37115474666414533,0.021194733099861807,0.841666024544762,0.8578697675066463,0.8466198160620931,-0.47197538858556704,-0.7935509716883861,-0.12782029134149075,-0.5007010963556167,-0.3124478581081606,-0.21514228511834183,0.36779143826218025,0.32927188121417983,0.7043756345097361,-0.1750736331871012,0.5302554800320942,0.3888855169531985,-0.025308151931813065,-0.46632510783895387,0.38186659501204,0.4701991450326185,0.6683292221141641,1.1883368863125514,-0.22017761073029585,0.2131985263584301,0.7768442342059787
0.13723119252467675,0.25756051444743544,-1.0280351619801003,0.3895038848817678,-0.3737494329912543,0.028693065825404485,0.841293523673079,0.851851169859829,0.8467493655256502,-0.4739676461474689,-0.7941227390424286,-0.1277063932489007,-0.5005088693915436,-0.3124480977636835,-0.21514228511834183,0.36779143826218025,0.32927188121417983,0.7043756345097361,-0.1750736331871012,0.5302554800320942,0.3888855169531985,-0.025308151931813065,-0.46632510783895387,0.38186659501204,0.4701991450326185,0.6683292221141641,1.1883368863125514,-0.22017761073029585,0.2131985263584301,0.7768442342059787
0.13723119252467675,0.25756051444743544,-1.0280351619801003,0.3895038848817678,-0.3737494329912543,0.028693065825404485,0.841293523673079,0.8460131745206849,0.8471888269958314,-0.4758651683284033,-0.7946889337783357,-0.127564116626272,-0.5001703150047311,-0.3124480977636835,-0.21514964125359617,0.36415598692069323,0.32848719390390224,0.7043061348676631,-0.17508367631909869,0.5099452171486493,0.388881790107518,-0.025308151931813065,-0.4664314881857944,0.37511967683434694,0.4701528429578923,0.6684058523923262,1.1883139894702535,-0.20399859300978346,0.2331833717496562,0.7770246392657242
0.13770226352141227,0.258687465267668,-1.0272512713160533,0.3877233491318326,-0.3768482704716586,0.03647692948314818,0.8404316862160758,0.840493420335688,0.847845742310011,-0.4776194791538115,-0.7952460204044581,-0.12742212745937112,-0.4998011408887707,-0.3124480977636835,-0.21514964125359617,0.36415598692069323,0.32848719390390224,0.7043061348676631,-0.17508367631909869,0.5099452171486493,0.388881790107518,-0.025308151931813065,-0.4664314881857944,0.37511967683434694,0.4701528429578923,0.6684058523923262,1.1883139894702535,-0.20399859300978346,0.2331833717496562,0.7770246392657242
0.13770226352141227,0.258687465267668,-1.0272512713160533,0.3877233491318326,-0.3768482704716586,0.03647692948314818,0.8404316862160758,0.8352098151980551,0.8485835511261097,-0.4792420234020972,-0.79588370109945,-0.12729797084503663,-0.4995685271148896,-0.3124480977636835,-0.21522082601861792,0.3620516851609049,0.3288375772800732,0.7043089258612256,-0.17418769934343653,0.4828895898501071,0.38757339083474224,-0.025308151931813065,-0.4664418030231884,0.366467517696957,0.4700529463995986,0.6684480930760381,1.1884136594775965,-0.1978004187570308,0.2496952308802532,0.777052511848536
0.13770226352141227,0.258687465267668,-1.0272512713160533,0.3877233491318326,-0.3768482704716586,0.03647692948314818,0.8404316862160758,0.8300580965198477,0.8493955422168213,-0.48077726246329044,-0.796642602110476,-0.12715981686463407,-0.49941351122496747,-0.3124483375282895,-0.21522082601861792,0.3620516851609049,0.3288375772800732,0.7043089258612256,-0.17418769934343653,0.4828895898501071,0.38757339083474224,-0.025308151931813065,-0.4664418030231884,0.366467517696957,0.4700529463995986,0.6684480930760381,1.1884136594775965,-0.1978004187570308,0.2496952308802532,0.777052511848536
0.13841143561370775,0.2598337232108928,-1.026098693181238,0.38642310293430493,-0.3800547955549043,0.043405056312411816,0.8392565394328841,0.8251147835715471,0.8502907039187105,-0.48221656786590167,-0.79740899331107,-0.12701504738823474,-0.49932950176491814,-0.31244827753259646,-0.21520903273504,0.36178418189583034,0.3285025158849276,0.7043011843881996,-0.17409606129966826,0.46313874884177253,0.3876316629928497,-0.025308151931813065,-0.46651049982621995,0.3447912084454788,0.47025249056313073,0.6686492145241842,1.1884870369422103,-0.19770344010313146,0.2511080953900279,0.7771305399249425
0.13841143561370775,0.2598337232108928,-1.026098693181238,0.38642310293430493,-0.3800547955549043,0.043405056312411816,0.8392565394328841,0.8205266829778554,0.8513341703922986,-0.4834750313053167,-0.798201330358158,-0.12688226221514423,-0.4991352374561926,-0.3124486970661154,-0.21520903273504,0.36178418189583034,0.3285025158849276,0.7043011843881996,-0.17409606129966826,0.46313874884177253,0.3876316629928497,-0.025308151931813065,-0.46651049982621995,0.3447912084454788,0.47025249056313073,0.6686492145241842,1.1884870369422103,-0.19770344010313146,0.2511080953900279,0.7771305399249425
0.13928588139726286,0.26104743762265087,-1.024544352633066,0.38532308726449205,-0.3836103109123475,0.05024785082947952,0.8377615420092471,0.8163402336959282,0.8524645225194604,-0.484592200851555,-0.7989313493334727,-0.12674008123655853,-0.4988921375259993,-0.3124516331462496,-0.21520903273504,0.36178418189583034,0.3285025158849276,0.7043011843881996,-0.17409606129966826,0.46313874884177253,0.3876316629928497,-0.025308151931813065,-0.46651049982621995,0.3447912084454788,0.47025249056313073,0.6686492145241842,1.1884870369422103,-0.19770344010313146,0.2511080953900279,0.7771305399249425
0.13928588139726286,0.26104743762265087,-1.024544352633066,0.38532308726449205,-0.3836103109123475,0.05024785082947952,0.8377615420092471,0.8125677195712073,0.853687512687244,-0.48555231694505263,-0.7997318956457805,-0.12661189797310676,-0.49875833360422445,-0.3124591233358176,-0.2151620993441885,0.3612921370538306,0.3280528007306158,0.7042432152533808,-0.17400734482290037,0.45694094408031216,0.3877194049817923,-0.025308151931813065,-0.46530377525145195,0.3335947340141044,0.46981355629248334,0.6685228386590393,1.1883994042585282,-0.19765230757010782,0.2513323404349546,0.7771163812729542
0.1403522938294895,0.2620984353794989,-1.022929624690085,0.3848211232876807,-0.38669264455951013,0.05517647586574759,0.8362637492001053,0.8090783926443548,0.8549143377797266,-0.48639079329808016,-0.8005535340439325,-0.12647796227897334,-0.4986770805644794,-0.3124632578026494,-0.2151620993441885,0.3612921370538306,0.3280528007306158,0.7042432152533808,-0.17400734482290037,0.45694094408031216,0.3877194049817923,-0.025308151931813065,-0.46530377525145195,0.3335947340141044,0.46981355629248334,0.6685228386590393,1.1883994042585282,-0.19765230757010782,0.2513323404349546,0.7771163812729542
0.1403522938294895,0.2620984353794989,-1.022929624690085,0.3848211232876807,-0.38669264455951013,0.05517647586574759,0.8362637492001053,0.8058043023388521,0.8561741194881423,-0.4871704869619006,-0.8014664923227889,-0.12639407267941039,-0.4985923521378613,-0.3124737440680446,-0.2151445690281652,0.35986541534605965,0.32842721388144,0.704315585088202,-0.17395952663609152,0.45688788060660895,0.3878440991808128,-0.025308151931813065,-0.46538455469890816,0.33108397038387355,0.4699521969170655,0.6684598882276822,1.1885086401560419,-0.19768865824258824,0.25122083381516647,0.7770719817841957
0.1412821269016833,0.2629853975846848,-1.0214008631762466,0.3846205962342821,-0.38925318008901677,0.058837734282960186,0.8349174089497842,0.8028009357259465,0.8573564231949019,-0.4878477155087456,-0.8024272676053283,-0.12631756547351752,-0.4985300341751711,-0.31247913691726714,-0.2151445690281652,0.35986541534605965,0.32842721388144,0.704315585088202,-0.17395952663609152,0.45688788060660895,0.3878440991808128,-0.025308151931813065,-0.46538455469890816,0.33108397038387355,0.4699521969170655,0.6684598882276822,1.1885086401560419,-0.19768865824258824,0.25122083381516647,0.7770719817841957
0.1412821269016833,0.2629853975846848,-1.0214008631762466,0.3846205962342821,-0.38925318008901677,0.058837734282960186,0.8349174089497842,0.8001398985379423,0.8584977407894216,-0.4884317068216199,-0.8033423830020572,-0.126267615197523,-0.49846334187196006,-0.3124855484933574,-0.21524759792882792,0.35868582707393737,0.32845588041294427,0.7043180101939464,-0.17403169687286868,0.4569711679695061,0.3883577740864769,-0.025308151931813065,-0.46550347995045227,0.330960910172474,0.4700392938089332,0.6684086159648561,1.1884153020263282,-0.19771368085111674,0.25099743129267815,0.7769696668461039
0.1412821269016833,0.2629853975846848,-1.0214008631762466,0.3846205962342821,-0.38925318008901677,0.058837734282960186,0.8349174089497842,0.7978112438161833,0.8596982606066674,-0.48891772702217656,-0.8042222647826776,-0.12621325482357454,-0.4983843059457805,-0.312490521918144,-0.21524759792882792,0.35868582707393737,0.32845588041294427,0.7043180101939464,-0.17403169687286868,0.4569711679695061,0.3883577740864769,-0.025308151931813065,-0.46550347995045227,0.330960910172474,0.4700392938089332,0.6684086159648561,1.1884153020263282,-0.19771368085111674,0.25099743129267815,0.7769696668461039
0.14257520595445966,0.2640600039238639,-1.019456826619603,0.384641812827361,-0.39219208661698934,0.06248218595576993,0.8332658756111891,0.7957917221387868,0.860925025703457,-0.4892910356049687,-0.8050180173300285,-0.12616637248733917,-0.49828807263598246,-0.31249962991884556,-0.21532926171941769,0.35448192835942566,0.3279534287046534,0.7043208688336211,-0.17396262527844147,0.45686031968760826,0.3922322459780751,-0.025308151931813065,-0.4655212232924676,0.3309330059253392,0.46996136638448294,0.6683809921071622,1.188473858290095,-0.1976880069940304,0.2509087773286551,0.7771406390721268
0.14257520595445966,0.2640600039238639,-1.019456826619603,0.384641812827361,-0.39219208661698934,0.06248218595576993,0.8332658756111891,0.7940830713082724,0.8621668910616855,-0.4895802149544916,-0.8057687091849178,-0.12613243316377074,-0.49815606640333715,-0.31251119479771855,-0.21532926171941769,0.35448192835942566,0.3279534287046534,0.7043208688336211,-0.17396262527844147,0.45686031968760826,0.3922322459780751,-0.025308151931813065,-0.4655212232924676,0.3309330059253392,0.46996136638448294,0.6683809921071622,1.188473858290095,-0.1976880069940304,0.2509087773286551,0.7771406390721268
0.14373126261549496,0.26492643171463576,-1.0177688397662066,0.3849661017123898,-0.39449126275589375,0.06478805427615941,0.8318535040286456,0.792947625874021,0.8630589368054445,-0.48971797368326847,-0.8063609096539288,-0.12611345009016142,-0.49807727013268044,-0.31252144129850773,-0.21520419272776697,0.34874114555480173,0.32837854411163614,0.7042938229263956,-0.17381830202344073,0.45691127131868414,0.39517444471748747,-0.025308151931813065,-0.4654966945949848,0.33102085741359305,0.4699952336919916,0.6684460108898844,1.1883695142329647,-0.19771429849083633,0.2513575945025864,0.7769530148389526
0.14373126261549496,0.26492643171463576,-1.0177688397662066,0.3849661017123898,-0.39449126275589375,0.06478805427615941,0.8318535040286456,0.7913376651223929,0.8643822349723311,-0.4899178704967394,-0.8073653075867095,-0.12607970257827777,-0.4979408296729042,-0.31253450410621125,-0.21520419272776697,0.34874114555480173,0.32837854411163614,0.7042938229263956,-0.17381830202344073,0.45691127131868414,0.39517444471748747,-0.025308151931813065,-0.4654966945949848,0.33102085741359305,0.4699952336919916,0.6684460108898844,1.1883695142329647,-0.19771429849083633,0.2513575945025864,0.7769530148389526
0.14496558010595673,0.26571599748320157,-1.0161377028165521,0.38542570323543557,-0.3965338360764861,0.06639184554065475,0.8305420320354908,0.7902914422285005,0.8654410412537982,-0.4900511949983854,-0.8081728645593734,-0.12606455451663387,-0.49774734443552354,-0.31254187441347625,-0.21520419272776697,0.34874114555480173,0.32837854411163614,0.7042938229263956,-0.17381830202344073,0.45691127131868414,0.39517444471748747,-0.025308151931813065,-0.4654966945949848,0.33102085741359305,0.4699952336919916,0.6684460108898844,1.1883695142329647,-0.19771429849083633,0.2513575945025864,0.7769530148389526
0.14496558010595673,0.26571599748320157,-1.0161377028165521,0.38542570323543557,-0.3965338360764861,0.06639184554065475,0.8305420320354908,0.7894022127916557,0.8663958243846832,-0.49021789554040035,-0.8088787353773237,-0.12603857267272406,-0.4976149786650523,-0.31254439106917453,-0.2151123204643801,0.34502028257255013,0.3284059211784457,0.7042210212150699,-0.1737773654552885,0.45688366045059614,0.39531427317560514,-0.025308151931813065,-0.4654461564142251,0.33100464415947606,0.4699889316210978,0.6684658202760934,1.188532003310948,-0.1977237236122286,0.25125421100047807,0.7773511071429167
0.14620571762701395,0.2664675914556624,-1.0146027103465092,0.3860157626361749,-0.3983075581672866,0.06751231581706485,0.8293280456587988,0.7888367970180105,0.8674402495894461,-0.4902786555785669,-0.8095452381123337,-0.1260264925508393,-0.49748866493284544,-0.3125517013807465,-0.2151123204643801,0.34502028257255013,0.3284059211784457,0.7042210212150699,-0.1737773654552885,0.45688366045059614,0.39531427317560514,-0.025308151931813065,-0.4654461564142251,0.33100464415947606,0.4699889316210978,0.6684658202760934,1.188532003310948,-0.1977237236122286,0.25125421100047807,0.7773511071429167
0.14620571762701395,0.2664675914556624,-1.0146027103465092,0.3860157626361749,-0.3983075581672866,0.06751231581706485,0.8293280456587988,0.7885617590896687,0.8683985082162873,-0.49035583403809013,-0.8100560656592967,-0.1260079889191755,-0.4974231711254151,-0.31255475745226674,-0.2152442432607094,0.3421317440324902,0.32798713645205846,0.7043506123013579,-0.17392735111788404,0.4568395478573336,0.3954206839569504,-0.025308151931813065,-0.46541048048115313,0.330920816949163,0.4701309176611056,0.6685314562143444,1.1884050643547885,-0.19782892144403152,0.2511371048693925,0.7773761580909891
0.14701807312931703,0.2669942587961858,-1.0134360694886733,0.38667711195685806,-0.3994631486581956,0.06793936539512957,0.8284287818409564,0.7884180083183205,0.8693821134962736,-0.4903944831544617,-0.8106053026671083,-0.12599926436731063,-0.4973613924694638,-0.3125624871882746,-0.2152442432607094,0.3421317440324902,0.32798713645205846,0.7043506123013579,-0.17392735111788404,0.4568395478573336,0.3954206839569504,-0.025308151931813065,-0.46541048048115313,0.330920816949163,0.4701309176611056,0.6685314562143444,1.1884050643547885,-0.19782892144403152,0.2511371048693925,0.7773761580909891
0.14701807312931703,0.2669942587961858,-1.0134360694886733,0.38667711195685806,-0.3994631486581956,0.06793936539512957,0.8284287818409564,0.788409020090839,0.8702642123904593,-0.4903983180791606,-0.8110461424019832,-0.125993511936629,-0.4973537225109828,-0.3125665019909696,-0.21526121636142342,0.33798506172670595,0.3280690128083048,0.7043370744463393,-0.17406962863204828,0.4569688049852543,0.3953543238774917,-0.025308151931813065,-0.4655471195360123,0.3309625642163455,0.46999759498321175,0.6685359802155727,1.1884522048443933,-0.19769954914876003,0.2507701281455564,0.7771485813921752
0.14701807312931703,0.2669942587961858,-1.0134360694886733,0.38667711195685806,-0.3994631486581956,0.06793936539512957,0.8284287818409564,0.788420285318496,0.8710969961339653,-0.49039604107898527,-0.8115193994460524,-0.12599188214817347,-0.49731081904547647,-0.31257566987828106,-0.21526121636142342,0.33798506172670595,0.3280690128083048,0.7043370744463393,-0.17406962863204828,0.4569688049852543,0.3953543238774917,-0.025308151931813065,-0.4655471195360123,0.3309625642163455,0.46999759498321175,0.6685359802155727,1.1884522048443933,-0.19769954914876003,0.2507701281455564,0.7771485813921752
0.14773296431752697,0.2674785611682275,-1.012299167335695,0.38744421489266023,-0.40046043135766884,0.0680660443136119,0.8275780548531582,0.7884922505886265,0.8718570357541621,-0.4903651816943146,-0.8118084589132724,-0.12599188214817347,-0.497293741435078,-0.31258423857224377,-0.21527049201647092,0.3307027513554568,0.32738639465561187,0.7042764433356176,-0.1740279353741643,0.45696344234787023,0.39534306196595015,-0.025308151931813065,-0.4655217314921016,0.33098021461762417,0.4699228819550573,0.6684731384742335,1.1884562610912994,-0.19782131834303893,0.25094127038642977,0.7770953459422015
0.14773296431752697,0.2674785611682275,-1.012299167335695,0.38744421489266023,-0.40046043135766884,0.0680660443136119,0.8275780548531582,0.7886510415166376,0.8726499119989058,-0.49031976146402684,-0.8120175237231378,-0.12599293685064045,-0.49726851466423583,-0.3125946648419459,-0.21527049201647092,0.3307027513554568,0.32738639465561187,0.7042764433356176,-0.1740279353741643,0.45696344234787023,0.39534306196595015,-0.025308151931813065,-0.4655217314921016,0.33098021461762417,0.4699228819550573,0.6684731384742335,1.1884562610912994,-0.19782131834303893,0.25094127038642977,0.7770953459422015
0.14815835787572545,0.2677910685660564,-1.0115272083057343,0.38805256155224643,-0.4010880111460333,0.0680184478238765,0.8269928098498135,0.7888776632479474,0.8734283473894187,-0.49022658411666603,-0.812087391762006,-0.12599312848779232,-0.4972657583530146,-0.3125953240309878,-0.21527049201647092,0.3307027513554568,0.32738639465561187,0.7042764433356176,-0.1740279353741643,0.45696344234787023,0.39534306196595015,-0.025308151931813065,-0.4655217314921016,0.33098021461762417,0.4699228819550573,0.6684731384742335,1.1884562610912994,-0.19782131834303893,0.25094127038642977,0.7770953459422015
0.14815835787572545,0.2677910685660564,-1.0115272083057343,0.38805256155224643,-0.4010880111460333,0.0680184478238765,0.8269928098498135,0.7891405372131504,0.8741694518234774,-0.4900480791493383,-0.8120957208004458,-0.12599427900883522,-0.49725635070109714,-0.3125977208043831,-0.2152130093591259,0.33097494080354994,0.32800281630244893,0.7043644231866216,-0.17397061681330103,0.45671979589286393,0.3953485264105706,-0.025308151931813065,-0.4656331412937716,0.3310052223846367,0.47003362423284856,0.6684256939396054,1.1853159378714526,-0.19805937886123007,0.2511717242317819,0.7771772411594924
0.14842628425941473,0.2680010550857971,-1.0108290939186246,0.3887690834981313,-0.40157570243750496,0.06762637457451637,0.826451588654626,0.7894054485230059,0.8748539307952845,-0.48978550472626814,-0.8120999752586636,-0.1259951418996174,-0.4972514970495304,-0.31259939861120967,-0.2152130093591259,0.33097494080354994,0.32800281630244893,0.7043644231866216,-0.17397061681330103,0.45671979589286393,0.3953485264105706,-0.025308151931813065,-0.4656331412937716,0.3310052223846367,0.47003362423284856,0.6684256939396054,1.1853159378714526,-0.19805937886123007,0.2511717242317819,0.7771772411594924
0.14842628425941473,0.2680010550857971,-1.0108290939186246,0.3887690834981313,-0.40157570243750496,0.06762637457451637,0.826451588654626,0.789645552486455,0.8754360645324193,-0.4895329971441574,-0.8120977581450982,-0.12599648405781222,-0.4972521562385723,-0.3126000578002515,-0.2151789835093305,0.3315728922404162,0.3287169647500662,0.7044019325828321,-0.17382608395404334,0.4568297413762055,0.39543495744620927,-0.025308151931813065,-0.4655470224494899,0.33099576425261357,0.47008911320197116,0.6684489402729288,1.1732603504473147,-0.20009649956973868,0.2510733238164984,0.7772049424454237
0.14864322701606775,0.26808221741786215,-1.0103254613479593,0.38930841281423745,-0.401924500341954,0.06710657271414067,0.8260704350329282,0.7898477862957944,0.875943955999248,-0.48934065029778134,-0.812098656989663,-0.1259978263905399,-0.49725131728061744,-0.31260089664912327,-0.2151789835093305,0.3315728922404162,0.3287169647500662,0.7044019325828321,-0.17382608395404334,0.4568297413762055,0.39543495744620927,-0.025308151931813065,-0.4655470224494899,0.33099576425261357,0.47008911320197116,0.6684489402729288,1.1732603504473147,-0.20009649956973868,0.2510733238164984,0.7772049424454237
0.14864322701606775,0.26808221741786215,-1.0103254613479593,0.38930841281423745,-0.401924500341954,0.06710657271414067,0.8260704350329282,0.7900909462216807,0.8764241039304533,-0.4891463859890558,-0.8120969791828364,-0.12599907273015876,-0.4972490402804421,-0.31260173560707805,-0.2152384246391918,0.33135787085666335,0.32821730308321473,0.7043152548259312,-0.17394192974085876,0.45682342359975725,0.3954451169729166,-0.025308151931813065,-0.46556985192168265,0.331120595327862,0.47009473577388405,0.6684380640346772,1.153937335550209,-0.2045961128004155,0.25101554482295113,0.7774011393150893
0.14871531832311635,0.26811099907628727,-1.0101592832299677,0.3894940680313773,-0.4020316774971826,0.06692281124810934,0.8259456632199365,0.7903903120762997,0.8768593710471928,-0.48897555087112593,-0.8120780441057815,-0.1259993603604195,-0.4972477820071345,-0.3126022749138169,-0.2152384246391918,0.33135787085666335,0.32821730308321473,0.7043152548259312,-0.17394192974085876,0.45682342359975725,0.3954451169729166,-0.025308151931813065,-0.46556985192168265,0.331120595327862,0.47009473577388405,0.6684380640346772,1.153937335550209,-0.2045961128004155,0.25101554482295113,0.7774011393150893
0.14871531832311635,0.26811099907628727,-1.0101592832299677,0.3894940680313773,-0.4020316774971826,0.06692281124810934,0.8259456632199365,0.790748940040255,0.8772678533594834,-0.4888038169086313,-0.8120657003737299,-0.1260030035607001,-0.4972462839692209,-0.31260413238047335,-0.21525572788746306,0.3314322939642155,0.3280097871219688,0.7043625952960242,-0.17412735654321687,0.45681898737779136,0.3952742510756877,-0.025308151931813065,-0.46558687194084686,0.331130237559682,0.4700865881136686,0.6684958171034736,1.1290247975345116,-0.20879700728149236,0.2510825165276428,0.7771696557387392
0.14871531832311635,0.26811099907628727,-1.0101592832299677,0.3894940680313773,-0.4020316774971826,0.06692281124810934,0.8259456632199365,0.7911172153116505,0.8776301364792246,-0.4886222559788664,-0.8120598281043785,-0.12600578387019853,-0.4972461042003079,-0.31260467168721223,-0.21525572788746306,0.3314322939642155,0.3280097871219688,0.7043625952960242,-0.17412735654321687,0.45681898737779136,0.3952742510756877,-0.025308151931813065,-0.46558687194084686,0.331130237559682,0.4700865881136686,0.6684958171034736,1.1290247975345116,-0.20879700728149236,0.2510825165276428,0.7771696557387392
0.14889751269809537,0.2681730552080859,-1.0097201755715401,0.3900875605226596,-0.4022238155039278,0.0662063395573883,0.8256297099604366,0.7914292845452302,0.8779187166353987,-0.48844279217128084,-0.812061086377686,-0.1260111528520435,-0.4972462839692209,-0.3126085066119112,-0.2152072037116497,0.3314900990690308,0.3282300913859928,0.7042764765793643,-0.17401818947896092,0.456892383421063,0.39520757632164094,-0.025308151931813065,-0.4654973423906783,0.33104986832158445,0.4700778466943866,0.6684358015036173,1.1078964918725032,-0.21260654925894068,0.2508120318803493,0.7771217997959383
0.14889751269809537,0.2681730552080859,-1.0097201755715401,0.3900875605226596,-0.4022238155039278,0.0662063395573883,0.8256297099604366,0.7916735829712042,0.8781452184844055,-0.4882783686294413,-0.8120642622224262,-0.1260141247986938,-0.497245744662482,-0.3126107237254766,-0.2152072037116497,0.3314900990690308,0.3282300913859928,0.7042764765793643,-0.17401818947896092,0.456892383421063,0.39520757632164094,-0.025308151931813065,-0.4654973423906783,0.33104986832158445,0.4700778466943866,0.6684358015036173,1.1078964918725032,-0.21260654925894068,0.2508120318803493,0.7771217997959383
0.14901030451620156,0.2681836326137558,-1.0095199839012452,0.39036591104202334,-0.4022981626832012,0.0657793001274426,0.825496049338091,0.7918904973993806,0.8783196488715114,-0.4881505568593208,-0.8120634832601644,-0.1260168092896163,-0.4972455050069591,-0.3126141991123496,-0.2152072037116497,0.3314900990690308,0.3282300913859928,0.7042764765793643,-0.17401818947896092,0.456892383421063,0.39520757632164094,-0.025308151931813065,-0.4654973423906783,0.33104986832158445,0.4700778466943866,0.6684358015036173,1.1078964918725032,-0.21260654925894068,0.2508120318803493,0.7771217997959383
0.14901030451620156,0.2681836326137558,-1.0095199839012452,0.39036591104202334,-0.4022981626832012,0.0657793001274426,0.825496049338091,0.7921056741341205,0.8784901244516153,-0.488046174279996,-0.8120573713352901,-0.12601911033170213,-0.4972447859313073,-0.3126162364570021,-0.21520816899418407,0.3315524429011284,0.3281614406279981,0.7043435033135487,-0.17402748859654887,0.4569187653727112,0.39542772235768253,-0.025308151931813065,-0.46559452659693823,0.3311896471211242,0.47009532946825944,0.6685664260339165,1.089579182727141,-0.21547559440813646,0.24658457647469506,0.7771319841548916
0.149069952006615,0.2681877437001288,-1.0094069478111662,0.3905440849413173,-0.40232292823383875,0.06549760335419264,0.825422099952234,0.7923650128258405,0.8786496943418881,-0.4879455667387602,-0.8120390953381941,-0.12602121956210316,-0.4972446061623943,-0.3126182738016546,-0.21520816899418407,0.3315524429011284,0.3281614406279981,0.7043435033135487,-0.17402748859654887,0.4569187653727112,0.39542772235768253,-0.025308151931813065,-0.46559452659693823,0.3311896471211242,0.47009532946825944,0.6685664260339165,1.089579182727141,-0.21547559440813646,0.24658457647469506,0.7771319841548916
0.149069952006615,0.2681877437001288,-1.0094069478111662,0.3905440849413173,-0.40232292823383875,0.06549760335419264,0.825422099952234,0.7926374142161808,0.878783737919186,-0.48786736966145233,-0.8120360992623669,-0.1260231369808194,-0.4972446660490043,-0.3126194123017423,-0.21526275665655104,0.33158359086870937,0.32820563749061293,0.7044192731964574,-0.17407159340026973,0.4569913321721626,0.3953436270317384,-0.025308151931813065,-0.4656444217554891,0.3311830342742458,0.47006695737349663,0.6684271336562183,1.0635506246111304,-0.21698158266682915,0.22633179818306026,0.7772690301022986
0.14911969800515268,0.26819130738564,-1.0093066620546178,0.39074631504194746,-0.40230326222507373,0.06516125165389786,0.8253625953283199,0.7928705074101908,0.8788780537666345,-0.48777581012522503,-0.8120361592580598,-0.12602735544162147,-0.4972447859313073,-0.31262061068843994,-0.21526275665655104,0.33158359086870937,0.32820563749061293,0.7044192731964574,-0.17407159340026973,0.4569913321721626,0.3953436270317384,-0.025308151931813065,-0.4656444217554891,0.3311830342742458,0.47006695737349663,0.6684271336562183,1.0635506246111304,-0.21698158266682915,0.22633179818306026,0.7772690301022986
0.14911969800515268,0.26819130738564,-1.0093066620546178,0.39074631504194746,-0.40230326222507373,0.06516125165389786,0.8253625953283199,0.793044158835035,0.8789297656907096,-0.487672326390465,-0.8120365187958858,-0.12603560055154084,-0.4972447859313073,-0.31262354687765714,-0.21521911801123034,0.33166917680801067,0.32837597804268964,0.7044236360640839,-0.1739152412800535,0.45694157712530314,0.3953303789129248,-0.025308151931813065,-0.4657022857791117,0.331215869569457,0.4701605690831729,0.6685594390509741,1.0387660900318259,-0.21805149974502336,0.2100540901278088,0.7773897092680534
0.1491663382455618,0.2681751196498067,-1.0092628612068115,0.3908418481740905,-0.40228565426359336,0.06491816131943778,0.8253451001977762,0.7931357182621792,0.8789482813433286,-0.4875923916197206,-0.8120349008756692,-0.1260386684913,-0.4972447859313073,-0.31262468537774485,-0.21521911801123034,0.33166917680801067,0.32837597804268964,0.7044236360640839,-0.1739152412800535,0.45694157712530314,0.3953303789129248,-0.025308151931813065,-0.4657022857791117,0.331215869569457,0.4701605690831729,0.6685594390509741,1.0387660900318259,-0.21805149974502336,0.2100540901278088,0.7773897092680534
0.1491663382455618,0.2681751196498067,-1.0092628612068115,0.3908418481740905,-0.40228565426359336,0.06491816131943778,0.8253451001977762,0.7932208063357062,0.8789478619188926,-0.487538882006516,-0.8120287289551018,-0.12604279113352612,-0.49724586454478503,-0.31262582387783255,-0.21525049419178843,0.3316613341106814,0.3282872766389008,0.7044068939925586,-0.17403393487257632,0.4569848010340284,0.3952552962717599,-0.025308151931813065,-0.4654550382205749,0.33120531527792185,0.47006754435323583,0.6685273686195595,1.0170909744342684,-0.2183964965741006,0.19481245183099385,0.7772798622712833
0.1491663382455618,0.2681751196498067,-1.0092628612068115,0.3908418481740905,-0.40228565426359336,0.06491816131943778,0.8253451001977762,0.7933139236873741,0.8789478619188926,-0.487505565852757,-0.8120020641420391,-0.1260453798058727,-0.4972462839692209,-0.3126271421468332,-0.21525049419178843,0.3316613341106814,0.3282872766389008,0.7044068939925586,-0.17403393487257632,0.4569848010340284,0.3952552962717599,-0.025308151931813065,-0.4654550382205749,0.33120531527792185,0.47006754435323583,0.6685273686195595,1.0170909744342684,-0.2183964965741006,0.19481245183099385,0.7772798622712833
0.14916315408070913,0.2681523392330557,-1.009277637562984,0.3908764690451065,-0.40223563932386297,0.06477416559951482,0.8253643946012208,0.793406801492602,0.8789485209988515,-0.4874807585063507,-0.8119684483370642,-0.12604758485484965,-0.4972466435070468,-0.31262762145787903,-0.21525049419178843,0.3316613341106814,0.3282872766389008,0.7044068939925586,-0.17403393487257632,0.4569848010340284,0.3952552962717599,-0.025308151931813065,-0.4654550382205749,0.33120531527792185,0.47006754435323583,0.6685273686195595,1.0170909744342684,-0.2183964965741006,0.19481245183099385,0.7772798622712833
0.14916315408070913,0.2681523392330557,-1.009277637562984,0.3908764690451065,-0.40223563932386297,0.06477416559951482,0.8253643946012208,0.7934998589576598,0.8789468431920249,-0.48746056515598823,-0.8119287806029079,-0.12605017335266328,-0.4972473625826986,-0.312627921109095,-0.21512827134105883,0.33148240864590306,0.32821957449231265,0.7044003287901672,-0.17391113688608012,0.4568893266959925,0.39537089004898573,-0.025308151931813065,-0.46554238793345964,0.3311275122615524,0.4701223337967515,0.6685669111351658,0.9893193273462011,-0.21847399960999728,0.1814338443517415,0.7772842025744466
0.14915027881022885,0.2681426148752084,-1.0092913372765895,0.3908902636649114,-0.4022060843655666,0.06472186723536921,0.8253763671034337,0.7935458783812964,0.878942468960587,-0.48746218296712174,-0.8118784468344434,-0.12605122805513025,-0.49724820143157034,-0.3126285203024438,-0.21512827134105883,0.33148240864590306,0.32821957449231265,0.7044003287901672,-0.17391113688608012,0.4568893266959925,0.39537089004898573,-0.025308151931813065,-0.46554238793345964,0.3311275122615524,0.4701223337967515,0.6685669111351658,0.9893193273462011,-0.21847399960999728,0.1814338443517415,0.7772842025744466
0.14915027881022885,0.2681426148752084,-1.0092913372765895,0.3908902636649114,-0.4022060843655666,0.06472186723536921,0.8253763671034337,0.7935486348016008,0.8789341999178404,-0.4874704521189515,-0.8118216416032787,-0.12605141986681506,-0.49724957958718097,-0.31262911949579264,-0.21530278375889278,0.3316476194180132,0.32822050261478347,0.7043774963438449,-0.17400819337759565,0.4569651715068978,0.3954085804926488,-0.025308151931813065,-0.4657513988832586,0.33115212564058033,0.47017616748369795,0.6685427184520135,0.9584436612110357,-0.21878821819977104,0.18118031929208106,0.7774368074948047
0.14908514592082822,0.2681165506878342,-1.009349010953361,0.39089527731050305,-0.4021294845327852,0.06466206028481425,0.8254160028770126,0.7935423429987304,0.8789211371101369,-0.48748645100678917,-0.8117742440240316,-0.12605113223655431,-0.4972502387762228,-0.31262917949148566,-0.21530278375889278,0.3316476194180132,0.32822050261478347,0.7043774963438449,-0.17400819337759565,0.4569651715068978,0.3954085804926488,-0.025308151931813065,-0.4657513988832586,0.33115212564058033,0.47017616748369795,0.6685427184520135,0.9584436612110357,-0.21878821819977104,0.18118031929208106,0.7774368074948047
0.14908514592082822,0.2681165506878342,-1.009349010953361,0.39089527731050305,-0.4021294845327852,0.06466206028481425,0.8254160028770126,0.7935356318805072,0.8789111302648706,-0.4874895069692263,-0.8117342166429664,-0.12605103624344546,-0.4972502387762228,-0.3126298984580544,-0.2152554182688342,0.3315314136510405,0.3281916878221307,0.7043918496173446,-0.1739490218947895,0.4569313576303733,0.39535316475915216,-0.025308151931813065,-0.4655765421397091,0.33114594680797604,0.47001778624982493,0.6686429671206834,0.9354405427472298,-0.2189897060099847,0.18106558930143415,0.7774621675059047
0.14903188795458522,0.2680989308394512,-1.009397923336658,0.3908746564660659,-0.4020854931324631,0.06467170954109552,0.8254464423146974,0.7935382085318985,0.8789114298070034,-0.4874882486959187,-0.8116936500642453,-0.12605170732254287,-0.4972502387762228,-0.3126312767227481,-0.2152554182688342,0.3315314136510405,0.3281916878221307,0.7043918496173446,-0.1739490218947895,0.4569313576303733,0.39535316475915216,-0.025308151931813065,-0.4655765421397091,0.33114594680797604,0.47001778624982493,0.6686429671206834,0.9354405427472298,-0.2189897060099847,0.18106558930143415,0.7774621675059047
0.14903188795458522,0.2680989308394512,-1.009397923336658,0.3908746564660659,-0.4020854931324631,0.06467170954109552,0.8254464423146974,0.793551271339602,0.8789116695716095,-0.4874875895068769,-0.8116667454865766,-0.1260526662064339,-0.49725083796957165,-0.3126322953405328,-0.2152682636181572,0.33155846784976195,0.32815019896935,0.7043477241738166,-0.1740539184104183,0.4569664634916999,0.3954210457055385,-0.025308151931813065,-0.4656458900610452,0.3312023231841554,0.470101772578927,0.6685210331390596,0.905413217421233,-0.21902515845019485,0.18101710003899255,0.777413598056766
0.14903188795458522,0.2680989308394512,-1.009397923336658,0.3908746564660659,-0.4020854931324631,0.06467170954109552,0.8254464423146974,0.7935663114962649,0.878905857188868,-0.48748962685152936,-0.8116422976779962,-0.12605343310410724,-0.4972520363562693,-0.31263319418509755,-0.2152682636181572,0.33155846784976195,0.32815019896935,0.7043477241738166,-0.1740539184104183,0.4569664634916999,0.3954210457055385,-0.025308151931813065,-0.4656458900610452,0.3312023231841554,0.470101772578927,0.6685210331390596,0.905413217421233,-0.21902515845019485,0.18101710003899255,0.777413598056766
0.14899145091981864,0.26808392137485254,-1.0094319856637524,0.3908682157954797,-0.4020504370530122,0.0646601819830836,0.825467470474915,0.7935616376136112,0.8788811097290716,-0.48749106500283296,-0.811628096370205,-0.1260533372855313,-0.4972538939320088,-0.3126331341894045,-0.21527540499557146,0.33154009116836913,0.32821622895010705,0.7044311271254415,-0.17395536852790291,0.45692236352633714,0.39544811104606314,-0.025308151931813065,-0.4655061295501251,0.3312198896257067,0.4700680293305431,0.6686278084868331,0.8700263941462383,-0.21727226445668468,0.18041993506294046,0.7773145856386898
0.14899145091981864,0.26808392137485254,-1.0094319856637524,0.3908682157954797,-0.4020504370530122,0.0646601819830836,0.825467470474915,0.793543601381121,0.8788531865336182,-0.4875007721968833,-0.8116309725637293,-0.12605304965527056,-0.49725377404970583,-0.3126341529162723,-0.21521295956550732,0.3315106506549089,0.3282157755163445,0.7044579179938002,-0.1739706389292277,0.45686421497908614,0.39544481620146954,-0.025308151931813065,-0.46549434548398316,0.33128337951829495,0.4700768714305953,0.6686170656104329,0.8675072605680079,-0.2176061824167331,0.1803801940434315,0.7773275180343506
0.1489660870239325,0.26807214339836344,-1.0094617692175871,0.39085324666943444,-0.40202182227381916,0.06465670196321,0.8254887672614574,0.7935257449175439,0.8788358693767799,-0.4875272573501162,-0.8116326503705559,-0.12605304965527056,-0.4972536542764859,-0.31263427268949223,-0.21521295956550732,0.3315106506549089,0.3282157755163445,0.7044579179938002,-0.1739706389292277,0.45686421497908614,0.39544481620146954,-0.025308151931813065,-0.46549434548398316,0.33128337951829495,0.4700768714305953,0.6686170656104329,0.8675072605680079,-0.2176061824167331,0.1803801940434315,0.7773275180343506
0.1489660870239325,0.26807214339836344,-1.0094617692175871,0.39085324666943444,-0.40202182227381916,0.06465670196321,0.8254887672614574,0.7935243067662403,0.8788225668044705,-0.48755536031448254,-0.8116308527905094,-0.12605304965527056,-0.49725419358322476,-0.31263463222731813,-0.21521213941750114,0.33155748599458756,0.3282020227804894,0.7044198708401311,-0.1738178957854859,0.45685784622713393,0.39534227678307476,-0.025308151931813065,-0.4655795360819393,0.3311707830140359,0.47003956492364923,0.6687906872886927,0.8379400865652966,-0.21847807454677537,0.1801715612763472,0.7772443140311832
0.148951835545289,0.2680766141395508,-1.009478342159884,0.39083581660331945,-0.4020095494080088,0.06469859229935598,0.825499714596721,0.7935320964979411,0.8788105826102447,-0.48756518739083593,-0.8116277967189891,-0.12605372073436796,-0.49725431335644465,-0.312635111647447,-0.21521213941750114,0.33155748599458756,0.3282020227804894,0.7044198708401311,-0.1738178957854859,0.45685784622713393,0.39534227678307476,-0.025308151931813065,-0.4655795360819393,0.3311707830140359,0.47003956492364923,0.6687906872886927,0.8379400865652966,-0.21847807454677537,0.1801715612763472,0.7772443140311832
0.148951835545289,0.2680766141395508,-1.009478342159884,0.39083581660331945,-0.4020095494080088,0.06469859229935598,0.825499714596721,0.7935460581502094,0.8788065079209398,-0.4875637492395323,-0.8116267182145944,-0.12605477543683494,-0.49725419358322476,-0.3126366695719706,-0.21511655784492878,0.3314649882352738,0.32819955862060457,0.7043660240314081,-0.1739035324900781,0.4568721611478331,0.39545523684132744,-0.025308151931813065,-0.4655507347472376,0.3311527191775472,0.4700612339123851,0.6685751855826226,0.7978448150577964,-0.2189523609761835,0.18008298243362986,0.7770632537621597
0.14894385213349487,0.2680771156037813,-1.0094868739851721,0.390835914502376,-0.4019956519610723,0.06469724561614859,0.825506541554437,0.7935482152680817,0.8788042309207644,-0.48756488773962,-0.8116265384456816,-0.1260551588856716,-0.4972544332387477,-0.31263780807205827,-0.21511655784492878,0.3314649882352738,0.32819955862060457,0.7043660240314081,-0.1739035324900781,0.4568721611478331,0.39545523684132744,-0.025308151931813065,-0.4655507347472376,0.3311527191775472,0.4700612339123851,0.6685751855826226,0.7978448150577964,-0.2189523609761835,0.18008298243362986,0.7770632537621597
0.14894385213349487,0.2680771156037813,-1.0094868739851721,0.390835914502376,-0.4019956519610723,0.06469724561614859,0.825506541554437,0.7935426426499463,0.8787965610713665,-0.48757477481166633,-0.8116288154458569,-0.12605506306709566,-0.49725431335644465,-0.3126384072654071,-0.21522682007313815,0.3316988008542402,0.32823085831030097,0.7043357370790654,-0.17408246794486681,0.45696113532812455,0.39532502688042764,-0.025308151931813065,-0.4656132480986222,0.3312465023847969,0.47005343228924545,0.6685058507676199,0.7584746111020199,-0.21871700617568685,0.1796011980969692,0.7790205797289629
0.14893961172356351,0.2680805957145973,-1.009490522337427,0.39083246181781683,-0.40199168043534544,0.06471253389127901,0.8255089118886376,0.7935341937292035,0.8787855954949255,-0.48760185915824805,-0.811631931294904,-0.12605506306709566,-0.49725377404970583,-0.31263948587888485,-0.21522682007313815,0.3316988008542402,0.32823085831030097,0.7043357370790654,-0.17408246794486681,0.45696113532812455,0.39532502688042764,-0.025308151931813065,-0.4656132480986222,0.3312465023847969,0.47005343228924545,0.6685058507676199,0.7584746111020199,-0.21871700617568685,0.1796011980969692,0.7790205797289629
0.14893961172356351,0.2680805957145973,-1.009490522337427,0.39083246181781683,-0.40199168043534544,0.06471253389127901,0.8255089118886376,0.7935305385734176,0.8787799628810969,-0.48763146016052805,-0.8116312722149452,-0.1260549670739868,-0.4972538939320088,-0.3126401449588436,-0.21528180425372984,0.33171854435546566,0.3281993404268434,0.7043930948497551,-0.17419589092991378,0.45692211314981845,0.3953683511571835,-0.025308151931813065,-0.4656245359517379,0.33121993718324316,0.4701426676775111,0.668590466999234,0.723559230518749,-0.21859025452892358,0.17875533334181148,0.7823765367374325
0.14893961172356351,0.2680805957145973,-1.009490522337427,0.39083246181781683,-0.40199168043534544,0.06471253389127901,0.8255089118886376,0.7935314374179824,0.8787749295697004,-0.48765435004458485,-0.8116312722149452,-0.1260549670739868,-0.49725395381861875,-0.31264056449236255,-0.21528180425372984,0.33171854435546566,0.3281993404268434,0.7043930948497551,-0.17419589092991378,0.45692211314981845,0.3953683511571835,-0.025308151931813065,-0.4656245359517379,0.33121993718324316,0.4701426676775111,0.668590466999234,0.723559230518749,-0.21859025452892358,0.17875533334181148,0.7823765367374325
0.14892393356808353,0.2680906561664882,-1.0094976616914375,0.39083139152884905,-0.40198040312534916,0.06474850209609256,0.8255120897813172,0.7935343734981165,0.8787743902629616,-0.48766315839407043,-0.8116312722149452,-0.1260551588856716,-0.49725383404539886,-0.3126407442612755,-0.21513356097398095,0.3316664207647809,0.32813277475914115,0.7043944025455346,-0.17405076118315588,0.456915530063171,0.39528603335200196,-0.025308151931813065,-0.46559388123690615,0.3311401615080525,0.47010244979999716,0.6685905026068154,0.6860487522551778,-0.21863491438325913,0.17808656967919417,0.7985094285924792
0.14892393356808353,0.2680906561664882,-1.0094976616914375,0.39083139152884905,-0.40198040312534916,0.06474850209609256,0.8255120897813172,0.7935401259942481,0.8787743902629616,-0.487661061162808,-0.8116312122192522,-0.126055829964769,-0.49725377404970583,-0.31264152322353733,-0.21513356097398095,0.3316664207647809,0.32813277475914115,0.7043944025455346,-0.17405076118315588,0.456915530063171,0.39528603335200196,-0.025308151931813065,-0.46559388123690615,0.3311401615080525,0.47010244979999716,0.6685905026068154,0.6860487522551778,-0.21863491438325913,0.17808656967919417,0.7985094285924792
0.14892193498403417,0.26809232370300573,-1.00949797172953,0.3908341638790025,-0.40197719851948316,0.06474827063132077,0.8255123558528258,0.7935410847254227,0.8787737910696127,-0.4876607616206751,-0.8116315118704681,-0.12605602177645378,-0.49725377404970583,-0.31264200253458313,-0.21513356097398095,0.3316664207647809,0.32813277475914115,0.7043944025455346,-0.17405076118315588,0.456915530063171,0.39528603335200196,-0.025308151931813065,-0.46559388123690615,0.3311401615080525,0.47010244979999716,0.6685905026068154,0.6860487522551778,-0.21863491438325913,0.17808656967919417,0.7985094285924792
0.14892193498403417,0.26809232370300573,-1.00949797172953,0.3908341638790025,-0.40197719851948316,0.06474827063132077,0.8255123558528258,0.7935386878429443,0.8787722930316991,-0.48766261908733155,-0.8116316317527711,-0.12605602177645378,-0.49725341462096295,-0.31264224229918913,-0.2150838307693527,0.33168342594066835,0.3281890030881047,0.7043660796212939,-0.1740031150088559,0.45687850796546825,0.39532374001302506,-0.025308151931813065,-0.46562039178455583,0.33107574120456107,0.4700226696412508,0.6685579396330027,0.6454965894061047,-0.21872623794327953,0.17707885403823817,0.8181173053057554
0.1489211839524785,0.2680939382425138,-1.0094986072119034,0.3908328489813832,-0.40197720636175505,0.06475510887142044,0.8255124381847585,0.7935334147669418,0.8787705553382625,-0.48767100812146436,-0.8116318115216841,-0.12605602177645378,-0.49725287531422413,-0.31264260172793196,-0.2150838307693527,0.33168342594066835,0.3281890030881047,0.7043660796212939,-0.1740031150088559,0.45687850796546825,0.39532374001302506,-0.025308151931813065,-0.46562039178455583,0.33107574120456107,0.4700226696412508,0.6685579396330027,0.6454965894061047,-0.21872623794327953,0.17707885403823817,0.8181173053057554
0.1489211839524785,0.2680939382425138,-1.0094986072119034,0.3908328489813832,-0.40197720636175505,0.06475510887142044,0.8255124381847585,0.7935314374179824,0.8787703755693497,-0.48768137450455656,-0.811631931294904,-0.12605602177645378,-0.4972522760117922,-0.3126430811480609,-0.21516642400407915,0.33153563919227746,0.3282082083286282,0.7043604315087084,-0.1739569729444775,0.45689773747955087,0.39533908553545005,-0.025308151931813065,-0.4656073331893479,0.33112631622625444,0.4701609059095628,0.6685628063895797,0.6135807260518227,-0.21858725754994834,0.17664779383934054,0.8350362533460656
