epfl-lasa/data_laplacian_eigenmaps/throwing/recording_throw_underArm.csv
arm_x,arm_y,arm_z,arm_qx,arm_qy,arm_qz,arm_qw,arm_q0,arm_q1,arm_q2,arm_q3,arm_q4,arm_q5,arm_q6,hand_0,hand_1,hand_2,hand_3,hand_4,hand_5,hand_6,hand_7,hand_8,hand_9,hand_10,hand_11,hand_12,hand_13,hand_14,hand_15
-0.3415761604806643,0.8261065189306633,0.02617395941405351,0.5524779733958315,-0.6012812125539,0.44992721369994804,-0.36165521524560923,-0.2098300561301367,1.2091342304354498,-2.1979522678454124,0.6593250162103912,1.0712235573300108,1.7808731981157886,-1.2829619094494713,0.010307821290625121,1.3314478229273476,0.6135343838642731,0.67545616497976,-0.0921780181995116,1.1579043160770286,0.6807336039549126,0.3311149877745545,-0.27521460225778227,1.4192266966765512,0.5995841791553044,0.6360539025753722,1.333117618952113,0.3847913421404533,-0.1555063666733288,1.594723375012106
-0.3415761604806643,0.8261065189306633,0.02617395941405351,0.5524779733958315,-0.6012812125539,0.44992721369994804,-0.36165521524560923,-0.2098300561301367,1.2091341105531468,-2.1979522678454124,0.6593249563237812,1.0712237489671628,1.7808731981157886,-1.2829619094494713,0.010307821290625121,1.3314478229273476,0.6135343838642731,0.67545616497976,-0.0921780181995116,1.1579043160770286,0.6807336039549126,0.3311149877745545,-0.27521460225778227,1.4192266966765512,0.5995841791553044,0.6360539025753722,1.333117618952113,0.3847913421404533,-0.1555063666733288,1.594723375012106
-0.34157606774640087,0.8261065541049515,0.026173897053176007,0.5524780357658367,-0.6012812226969522,0.44992720294489585,-0.361655116483319,-0.20982987636122374,1.2091341105531468,-2.1979522678454124,0.6593248364414782,1.0712235573300108,1.7808730183468757,-1.2829619094494713,0.010364855458049634,1.331440045824474,0.6136086688059406,0.6755889789037465,-0.09215446194125429,1.1578369028195827,0.6808327892221412,0.3311149877745545,-0.27514280136925423,1.4191149757818986,0.5997434443399996,0.6358665057124472,1.333089353796245,0.3846841871833466,-0.15554972594089297,1.594759196065491
-0.34157606774640087,0.8261065541049515,0.026173897053176007,0.5524780357658367,-0.6012812226969522,0.44992720294489585,-0.361655116483319,-0.20982993635691677,1.2091343503177527,-2.1979522678454124,0.6593248364414782,1.0712235573300108,1.7808731981157886,-1.2829617296805584,0.010364855458049634,1.331440045824474,0.6136086688059406,0.6755889789037465,-0.09215446194125429,1.1578369028195827,0.6808327892221412,0.3311149877745545,-0.27514280136925423,1.4191149757818986,0.5997434443399996,0.6358665057124472,1.333089353796245,0.3846841871833466,-0.15554972594089297,1.594759196065491
-0.34157606774640087,0.8261065541049515,0.026173897053176007,0.5524780357658367,-0.6012812226969522,0.44992720294489585,-0.361655116483319,-0.20982987636122374,1.2091344102043626,-2.1979522678454124,0.6593247165591752,1.0712237489671628,1.7808731981157886,-1.2829620892183844,0.010343964925501522,1.3313060198146025,0.6135897571762016,0.6755509663013155,-0.0920809225562161,1.1578821168656306,0.6808127540884661,0.3311149877745545,-0.2752547846299297,1.4190492001711394,0.5996472349142925,0.6356501327138888,1.3331179925669125,0.3848114036151637,-0.1554959084932189,1.594822701245844
-0.34157596427278575,0.8261065611636977,0.02617390603085945,0.5524778973541773,-0.6012812406921878,0.4499272381521576,-0.3616552542070169,-0.20982987636122374,1.2091343503177527,-2.197952387727715,0.6593245967859553,1.0712235573300108,1.7808733178890086,-1.2829620892183844,0.010318953644220537,1.3313268838928363,0.6136077778332913,0.6755478269694184,-0.09206839957341603,1.1578860255770658,0.6808490625137096,0.3311149877745545,-0.2752784818923611,1.419070277806641,0.599635805819029,0.6357370065430545,1.333081921553534,0.38482719131545284,-0.15530251732887337,1.5948699506952941
-0.34157596427278575,0.8261065611636977,0.02617390603085945,0.5524778973541773,-0.6012812406921878,0.4499272381521576,-0.3616552542070169,-0.20982987636122374,1.2091342304354498,-2.197952387727715,0.6593245967859553,1.0712237489671628,1.7808733178890086,-1.2829619094494713,0.010318953644220537,1.3313268838928363,0.6136077778332913,0.6755478269694184,-0.09206839957341603,1.1578860255770658,0.6808490625137096,0.3311149877745545,-0.2752784818923611,1.419070277806641,0.599635805819029,0.6357370065430545,1.333081921553534,0.38482719131545284,-0.15530251732887337,1.5948699506952941
-0.3415760008854076,0.8261065900595093,0.026173924472945795,0.5524779947425925,-0.6012812171909254,0.44992722225540793,-0.3616551642824077,-0.20982987636122374,1.2091343503177527,-2.197952387727715,0.6593247165591752,1.0712237489671628,1.7808731381200957,-1.2829619094494713,0.010396035965661032,1.3312760904084953,0.6136018788972278,0.6755742681571404,-0.09212745517168477,1.157916334825281,0.6808022715491608,0.3311149877745545,-0.27525573320117175,1.4191793983752627,0.5996602453091918,0.6358130886128316,1.3330448142245228,0.3848562895281423,-0.15547892609534814,1.5947632329101622
-0.3415760008854076,0.8261065900595093,0.026173924472945795,0.5524779947425925,-0.6012812171909254,0.44992722225540793,-0.3616551642824077,-0.20982987636122374,1.2091343503177527,-2.197952387727715,0.6593245967859553,1.0712237489671628,1.7808731981157886,-1.2829620892183844,0.010396035965661032,1.3312760904084953,0.6136018788972278,0.6755742681571404,-0.09212745517168477,1.157916334825281,0.6808022715491608,0.3311149877745545,-0.27525573320117175,1.4191793983752627,0.5996602453091918,0.6358130886128316,1.3330448142245228,0.3848562895281423,-0.15547892609534814,1.5947632329101622
-0.3415760198333614,0.82610658018783,0.026173987660284198,0.552477994803313,-0.6012812412263201,0.4499271881684121,-0.3616551666357221,-0.20982987636122374,1.2091343503177527,-2.197952207958802,0.6593242971347394,1.0712237489671628,1.7808731981157886,-1.2829620892183844,0.01033407301136999,1.3313924640421806,0.6136375099251252,0.6755470079440398,-0.09216818643821004,1.1579018595749595,0.6807842565337315,0.3311149877745545,-0.27511986015072537,1.4191262089876633,0.5997128919741439,0.6356442394470279,1.3330684086087057,0.3847723261217284,-0.1554342976847582,1.5947637980015106
-0.3415760198333614,0.82610658018783,0.026173987660284198,0.552477994803313,-0.6012812412263201,0.4499271881684121,-0.3616551666357221,-0.20982993635691677,1.2091344102043626,-2.1979523277320223,0.6593244170170424,1.0712237489671628,1.7808731981157886,-1.2829620892183844,0.01033407301136999,1.3313924640421806,0.6136375099251252,0.6755470079440398,-0.09216818643821004,1.1579018595749595,0.6807842565337315,0.3311149877745545,-0.27511986015072537,1.4191262089876633,0.5997128919741439,0.6356442394470279,1.3330684086087057,0.3847723261217284,-0.1554342976847582,1.5947637980015106
-0.3415757931267528,0.82610667577482,0.0261741577434159,0.5524778756456037,-0.6012814011329268,0.44992714422290964,-0.36165513747928696,-0.20982987636122374,1.2091344700909727,-2.1979522678454124,0.6593245367902623,1.0712235573300108,1.7808733178890086,-1.2829620892183844,0.010425892338329388,1.331297325118893,0.61361136991156,0.675537995067131,-0.09208017444807791,1.157848037985802,0.680869845654088,0.3311149877745545,-0.2751862183380276,1.4191286353335377,0.5997428280449899,0.6359436820870379,1.3330690967548382,0.3847489471850065,-0.15553314596883433,1.594733509475113
-0.3415757931267528,0.82610667577482,0.0261741577434159,0.5524778756456037,-0.6012814011329268,0.44992714422290964,-0.36165513747928696,-0.20982987636122374,1.2091344102043626,-2.1979522678454124,0.6593250760970011,1.0712237489671628,1.7808731981157886,-1.2829620892183844,0.010425892338329388,1.331297325118893,0.61361136991156,0.675537995067131,-0.09208017444807791,1.157848037985802,0.680869845654088,0.3311149877745545,-0.2751862183380276,1.4191286353335377,0.5997428280449899,0.6359436820870379,1.3330690967548382,0.3847489471850065,-0.15553314596883433,1.594733509475113
-0.3415759026934944,0.8261065743702969,0.026174101601725466,0.5524780096773616,-0.6012812855086799,0.4499271484717749,-0.36165511967622965,-0.20982975658800382,1.2091344102043626,-2.197952387727715,0.65932561540374,1.0712237489671628,1.7808731981157886,-1.2829620293317745,0.010425892338329388,1.331297325118893,0.61361136991156,0.675537995067131,-0.09208017444807791,1.157848037985802,0.680869845654088,0.3311149877745545,-0.2751862183380276,1.4191286353335377,0.5997428280449899,0.6359436820870379,1.3330690967548382,0.3847489471850065,-0.15553314596883433,1.594733509475113
-0.3415759026934944,0.8261065743702969,0.026174101601725466,0.5524780096773616,-0.6012812855086799,0.4499271484717749,-0.36165511967622965,-0.20982909739896197,1.2091375260534099,-2.197952387727715,0.6593319670932203,1.071224611857945,1.7808730183468757,-1.2829620293317745,0.01040346674437657,1.331355011368444,0.6135892203863427,0.6754694175320484,-0.09210018458101324,1.157935893088823,0.680837656568969,0.3311149877745545,-0.27510970154747216,1.4190668787600305,0.5997449734358185,0.6356822092643005,1.3331195514880378,0.3847563542774289,-0.1553054797589953,1.5947442681376556
-0.3415759026934944,0.8261065743702969,0.026174101601725466,0.5524780096773616,-0.6012812855086799,0.4499271484717749,-0.36165511967622965,-0.2098167536669103,1.2091567008950708,-2.1979404034244063,0.6593652232512863,1.0714939213975154,1.7808334103902463,-1.2829619094494713,0.01040346674437657,1.331355011368444,0.6135892203863427,0.6754694175320484,-0.09210018458101324,1.157935893088823,0.680837656568969,0.3311149877745545,-0.27510970154747216,1.4190668787600305,0.5997449734358185,0.6356822092643005,1.3331195514880378,0.3847563542774289,-0.1553054797589953,1.5947442681376556
-0.3415969522117993,0.8260605568835364,0.026290473111285587,0.5525740613192762,-0.6013024601013116,0.44982626833222894,-0.3615986539680877,-0.20980249247250918,1.2092758839755355,-2.1979172738848267,0.6594106434815741,1.0732136096684028,1.7803923909955415,-1.2829605911804707,0.010404490267675218,1.3314111053543725,0.6135915307106393,0.6755418528723361,-0.09208509321711714,1.1578933633959794,0.6807864043646783,0.3311149877745545,-0.2751847939955209,1.4192609217336978,0.5996301716259558,0.635781421634296,1.3330528847344443,0.3847039337393043,-0.1555458643814522,1.5947871200635042
-0.3415969522117993,0.8260605568835364,0.026290473111285587,0.5525740613192762,-0.6013024601013116,0.44982626833222894,-0.3615986539680877,-0.20979062805150336,1.2094385099373286,-2.197771965188955,0.6592191954797627,1.0838541633912262,1.777607257079813,-1.2829551983312482,0.010404490267675218,1.3314111053543725,0.6135915307106393,0.6755418528723361,-0.09208509321711714,1.1578933633959794,0.6807864043646783,0.3311149877745545,-0.2751847939955209,1.4192609217336978,0.5996301716259558,0.635781421634296,1.3330528847344443,0.3847039337393043,-0.1555458643814522,1.5947871200635042
-0.34169401924815124,0.8247724193587143,0.0328331055842582,0.5574386556817452,-0.6036284772090891,0.44411058019268645,-0.357296234537786,-0.20975311743521952,1.2095943647852054,-2.196790457140231,0.6590076140141989,1.107372773164086,1.769355039634337,-1.2828936593308198,0.014534640196259451,1.3306689446806568,0.6134148664759395,0.6758912709291645,-0.08302721941609878,1.1554377519740644,0.6809268778845112,0.3311149877745545,-0.28323951166697314,1.4187751104726214,0.599893340034145,0.6356638621857352,1.3333849074227706,0.3853585988073944,-0.1551836172288265,1.598528955169699
-0.34169401924815124,0.8247724193587143,0.0328331055842582,0.5574386556817452,-0.6036284772090891,0.44411058019268645,-0.357296234537786,-0.20971422866332504,1.210017767371856,-2.1943281783746933,0.6588630842805889,1.1444000014875195,1.75072184694418,-1.2814061772776166,0.014534640196259451,1.3306689446806568,0.6134148664759395,0.6758912709291645,-0.08302721941609878,1.1554377519740644,0.6809268778845112,0.3311149877745545,-0.28323951166697314,1.4187751104726214,0.599893340034145,0.6356638621857352,1.3333849074227706,0.3853585988073944,-0.1551836172288265,1.598528955169699
-0.3286507980246575,0.8264714924899978,0.05119692334193743,0.5858079580442612,-0.615128760563501,0.4195290197842869,-0.3200641276032966,-0.20979590112750596,1.2112497457671214,-2.1895872788955617,0.6589495504006435,1.1913659871651483,1.7187859248649247,-1.2672943329913304,-0.005108369010363456,1.3284522009560567,0.6118805258836981,0.676584436098278,-0.10503474013655348,1.1540405761574466,0.6808560919720212,0.3311149877745545,-0.3106697802513546,1.4178513270528477,0.5996299711858731,0.6335890848746804,1.3315678909534288,0.37162264291420816,-0.15374981580980043,1.6099389606280967
-0.3286507980246575,0.8264714924899978,0.05119692334193743,0.5858079580442612,-0.615128760563501,0.4195290197842869,-0.3200641276032966,-0.2098108813975589,1.2137451610265884,-2.1813955818327297,0.6590770026329381,1.2442767236236305,1.6759839660716063,-1.236950754964732,-0.005108369010363456,1.3284522009560567,0.6118805258836981,0.676584436098278,-0.10503474013655348,1.1540405761574466,0.6808560919720212,0.3311149877745545,-0.3106697802513546,1.4178513270528477,0.5996299711858731,0.6335890848746804,1.3315678909534288,0.37162264291420816,-0.15374981580980043,1.6099389606280967
-0.3286507980246575,0.8264714924899978,0.05119692334193743,0.5858079580442612,-0.615128760563501,0.4195290197842869,-0.3200641276032966,-0.20970961466728122,1.2181599097375688,-2.169080412530619,0.659114693018135,1.2993547832437016,1.6260410270049228,-1.1983589741862695,-0.05334884864999627,1.3261027163455064,0.6116066290170452,0.6767730168723487,-0.15586183359469427,1.1532433904463948,0.6807692679507109,0.3311149877745545,-0.35380830170225486,1.417611137906877,0.5994596939602963,0.6343861987252253,1.3233652658439927,0.3680170333911929,-0.1536105621216993,1.6265083131728737
-0.2909356536597841,0.8397548373067708,0.05378166034781162,0.6006431889242391,-0.6293824275092855,0.40688359017752,-0.2784802750388103,-0.20906510308084636,1.224914997822401,-2.1518153988218147,0.6587621172015272,1.354489695916959,1.5725825156227602,-1.1694713595300785,-0.05761623791545029,1.3257268119347219,0.6114161199238299,0.6761404564679727,-0.1605485525651048,1.153169528119622,0.6806823699869908,0.3311149877745545,-0.3572620263585237,1.417645037071821,0.5994529808245984,0.6348556204112992,1.3232758867804364,0.36772052697778895,-0.15362648123520728,1.6268165955055498
-0.2909356536597841,0.8397548373067708,0.05378166034781162,0.6006431889242391,-0.6293824275092855,0.40688359017752,-0.2784802750388103,-0.20769680421719097,1.2343470023189382,-2.1296735245942315,0.657548954110097,1.4081470974939465,1.5191380257794755,-1.1603133144574882,-0.05761623791545029,1.3257268119347219,0.6114161199238299,0.6761404564679727,-0.1605485525651048,1.153169528119622,0.6806823699869908,0.3311149877745545,-0.3572620263585237,1.417645037071821,0.5994529808245984,0.6348556204112992,1.3232758867804364,0.36772052697778895,-0.15362648123520728,1.6268165955055498
-0.19316016805985653,0.8674625084999072,0.04697708113010278,0.6315323209547855,-0.6587210208627327,0.3701366096306884,-0.17393226978948004,-0.20517166807314102,1.2462287620800487,-2.1030234247661745,0.6551521090472133,1.4597270097512747,1.4674339448868579,-1.1576158451575949,-0.08519215671650814,1.3243850827997012,0.6091555343409045,0.67724559809098,-0.17636244789532507,1.152679928581525,0.6803761140807114,0.3311149877745545,-0.37098201662829255,1.4171083130023363,0.5990558075932219,0.6352531344492068,1.3354455948305326,0.379323656921666,-0.15284735325628024,1.6281150200334158
-0.19316016805985653,0.8674625084999072,0.04697708113010278,0.6315323209547855,-0.6587210208627327,0.3701366096306884,-0.17393226978948004,-0.2010152393270128,1.2606407512922988,-2.072660552015612,0.6511113879946768,1.5091023997720012,1.4174126290830367,-1.1546082840821643,-0.08519215671650814,1.3243850827997012,0.6091555343409045,0.67724559809098,-0.17636244789532507,1.152679928581525,0.6803761140807114,0.3311149877745545,-0.37098201662829255,1.4171083130023363,0.5990558075932219,0.6352531344492068,1.3354455948305326,0.379323656921666,-0.15284735325628024,1.6281150200334158
-0.13232885880229656,0.8790022460616225,0.03464036969279016,0.6685356075049367,-0.6672073617730802,0.31840584914817405,-0.08069816058648385,-0.1950269617581273,1.2772164922643394,-2.0392879011851366,0.6448387847278352,1.5571350774559067,1.369580471578761,-1.1497989547154683,-0.10764870744417158,1.3216468887476291,0.6065597627581963,0.6767040097838618,-0.18948381363252764,1.1525282165675361,0.6799082288412812,0.3311149877745545,-0.36694895743642714,1.4171298789660374,0.5991780358368136,0.6327504035523874,1.3532218299714227,0.3719974403261066,-0.15048933694102784,1.6333083325087068
-0.13232885880229656,0.8790022460616225,0.03464036969279016,0.6685356075049367,-0.6672073617730802,0.31840584914817405,-0.08069816058648385,-0.18691651773504012,1.2954905776794952,-2.0037150065963716,0.6360964723924977,1.6037990606100154,1.3224108020068004,-1.1391841672011256,-0.10764870744417158,1.3216468887476291,0.6065597627581963,0.6767040097838618,-0.18948381363252764,1.1525282165675361,0.6799082288412812,0.3311149877745545,-0.36694895743642714,1.4171298789660374,0.5991780358368136,0.6327504035523874,1.3532218299714227,0.3719974403261066,-0.15048933694102784,1.6333083325087068
-0.13232885880229656,0.8790022460616225,0.03464036969279016,0.6685356075049367,-0.6672073617730802,0.31840584914817405,-0.08069816058648385,-0.17663956553185814,1.3149854362579523,-1.9662497429112888,0.6247495686715777,1.6499755254820208,1.275992004058642,-1.1200518915027087,-0.10761390951951576,1.220390598457572,0.6202966101332208,0.6815795094770012,-0.17968916215850012,1.071311048419442,0.6853909204560054,0.3311149877745545,-0.3575266133814252,1.333022833117548,0.6199736499976275,0.6350501063527423,1.3148287936925878,0.37982042335824534,-0.12055837973785546,1.613083074854453
-0.03267980606169735,0.8903528824573843,0.009357127415022416,-0.6890889334995272,0.6796792923754219,-0.24985714078082832,-0.027638929888098226,-0.16405846630210755,1.3351709456197007,-1.927569758210252,0.6107941784265173,1.6957620717563584,1.2294175910272127,-1.1023499328703383,-0.10761390951951576,1.220390598457572,0.6202966101332208,0.6815795094770012,-0.17968916215850012,1.071311048419442,0.6853909204560054,0.3311149877745545,-0.3575266133814252,1.333022833117548,0.6199736499976275,0.6350501063527423,1.3148287936925878,0.37982042335824534,-0.12055837973785546,1.613083074854453
-0.03267980606169735,0.8903528824573843,0.009357127415022416,-0.6890889334995272,0.6796792923754219,-0.24985714078082832,-0.027638929888098226,-0.1493773713174772,1.3556301147541803,-1.8882039162727144,0.5943817823828387,1.7415553289962031,1.1828491700383548,-1.08757248480269,-0.10761390951951576,1.220390598457572,0.6202966101332208,0.6815795094770012,-0.17968916215850012,1.071311048419442,0.6853909204560054,0.3311149877745545,-0.3575266133814252,1.333022833117548,0.6199736499976275,0.6350501063527423,1.3148287936925878,0.37982042335824534,-0.12055837973785546,1.613083074854453
0.09345359950644233,0.8907947359192923,-0.033953212004263815,-0.6819316758675991,0.6976620598600406,-0.17856631979907214,-0.12787067339178237,-0.1324718844171927,1.375862302619524,-1.8487371073651984,0.5759891130805669,1.7868336481332638,1.1356252718866209,-1.0823061370443685,-0.1124824441467201,0.8873238768862856,0.6769984977694692,0.6989991059079558,-0.1772317180427207,0.7730192163846261,0.701153044447843,0.3311149877745545,-0.3038021104193893,1.006072360670469,0.7250239647834272,0.6540815161536147,1.1093611685879596,0.39003973016273924,0.02564591505517086,1.5024828101126684
0.09345359950644233,0.8907947359192923,-0.033953212004263815,-0.6819316758675991,0.6976620598600406,-0.17856631979907214,-0.12787067339178237,-0.11380273903527564,1.395420857316282,-1.8093532890817805,0.5560742075291123,1.8323890426524017,1.0876967611902444,-1.0833938851390736,-0.1124824441467201,0.8873238768862856,0.6769984977694692,0.6989991059079558,-0.1772317180427207,0.7730192163846261,0.701153044447843,0.3311149877745545,-0.3038021104193893,1.006072360670469,0.7250239647834272,0.6540815161536147,1.1093611685879596,0.39003973016273924,0.02564591505517086,1.5024828101126684
0.208821583202692,0.8761592569558143,-0.11245376610344417,-0.6652737877659116,0.7027961690564873,-0.09624921328140662,-0.23286137724799366,-0.09377062764323264,1.4137846446919256,-1.7703587783780759,0.5354178977833,1.878045967511984,1.040605049040069,-1.0855567381633824,-0.11134106234781797,0.4210126341276456,0.6936972384625312,0.712237899166949,-0.17391550805524644,0.33879215262316875,0.703840750245207,0.3311149877745545,-0.2439228626344989,0.5568996193201463,0.785038928636239,0.687231189836837,0.8722354427623276,0.397860985381403,0.20604799592014897,1.3165626289059527
0.208821583202692,0.8761592569558143,-0.11245376610344417,-0.6652737877659116,0.7027961690564873,-0.09624921328140662,-0.23286137724799366,-0.07280416634435617,1.4307103849382656,-1.731971568295738,0.5146560670671582,1.9239968412477861,0.993517591239028,-1.0872482516059716,-0.11134106234781797,0.4210126341276456,0.6936972384625312,0.712237899166949,-0.17391550805524644,0.33879215262316875,0.703840750245207,0.3311149877745545,-0.2439228626344989,0.5568996193201463,0.785038928636239,0.687231189836837,0.8722354427623276,0.397860985381403,0.20604799592014897,1.3165626289059527
0.208821583202692,0.8761592569558143,-0.11245376610344417,-0.6652737877659116,0.7027961690564873,-0.09624921328140662,-0.23286137724799366,-0.051343954890749006,1.4459163290087371,-1.6941938759483324,0.49411456627945577,1.9693529141048913,0.9578538561896875,-1.0881172876924539,-0.1093475092749606,-0.05890316983659088,0.6848446611340027,0.7113704592472226,-0.1840917005372962,-0.05044601751609249,0.7042683496774886,0.3311149877745545,-0.17138821087014824,0.13095692310093704,0.7888590183487098,0.7082601229818233,0.7604253544770676,0.3992328416584251,0.3023274516445328,1.106238709395794
0.3053125725369354,0.8442013757044472,-0.21436356974045598,-0.633800803950664,0.7002908638561638,-0.015402400626753156,-0.328103661921066,-0.02976006613385318,1.458481369354957,-1.656331335182923,0.4731162867556508,2.0138089238083356,0.9464582965071298,-1.088075462731342,-0.10107481379939001,-0.10040911162444272,0.6829937031356622,0.7111972074428287,-0.17776948153746974,-0.08337475280453328,0.7040779506077948,0.3311149877745545,-0.15535397814536828,0.08086760476547826,0.7886759763791077,0.7096556838550879,0.7596696447025553,0.4000286166653683,0.3092573557653815,1.0796995613364675
0.3053125725369354,0.8442013757044472,-0.21436356974045598,-0.633800803950664,0.7002908638561638,-0.015402400626753156,-0.328103661921066,-0.00874866391573479,1.4689494101312075,-1.6189064584167312,0.4533270957430543,2.0582355001047414,0.9507227031017588,-1.088001939536688,-0.10107481379939001,-0.10040911162444272,0.6829937031356622,0.7111972074428287,-0.17776948153746974,-0.08337475280453328,0.7040779506077948,0.3311149877745545,-0.15535397814536828,0.08086760476547826,0.7886759763791077,0.7096556838550879,0.7596696447025553,0.4000286166653683,0.3092573557653815,1.0796995613364675
0.38712003734864475,0.8078966524723596,-0.25231245891953463,-0.6038008883021079,0.7016223400615814,0.06674846605904074,-0.37241807352874484,0.011037411247814597,1.4776454632783025,-1.5824444541643412,0.4358918461096689,2.1027423228004296,0.9603972683308336,-1.0879894160357233,-0.07016336289432384,-0.2141518220943252,0.6702696265798141,0.7136159535363971,-0.11484882197589612,-0.18044479655658863,0.7039972729741597,0.3311149877745545,-0.054446116932679166,-0.10864139463907924,0.7896143431777066,0.7182491177442215,0.7903416376879695,0.40833426058666145,0.3480639535057344,0.9027884602777476
0.38712003734864475,0.8078966524723596,-0.25231245891953463,-0.6038008883021079,0.7016223400615814,0.06674846605904074,-0.37241807352874484,0.029194231044855086,1.4850485983321358,-1.5470190253893203,0.42222066178934475,2.1475719525188546,0.9702520762206726,-1.0879441755743486,-0.07016336289432384,-0.2141518220943252,0.6702696265798141,0.7136159535363971,-0.11484882197589612,-0.18044479655658863,0.7039972729741597,0.3311149877745545,-0.054446116932679166,-0.10864139463907924,0.7896143431777066,0.7182491177442215,0.7903416376879695,0.40833426058666145,0.3480639535057344,0.9027884602777476
0.46490295276801463,0.7681689216288202,-0.2598889468867286,-0.5766601462004131,0.6968482875459994,0.16379325570317427,-0.3937477737263808,0.04554101339880048,1.4911845814793714,-1.5125804975122459,0.4135590632960965,2.1926000411830633,0.9775121196921995,-1.087779811919119,-0.025373877699829732,-0.23513765747740095,0.6698259495273693,0.7147181378053167,-0.07587151338808035,-0.20433861848137364,0.7040071281905675,0.3311149877745545,0.05312818995053757,-0.15523599545562505,0.78968216080697,0.7169881235473211,0.8098365442250711,0.40967650147091095,0.36348178585956287,0.7804273139148965
0.46490295276801463,0.7681689216288202,-0.2598889468867286,-0.5766601462004131,0.6968482875459994,0.16379325570317427,-0.3937477737263808,0.0594897523031646,1.4962917787718557,-1.4788667157526496,0.4094563837096127,2.237988615212433,0.981549545126776,-1.0875536696079382,-0.025373877699829732,-0.23513765747740095,0.6698259495273693,0.7147181378053167,-0.07587151338808035,-0.20433861848137364,0.7040071281905675,0.3311149877745545,0.05312818995053757,-0.15523599545562505,0.78968216080697,0.7169881235473211,0.8098365442250711,0.40967650147091095,0.36348178585956287,0.7804273139148965
0.46490295276801463,0.7681689216288202,-0.2598889468867286,-0.5766601462004131,0.6968482875459994,0.16379325570317427,-0.3937477737263808,0.07154426475363748,1.5007055088650516,-1.4463805979344078,0.40882535435531714,2.2837185957147796,0.9832168504163076,-1.0874286741447319,0.004875930440242414,-0.262768583321922,0.6703088609861151,0.7159830590668397,-0.03729105479787533,-0.20663781640614975,0.7039372321082741,0.3311149877745545,0.12037813384554025,-0.18094801008069053,0.789814123530364,0.7175745192271925,0.8045577019924501,0.4027348858231864,0.3643087656627037,0.7497934444128598
0.5175106762320987,0.7322340273288437,-0.27951087801537944,-0.5518045704924371,0.6817264042517501,0.24814918761136,-0.4113183759783394,0.08198695876765967,1.504313779216846,-1.416011793027884,0.4105031458011609,2.3296430085137922,0.9832952272625284,-1.087320216876102,0.006862381897983037,-0.26377963705168606,0.6703638515413466,0.715958604590772,-0.03652259281282903,-0.2066032608377546,0.7039506797174012,0.3311149877745545,0.12270258332688465,-0.18229637365532808,0.7898185707336848,0.7178273861734104,0.8043414768900863,0.4026113228435479,0.3644059097991868,0.7497600919341925
0.5175106762320987,0.7322340273288437,-0.27951087801537944,-0.5518045704924371,0.6817264042517501,0.24814918761136,-0.4113183759783394,0.09118563041466397,1.5069333509815643,-1.388184003380028,0.41358842464285356,2.3759452597885873,0.9831556109580121,-1.087246573799145,0.006862381897983037,-0.26377963705168606,0.6703638515413466,0.715958604590772,-0.03652259281282903,-0.2066032608377546,0.7039506797174012,0.3311149877745545,0.12270258332688465,-0.18229637365532808,0.7898185707336848,0.7178273861734104,0.8043414768900863,0.4026113228435479,0.3644059097991868,0.7497600919341925
0.5562510927596009,0.6982031729034824,-0.3089640766691063,-0.5249990108866344,0.6599781659960168,0.3266664670957259,-0.42672459297746945,0.09941387936260533,1.5084054332311956,-1.3636709903896154,0.4173261245759019,2.4224668705014913,0.9831398517256973,-1.0871820987185825,0.02962782585134422,-0.2663302461442451,0.6710353363777981,0.7164020424624227,-0.017003725166504387,-0.2065723614289114,0.7040523211808859,0.3311149877745545,0.13638372278410946,-0.19560362993293517,0.7899201035365851,0.717246550628501,0.8039191298322177,0.4038277977157124,0.36388777595997285,0.7599835373507552
0.5562510927596009,0.6982031729034824,-0.3089640766691063,-0.5249990108866344,0.6599781659960168,0.3266664670957259,-0.42672459297746945,0.1069351189925087,1.5089861289261097,-1.342829224793646,0.42105549557959354,2.4692390951360843,0.9830525466476879,-1.0871665791417906,0.02962782585134422,-0.2663302461442451,0.6710353363777981,0.7164020424624227,-0.017003725166504387,-0.2065723614289114,0.7040523211808859,0.3311149877745545,0.13638372278410946,-0.19560362993293517,0.7899201035365851,0.717246550628501,0.8039191298322177,0.4038277977157124,0.36388777595997285,0.7599835373507552
0.587899540517086,0.6649377024151525,-0.3424527393177904,-0.49533560561181367,0.6326665283567228,0.40359587233401845,-0.4375912173994953,0.11363298242174046,1.5085423530020177,-1.3260387265113014,0.42412519484880135,2.515963478899617,0.9829961608409591,-1.0871590889522227,0.03164827949785143,-0.2665958863790021,0.6728637411577214,0.7165174706809467,-0.008668155266913335,-0.20646005524673489,0.7041318953120363,0.3311149877745545,0.1307152279495133,-0.19567530151591114,0.7899544397755944,0.7170630820515295,0.8037278885756115,0.40386841585144473,0.36393033782817613,0.7736847541818637
0.587899540517086,0.6649377024151525,-0.3424527393177904,-0.49533560561181367,0.6326665283567228,0.40359587233401845,-0.4375912173994953,0.11958105284064775,1.507204494098597,-1.3133812877799824,0.42637181756855347,2.562877884338263,0.9830185714139701,-1.08716538064601,0.03164827949785143,-0.2665958863790021,0.6728637411577214,0.7165174706809467,-0.008668155266913335,-0.20646005524673489,0.7041318953120363,0.3311149877745545,0.1307152279495133,-0.19567530151591114,0.7899544397755944,0.7170630820515295,0.8037278885756115,0.40386841585144473,0.36393033782817613,0.7736847541818637
0.6094985293790717,0.6385563292186736,-0.37066508457762126,-0.4694647693691399,0.6094009426958055,0.4613382834509664,-0.4420410722830623,0.12488616959764373,1.5048772774190586,-1.3053112904533133,0.4277937458186334,2.609550975493073,0.9830530859544268,-1.0871634032970505,0.031880205245306874,-0.2663164741698953,0.6780793127144891,0.716716094541094,-0.012728877306568638,-0.20658702424307263,0.7042313642323953,0.3311149877745545,0.13220417110455523,-0.19593318291338696,0.7900297147391506,0.7176579719260509,0.8036466688730569,0.4042685765146373,0.36371051390871045,0.7820950086483509
0.6094985293790717,0.6385563292186736,-0.37066508457762126,-0.4694647693691399,0.6094009426958055,0.4613382834509664,-0.4420410722830623,0.1294510807651457,1.5014804687596082,-1.3014352325981393,0.42818089617139077,2.656315626271377,0.9831538133779656,-1.0871695152219247,0.031880205245306874,-0.2663164741698953,0.6780793127144891,0.716716094541094,-0.012728877306568638,-0.20658702424307263,0.7042313642323953,0.3311149877745545,0.13220417110455523,-0.19593318291338696,0.7900297147391506,0.7176579719260509,0.8036466688730569,0.4042685765146373,0.36371051390871045,0.7820950086483509
0.6094985293790717,0.6385563292186736,-0.37066508457762126,-0.4694647693691399,0.6094009426958055,0.4613382834509664,-0.4420410722830623,0.1333875391206604,1.4973882154428266,-1.301254570403856,0.42751960673485645,2.7025896906532854,0.983352332035826,-1.0871698148731408,0.031880205245306874,-0.2663164741698953,0.6780793127144891,0.716716094541094,-0.012728877306568638,-0.20658702424307263,0.7042313642323953,0.3311149877745545,0.13220417110455523,-0.19593318291338696,0.7900297147391506,0.7176579719260509,0.8036466688730569,0.4042685765146373,0.36371051390871045,0.7820950086483509
0.6250922371508602,0.6177261512084308,-0.3931574780058813,-0.4480867823669735,0.5915553070206334,0.5029745899504979,-0.4430543037460145,0.13674971335735114,1.4930317700009244,-1.3033439601201209,0.4257302420622528,2.7478085680648134,0.983604060655675,-1.0871715525665773,0.031572532021643375,-0.2670582065403478,0.6896232571100409,0.7169207398717148,-0.014191743866552503,-0.2066369026504019,0.7041700855507244,0.3311149877745545,0.13034562714616024,-0.19573537645425113,0.7900107538485116,0.7186854518821978,0.8037933168159348,0.4050195970085009,0.3629123686206052,0.7861167799446552
0.6250922371508602,0.6177261512084308,-0.3931574780058813,-0.4480867823669735,0.5915553070206334,0.5029745899504979,-0.4430543037460145,0.13969160096552155,1.4882451507493724,-1.306516064619694,0.4232939690298189,2.7793530614875324,0.9839608909305005,-1.0871647215660512,0.031572532021643375,-0.2670582065403478,0.6896232571100409,0.7169207398717148,-0.014191743866552503,-0.2066369026504019,0.7041700855507244,0.3311149877745545,0.13034562714616024,-0.19573537645425113,0.7900107538485116,0.7186854518821978,0.8037933168159348,0.4050195970085009,0.3629123686206052,0.7861167799446552
0.63871011256423,0.5979863539914275,-0.4149191715611727,-0.42722481700014864,0.5761592778270862,0.5380482090104246,-0.4427454879427172,0.14226778984460464,1.4824577887208257,-1.3096597066170748,0.4205749880014793,2.792992163994578,0.9843934616226288,-1.0871580103387448,0.027475836376960515,-0.26120808728847306,0.7001122016222252,0.717504513971092,-0.013122849184525975,-0.20600442501396393,0.7059460726037337,0.3311149877745545,0.13673264478565575,-0.19142351343989605,0.7903840475149018,0.7175313902851261,0.8049539573261808,0.42189901136809976,0.34570464822115266,0.7840581120943759
0.63871011256423,0.5979863539914275,-0.4149191715611727,-0.42722481700014864,0.5761592778270862,0.5380482090104246,-0.4427454879427172,0.1443206875623701,1.4763943701461524,-1.312772489120702,0.41720724103756995,2.7939741033359766,0.9846907902416784,-1.0871406931819065,0.027475836376960515,-0.26120808728847306,0.7001122016222252,0.717504513971092,-0.013122849184525975,-0.20600442501396393,0.7059460726037337,0.3311149877745545,0.13673264478565575,-0.19142351343989605,0.7903840475149018,0.7175313902851261,0.8049539573261808,0.42189901136809976,0.34570464822115266,0.7840581120943759
0.642896402793003,0.5968143787422158,-0.4203561250223592,-0.4257451802539834,0.5718716486980292,0.5419066444997503,-0.44501803059305634,0.14584502104281535,1.470236156303902,-1.315863520349443,0.41306998702401954,2.7875913052816017,0.9846719749378434,-1.0871106127594978,0.02252099675873721,-0.22613576324070533,0.7305292398096547,0.7250704476670256,-0.019072318080365563,-0.20612480205586642,0.711184685595823,0.3311149877745545,0.1323596056716558,-0.17809765692030022,0.8012462772349223,0.7223259977744562,0.8070525386514407,0.42068291914727163,0.33398387467339385,0.7840561099405745
0.642896402793003,0.5968143787422158,-0.4203561250223592,-0.4257451802539834,0.5718716486980292,0.5419066444997503,-0.44501803059305634,0.1468806977847026,1.4642343966119602,-1.3190096191159122,0.4082656310821103,2.7772620538946846,0.9846537589364404,-1.0869877744141638,0.02252099675873721,-0.22613576324070533,0.7305292398096547,0.7250704476670256,-0.019072318080365563,-0.20612480205586642,0.711184685595823,0.3311149877745545,0.1323596056716558,-0.17809765692030022,0.8012462772349223,0.7223259977744562,0.8070525386514407,0.42068291914727163,0.33398387467339385,0.7840561099405745
0.642896402793003,0.5968143787422158,-0.4203561250223592,-0.4257451802539834,0.5718716486980292,0.5419066444997503,-0.44501803059305634,0.14745150640757043,1.4583767471201095,-1.322164286576344,0.40296069409402724,2.765533524398955,0.9847542467044562,-1.0869367815657407,0.02695920904829676,-0.25035413900864273,0.761311354212984,0.7280674891731967,-0.014507812969838687,-0.20911437236474573,0.7263226756637692,0.3311149877745545,0.13332116554478304,-0.18315405584850403,0.8104133771942125,0.7244164399407892,0.8068980215360827,0.41340211445041286,0.32230208009725153,0.7871465748834465
0.6426202331546556,0.6044755513843529,-0.4183649567227231,-0.43284114075898156,0.5750296622924834,0.5287350587820342,-0.44992073964756785,0.14766985898705043,1.4530066758624218,-1.3256124476220437,0.3973477625616695,2.7540886854322335,0.9851862779807625,-1.086950623335706,0.02695920904829676,-0.25035413900864273,0.761311354212984,0.7280674891731967,-0.014507812969838687,-0.20911437236474573,0.7263226756637692,0.3311149877745545,0.13332116554478304,-0.18315405584850403,0.8104133771942125,0.7244164399407892,0.8068980215360827,0.41340211445041286,0.32230208009725153,0.7871465748834465
0.6426202331546556,0.6044755513843529,-0.4183649567227231,-0.43284114075898156,0.5750296622924834,0.5287350587820342,-0.44992073964756785,0.14755241360002216,1.4479969103755161,-1.3288071423544576,0.3912906356807836,2.7449382023695104,0.9852298406353108,-1.0869520614870096,0.02695920904829676,-0.25035413900864273,0.761311354212984,0.7280674891731967,-0.014507812969838687,-0.20911437236474573,0.7263226756637692,0.3311149877745545,0.13332116554478304,-0.18315405584850403,0.8104133771942125,0.7244164399407892,0.8068980215360827,0.41340211445041286,0.32230208009725153,0.7871465748834465
0.6415782068764239,0.6128244261174244,-0.4153845263440936,-0.4397403062187721,0.5803169795969574,0.5124756156477973,-0.4552245705632509,0.14711127421393128,1.44350306563358,-1.3318139244676266,0.38472034425706636,2.738309200316867,0.9851947269015053,-1.0869671616393655,0.029867046112688356,-0.2758892088882223,0.7588067513616084,0.7348812393355058,-0.019784305442091997,-0.20985523961617053,0.7271283001210785,0.3311149877745545,0.1258723199522586,-0.1860536087046849,0.8101935203304835,0.726862489153956,0.8067778693910332,0.41259386629781075,0.3179010584440147,0.7874302787660886
0.6415782068764239,0.6128244261174244,-0.4153845263440936,-0.4397403062187721,0.5803169795969574,0.5124756156477973,-0.4552245705632509,0.14626147285571986,1.439412070699189,-1.3345409947698,0.3785738150669086,2.7340537458650376,0.9851886148675479,-1.0869834601784192,0.029867046112688356,-0.2758892088882223,0.7588067513616084,0.7348812393355058,-0.019784305442091997,-0.20985523961617053,0.7271283001210785,0.3311149877745545,0.1258723199522586,-0.1860536087046849,0.8101935203304835,0.726862489153956,0.8067778693910332,0.41259386629781075,0.3179010584440147,0.7874302787660886
0.6417500644966576,0.6174228271155839,-0.4167391074554445,-0.441521527949504,0.5856087382066003,0.4993681291159315,-0.46125114386466654,0.14470687918395278,1.435910400040285,-1.3368761210633422,0.37332969800360216,2.731808381527676,0.9851037665586269,-1.086994964952516,0.03103255972372576,-0.27973077515679906,0.7559644299362829,0.7388248908056728,-0.02166200823449583,-0.20991646289687813,0.7271363357308048,0.3311149877745545,0.12558338027862315,-0.18666215599100625,0.810300671509387,0.7390015389200547,0.8069586313352839,0.4126970736758748,0.3180044150697866,0.7881771064778833
0.6417500644966576,0.6174228271155839,-0.4167391074554445,-0.441521527949504,0.5856087382066003,0.4993681291159315,-0.46125114386466654,0.14261383431190217,1.4328619128483073,-1.3387393084727328,0.3690094449089832,2.731157206688673,0.9850724278629103,-1.0870104246426977,0.03103255972372576,-0.27973077515679906,0.7559644299362829,0.7388248908056728,-0.02166200823449583,-0.20991646289687813,0.7271363357308048,0.3311149877745545,0.12558338027862315,-0.18666215599100625,0.810300671509387,0.7390015389200547,0.8069586313352839,0.4126970736758748,0.3180044150697866,0.7881771064778833
0.6428389045689492,0.6186499517197496,-0.4199071400342398,-0.43939307362802343,0.5889960857506907,0.49233224215426324,-0.4665043420520749,0.1402180079758863,1.430342589086999,-1.340141283027973,0.3656704001027891,2.7312846228799184,0.9846930072461607,-1.0870129412983962,0.03144512500071622,-0.2800737344526961,0.7561260555184333,0.7390011558390184,-0.021441579379948818,-0.20980827383754655,0.7273070140760902,0.3311149877745545,0.12548568044628586,-0.18652164729348375,0.8101835195057706,0.7390843138177328,0.8070475483778462,0.4128239101759402,0.31807033217694175,0.7883274134733268
0.6428389045689492,0.6186499517197496,-0.4199071400342398,-0.43939307362802343,0.5889960857506907,0.49233224215426324,-0.4665043420520749,0.13747134351669926,1.4282007683710074,-1.3410433955036085,0.36315191529943547,2.7314865332142975,0.9840425035080714,-1.087013960025264,0.03144512500071622,-0.2800737344526961,0.7561260555184333,0.7390011558390184,-0.021441579379948818,-0.20980827383754655,0.7273070140760902,0.3311149877745545,0.12548568044628586,-0.18652164729348375,0.8101835195057706,0.7390843138177328,0.8070475483778462,0.4128239101759402,0.31807033217694175,0.7883274134733268
0.6428389045689492,0.6186499517197496,-0.4199071400342398,-0.43939307362802343,0.5889960857506907,0.49233224215426324,-0.4665043420520749,0.1345232840970446,1.4263927682725648,-1.3415206673503726,0.3614120455464244,2.731919211680507,0.9835383271927217,-1.0870149187564386,0.03144512500071622,-0.2800737344526961,0.7561260555184333,0.7390011558390184,-0.021441579379948818,-0.20980827383754655,0.7273070140760902,0.3311149877745545,0.12548568044628586,-0.18652164729348375,0.8101835195057706,0.7390843138177328,0.8070475483778462,0.4128239101759402,0.31807033217694175,0.7883274134733268
0.643520063889659,0.6187199568116382,-0.42314264624424,-0.4364134283451393,0.5909274651557084,0.48863648459510783,-0.47072543632910524,0.13136849675430973,1.4248789809441247,-1.3416509357804982,0.3602700687628629,2.7325792068899513,0.9832864188039597,-1.0870155778363975,0.03150997641400644,-0.28010075822643155,0.7560488620157055,0.7391972851416284,-0.021522009018653483,-0.20978110304487513,0.7272606683834619,0.3311149877745545,0.12555272566735198,-0.18658889328597153,0.8104275956147219,0.739020717346661,0.8069450246070397,0.4129363379465776,0.31808863086324307,0.788341440397201
0.643520063889659,0.6187199568116382,-0.42314264624424,-0.4364134283451393,0.5909274651557084,0.48863648459510783,-0.47072543632910524,0.12799403867217726,1.4236573690410348,-1.341603957625687,0.35955455052838914,2.73330468388587,0.9830364278775473,-1.0870162370254393,0.03150997641400644,-0.28010075822643155,0.7560488620157055,0.7391972851416284,-0.021522009018653483,-0.20978110304487513,0.7272606683834619,0.3311149877745545,0.12555272566735198,-0.18658889328597153,0.8104275956147219,0.739020717346661,0.8069450246070397,0.4129363379465776,0.31808863086324307,0.788341440397201
0.6440687983898811,0.6187689243506099,-0.42534177992387023,-0.4332388617145,0.5922136972985399,0.4862984586755294,-0.47444792603838293,0.12453413297869181,1.4227152291843344,-1.3415340895868189,0.3591315073704814,2.733975800507841,0.9828806929119733,-1.087016896105398,0.03141832514816172,-0.27992108384912723,0.7560995928134783,0.7397702057254246,-0.021352416087200038,-0.20986353781442788,0.7273027176835561,0.3311149877745545,0.12552381976886617,-0.18665320870311994,0.8103708818747082,0.7391740443269983,0.8069513469287042,0.41294738380820795,0.3180312958955531,0.78827932758281
0.6440687983898811,0.6187689243506099,-0.42534177992387023,-0.4332388617145,0.5922136972985399,0.4862984586755294,-0.47444792603838293,0.12102497223930277,1.421950096257048,-1.3414681164683426,0.3589829030566496,2.734527362425116,0.9828102855663664,-1.087017255643224,0.03141832514816172,-0.27992108384912723,0.7560995928134783,0.7397702057254246,-0.021352416087200038,-0.20986353781442788,0.7273027176835561,0.3311149877745545,0.12552381976886617,-0.18665320870311994,0.8103708818747082,0.7391740443269983,0.8069513469287042,0.41294738380820795,0.3180312958955531,0.78827932758281
0.6443610730317427,0.6189133030263125,-0.42624621978612,-0.43046186663696795,0.593477433571212,0.4844015182957453,-0.4773282793695779,0.11758442104730808,1.4213977434001892,-1.3413984281983875,0.3590083694830147,2.7348889984858538,0.9827797257238285,-1.087017375525527,0.03160724010349383,-0.2800343206798818,0.7561530129950382,0.7398684223108501,-0.021304239293450766,-0.20977992634986242,0.7271656546568178,0.3311149877745545,0.1254501513600223,-0.18667643034494738,0.8104332890170005,0.7390640322946413,0.8069756968499864,0.4129169550697106,0.31787893363496755,0.7881899498318106
0.6443610730317427,0.6189133030263125,-0.42624621978612,-0.43046186663696795,0.593477433571212,0.4844015182957453,-0.4773282793695779,0.11428462465991743,1.4210063385892138,-1.3413205307722955,0.3590468988261663,2.7351365446423164,0.9827583938733784,-1.0870179148322658,0.03160724010349383,-0.2800343206798818,0.7561530129950382,0.7398684223108501,-0.021304239293450766,-0.20977992634986242,0.7271656546568178,0.3311149877745545,0.1254501513600223,-0.18667643034494738,0.8104332890170005,0.7390640322946413,0.8069756968499864,0.4129169550697106,0.31787893363496755,0.7881899498318106
0.6443610730317427,0.6189133030263125,-0.42624621978612,-0.43046186663696795,0.593477433571212,0.4844015182957453,-0.4773282793695779,0.11107914411997531,1.420802367086438,-1.3412769681177474,0.3590486964062128,2.7352665495059085,0.9827365226071062,-1.0870181544877888,0.03160724010349383,-0.2800343206798818,0.7561530129950382,0.7398684223108501,-0.021304239293450766,-0.20977992634986242,0.7271656546568178,0.3311149877745545,0.1254501513600223,-0.18667643034494738,0.8104332890170005,0.7390640322946413,0.8069756968499864,0.4129169550697106,0.31787893363496755,0.7881899498318106
0.6444533757719138,0.6190384726871154,-0.4264837772076958,-0.4282909034903464,0.5947540586737959,0.48274702101209155,-0.47936398006360514,0.1079208813903674,1.4207409479683126,-1.3412669013858711,0.35904330355699027,2.735305665999637,0.9827310698712738,-1.0870183941433116,0.03152988512755551,-0.279900736502716,0.7561738637676427,0.7398730062562449,-0.021319885421588275,-0.20986612096820348,0.7272118499987463,0.3311149877745545,0.12554956435394835,-0.18653606617503993,0.8104493922277196,0.7391303531040618,0.8070058840250194,0.41285887678320854,0.31794618003185837,0.7882192611692744
0.6444533757719138,0.6190384726871154,-0.4264837772076958,-0.4282909034903464,0.5947540586737959,0.48274702101209155,-0.47936398006360514,0.10491326042832685,1.4207622199321528,-1.3412695978104823,0.3590437229814261,2.735308158678875,0.9827364028338863,-1.0870184540299217,0.03152988512755551,-0.279900736502716,0.7561738637676427,0.7398730062562449,-0.021319885421588275,-0.20986612096820348,0.7272118499987463,0.3311149877745545,0.12554956435394835,-0.18653606617503993,0.8104493922277196,0.7391303531040618,0.8070058840250194,0.41285887678320854,0.31794618003185837,0.7882192611692744
0.6444605183318847,0.6190335935342284,-0.4265017007444888,-0.42622845793929337,0.5962163555248815,0.4811035681523269,-0.48103504628916555,0.10204968977976735,1.4208679207804782,-1.3412775074244863,0.35900627225175225,2.7353038443994966,0.9827286131021854,-1.0870183941433116,0.03150331005564129,-0.28011268542870643,0.7561269922563308,0.7399009657056528,-0.021335447011557946,-0.20980183255690754,0.7272070946249339,0.3311149877745545,0.12530254957505513,-0.18652771812393895,0.8104232247624084,0.7390451033415375,0.8069896598788968,0.4128296761371575,0.31817254625143776,0.7882234913187443
0.6444605183318847,0.6190335935342284,-0.4265017007444888,-0.42622845793929337,0.5962163555248815,0.4811035681523269,-0.48103504628916555,0.09932957036042311,1.4210470250502378,-1.341277627197706,0.35893496617066356,2.735298091968815,0.9827244785262705,-1.0870194727567895,0.03150331005564129,-0.28011268542870643,0.7561269922563308,0.7399009657056528,-0.021335447011557946,-0.20980183255690754,0.7272070946249339,0.3311149877745545,0.12530254957505513,-0.18652771812393895,0.8104232247624084,0.7390451033415375,0.8069896598788968,0.4128296761371575,0.31817254625143776,0.7882234913187443
0.6444463538652038,0.6188655678483435,-0.42654353904988596,-0.42424752552986383,0.597667540391237,0.479657212552366,-0.48242772172727605,0.09680802948554922,1.4212922822073866,-1.341278226391055,0.3587978066352355,2.735291476647351,0.9827253173751422,-1.0870219894124877,0.0314893122932045,-0.2798884277236236,0.7560912346057896,0.7399620238339515,-0.02138022561755955,-0.20990479044850274,0.727374351564456,0.3311149877745545,0.12531911349914482,-0.18660116833349655,0.8104514642134674,0.7390481262398143,0.8070506974034704,0.4128408901362106,0.31783996178114554,0.7883077954560083
0.6444463538652038,0.6188655678483435,-0.42654353904988596,-0.42424752552986383,0.597667540391237,0.479657212552366,-0.48242772172727605,0.09448680495766522,1.421598419175922,-1.3412777470800092,0.35859701097719976,2.7352836149862685,0.9827238193372286,-1.087023906874837,0.0314893122932045,-0.2798884277236236,0.7560912346057896,0.7399620238339515,-0.02138022561755955,-0.20990479044850274,0.727374351564456,0.3311149877745545,0.12531911349914482,-0.18660116833349655,0.8104514642134674,0.7390481262398143,0.8070506974034704,0.4128408901362106,0.31783996178114554,0.7883077954560083
0.6444463538652038,0.6188655678483435,-0.42654353904988596,-0.42424752552986383,0.597667540391237,0.479657212552366,-0.48242772172727605,0.09232389204674646,1.4219441641010866,-1.3412773276555732,0.3583465407397415,2.735277862555587,0.9827268752996658,-1.0870249256017048,0.03146117227549144,-0.28001744971100334,0.756081890029875,0.7397251292906337,-0.021303710859341112,-0.20981746636075083,0.7272731677037935,0.3311149877745545,0.12520503200107863,-0.18676226977674382,0.8102523032339941,0.7392270940022161,0.8069835524009106,0.41272508292733445,0.3179595693775054,0.7882991412997189
0.644436997795486,0.6185331601009261,-0.42665122821621926,-0.4223886329510909,0.5990506793933824,0.47846229822365394,-0.48352865008246904,0.09031473675244218,1.4223189108351824,-1.3412778069666191,0.35802949797229205,2.7352717266760687,0.9827266955307529,-1.0870252251438377,0.03146117227549144,-0.28001744971100334,0.756081890029875,0.7397251292906337,-0.021303710859341112,-0.20981746636075083,0.7272731677037935,0.3311149877745545,0.12520503200107863,-0.18676226977674382,0.8102523032339941,0.7392270940022161,0.8069835524009106,0.41272508292733445,0.3179595693775054,0.7882991412997189
0.644436997795486,0.6185331601009261,-0.42665122821621926,-0.4223886329510909,0.5990506793933824,0.47846229822365394,-0.48352865008246904,0.08846353353727723,1.422767839843891,-1.3412803237314004,0.3576367750013992,2.735257633142359,0.9827253173751422,-1.0870254647993607,0.0315795516001876,-0.280020988082031,0.7560963159825416,0.7397355926034012,-0.021466633402897565,-0.20978211535191402,0.7273521877341582,0.3311149877745545,0.12532787212010152,-0.18675367604520743,0.8104493220643543,0.7391211852722892,0.8069675613520126,0.41276603297111863,0.3180125520374082,0.7882789314533228
0.6444441288219307,0.6180431866000543,-0.42688192386494406,-0.4205836171749648,0.6004029481809845,0.4774415459773919,-0.4844329581627603,0.08678903770939354,1.4232408572324373,-1.3412788256934869,0.35717945695855774,2.735256194991055,0.9827256170263582,-1.087025105370618,0.0315795516001876,-0.280020988082031,0.7560963159825416,0.7397355926034012,-0.021466633402897565,-0.20978211535191402,0.7273521877341582,0.3311149877745545,0.12532787212010152,-0.18675367604520743,0.8104493220643543,0.7391211852722892,0.8069675613520126,0.41276603297111863,0.3180125520374082,0.7882789314533228
0.6444441288219307,0.6180431866000543,-0.42688192386494406,-0.4205836171749648,0.6004029481809845,0.4774415459773919,-0.4844329581627603,0.08531539753523863,1.4237272369708198,-1.3412885328875372,0.35671512814627715,2.7352417181830417,0.9827283134509694,-1.0870252251438377,0.0315795516001876,-0.280020988082031,0.7560963159825416,0.7397355926034012,-0.021466633402897565,-0.20978211535191402,0.7273521877341582,0.3311149877745545,0.12532787212010152,-0.18675367604520743,0.8104493220643543,0.7391211852722892,0.8069675613520126,0.41276603297111863,0.3180125520374082,0.7882789314533228
0.6444638343980813,0.6174321236532672,-0.4272033214816574,-0.4189049227489031,0.6016698517002188,0.476627665821326,-0.4851166080701498,0.0839827517121276,1.4242392630135636,-1.3412868550807107,0.35624348902242453,2.735240951110835,0.9827245384128805,-1.0870252251438377,0.031399047413309886,-0.28003502313291234,0.7560610272285666,0.7398467184199564,-0.021442431041253665,-0.20975510053894425,0.7272690126566462,0.3311149877745545,0.1251956637437014,-0.1865323386560128,0.810278303320855,0.7390539962466526,0.8070671166958125,0.41273475189920894,0.3179298574233396,0.7883268268179129
0.6444638343980813,0.6174321236532672,-0.4272033214816574,-0.4189049227489031,0.6016698517002188,0.476627665821326,-0.4851166080701498,0.0827857672774479,1.4247580601702234,-1.341285177273884,0.3557168422474538,2.7352406634805746,0.9827166287988767,-1.087025105370618,0.031399047413309886,-0.28003502313291234,0.7560610272285666,0.7398467184199564,-0.021442431041253665,-0.20975510053894425,0.7272690126566462,0.3311149877745545,0.1251956637437014,-0.1865323386560128,0.810278303320855,0.7390539962466526,0.8070671166958125,0.41273475189920894,0.3179298574233396,0.7883268268179129
0.6444638343980813,0.6174321236532672,-0.4272033214816574,-0.4189049227489031,0.6016698517002188,0.476627665821326,-0.4851166080701498,0.08176716814595908,1.4253082559092098,-1.3412873943874495,0.35521152743201634,2.7352398965829012,0.9827162692610507,-1.0870252251438377,0.031438628160543984,-0.2799940683886734,0.756142118310667,0.7398661238900158,-0.021460468957147764,-0.20972649852042932,0.7272128871617733,0.3311149877745545,0.12524096152535605,-0.1865311407852343,0.8104331330544079,0.7388873759324319,0.8069670085580218,0.4127835313231172,0.3179151072302219,0.7882117218661926
0.6444841789190687,0.6166912034831156,-0.42759068049142773,-0.4172602385868012,0.6029188260567936,0.47596780300574226,-0.4856309637808012,0.08087182667515691,1.4258432916092303,-1.341289132080886,0.3546405989268455,2.735239129510695,0.9827110561807412,-1.087025105370618,0.031438628160543984,-0.2799940683886734,0.756142118310667,0.7398661238900158,-0.021460468957147764,-0.20972649852042932,0.7272128871617733,0.3311149877745545,0.12524096152535605,-0.1865311407852343,0.8104331330544079,0.7388873759324319,0.8069670085580218,0.4127835313231172,0.3179151072302219,0.7882117218661926
0.6444841789190687,0.6166912034831156,-0.42759068049142773,-0.4172602385868012,0.6029188260567936,0.47596780300574226,-0.4856309637808012,0.08006438947571298,1.4263837801541663,-1.3412920682701033,0.3541599116889014,2.735238650243282,0.9827036259868662,-1.0870254049127508,0.0314119272556288,-0.2800845320196384,0.7561016942622063,0.7398726064296343,-0.021486628010785474,-0.20986607581921252,0.7273478409135918,0.3311149877745545,0.12511360257648269,-0.18680579754125406,0.810326242793864,0.7391738713948836,0.8070562041231761,0.4126848904582254,0.3177249504685859,0.7882834773200087
0.6445060525754733,0.6159248394697063,-0.4280050763116111,-0.415835755945922,0.6040112004171403,0.47550501515053456,-0.4859486335140983,0.07944324708438076,1.426902756970656,-1.341292787236672,0.35371691472707095,2.7352364450197726,0.9826734256821543,-1.0870255846816637,0.0314119272556288,-0.2800845320196384,0.7561016942622063,0.7398726064296343,-0.021486628010785474,-0.20986607581921252,0.7273478409135918,0.3311149877745545,0.12511360257648269,-0.18680579754125406,0.810326242793864,0.7391738713948836,0.8070562041231761,0.4126848904582254,0.3177249504685859,0.7882834773200087
0.6445060525754733,0.6159248394697063,-0.4280050763116111,-0.415835755945922,0.6040112004171403,0.47550501515053456,-0.4859486335140983,0.07886758491902932,1.427428564896755,-1.3413012361574148,0.3532740976432366,2.735233568891698,0.982600561567459,-1.0870262438707057,0.03149506743793096,-0.2801566120286134,0.7561595080981521,0.7399701998196492,-0.021432478397027832,-0.20987854923272165,0.7272918029946741,0.3311149877745545,0.12541499138856593,-0.1866802168475111,0.8104987067869968,0.7392644025578118,0.8070478334255394,0.41269629964351867,0.3180570566304898,0.7882768596606087
0.6444894587074841,0.6152739792023296,-0.42838212790562985,-0.41480165769449373,0.6048180474196686,0.4752345881510238,-0.48609340719072336,0.07842213129719365,1.4279407107127187,-1.3413107036959422,0.35293865921455425,2.735214202369252,0.9825478310255993,-1.0870269029506643,0.03149506743793096,-0.2801566120286134,0.7561595080981521,0.7399701998196492,-0.021432478397027832,-0.20987854923272165,0.7272918029946741,0.3311149877745545,0.12541499138856593,-0.1866802168475111,0.8104987067869968,0.7392644025578118,0.8070478334255394,0.41269629964351867,0.3180570566304898,0.7882768596606087
0.6444894587074841,0.6152739792023296,-0.42838212790562985,-0.41480165769449373,0.6048180474196686,0.4752345881510238,-0.48609340719072336,0.07808153956572861,1.4284411719856727,-1.3413095053092445,0.3526055576726572,2.735186207113517,0.9825378840669429,-1.0870297192575786,0.03149506743793096,-0.2801566120286134,0.7561595080981521,0.7399701998196492,-0.021432478397027832,-0.20987854923272165,0.7272918029946741,0.3311149877745545,0.12541499138856593,-0.1866802168475111,0.8104987067869968,0.7392644025578118,0.8070478334255394,0.41269629964351867,0.3180570566304898,0.7882768596606087
0.6444894587074841,0.6152739792023296,-0.42838212790562985,-0.41480165769449373,0.6048180474196686,0.4752345881510238,-0.48609340719072336,0.07780056937234248,1.4288924379902497,-1.3413090857757257,0.3522972634771665,2.7351621428628565,0.98250810329575,-1.0870323557955799,0.03143323733417075,-0.2799973211568199,0.7562010641839285,0.7398105236684931,-0.021426380923936457,-0.20977909411948928,0.7272610290330823,0.3311149877745545,0.12519877866259171,-0.18678901717342664,0.8102814230759492,0.7390668277514783,0.806961511202556,0.41271190318861056,0.31784184719719377,0.7882615246741067
0.644458630030775,0.6146805251181016,-0.4286232136671215,-0.41398886658540335,0.6054994597164549,0.47509981013872005,-0.48606974091437366,0.07762835609880202,1.429342385725826,-1.3413230474279938,0.35204080108805375,2.7351158357871426,0.9824862321385609,-1.0870360708379758,0.03143323733417075,-0.2799973211568199,0.7562010641839285,0.7398105236684931,-0.021426380923936457,-0.20977909411948928,0.7272610290330823,0.3311149877745545,0.12519877866259171,-0.18678901717342664,0.8102814230759492,0.7390668277514783,0.806961511202556,0.41271190318861056,0.31784184719719377,0.7882615246741067
0.644458630030775,0.6146805251181016,-0.4286232136671215,-0.41398886658540335,0.6054994597164549,0.47509981013872005,-0.48606974091437366,0.07750354040450874,1.429772259775177,-1.341326343155037,0.35178176204754974,2.7350766234748383,0.9824647204101147,-1.0870406848340197,0.03140093117730018,-0.28012418081455875,0.7561502295958393,0.7397724023732795,-0.021442447482505372,-0.20982881771219425,0.7272446046542217,0.3311149877745545,0.1251727049304318,-0.18678595087419939,0.8104823598914941,0.7391001015634651,0.8069111373999789,0.41267507786385665,0.3179791029353269,0.7882840286720523
0.6444173587523321,0.6142299144230058,-0.42877478434249694,-0.4134765666478905,0.6059735920544514,0.4750611835077106,-0.48595267927026764,0.07744919194243242,1.4301693570865908,-1.3413264629282569,0.3515891156590408,2.735038082241631,0.9824401527192312,-1.0870451789477604,0.03140093117730018,-0.28012418081455875,0.7561502295958393,0.7397724023732795,-0.021442447482505372,-0.20982881771219425,0.7272446046542217,0.3311149877745545,0.1251727049304318,-0.18678595087419939,0.8104823598914941,0.7391001015634651,0.8069111373999789,0.41267507786385665,0.3179791029353269,0.7882840286720523
0.6444173587523321,0.6142299144230058,-0.42877478434249694,-0.4134765666478905,0.6059735920544514,0.4750611835077106,-0.48595267927026764,0.07744967136256133,1.4305523129768232,-1.3413264629282569,0.3514761642766703,2.7350075943066585,0.9824231352136089,-1.0870488939901564,0.03146465856633814,-0.2800601589905405,0.756074059957534,0.7398094019737926,-0.02138034113489299,-0.20979216269753412,0.7271056249951889,0.3311149877745545,0.12520917802961376,-0.18682752478093845,0.810318702107941,0.7390072926590063,0.8069271477790951,0.4126621254703293,0.31788195540932257,0.7883378075786789
0.6443633618815241,0.6138824029397193,-0.4288239013563283,-0.41318088717060397,0.606280017651579,0.4751339204391675,-0.48575081299100314,0.0774623746324389,1.4308965598640744,-1.3413253843147792,0.3514388934249924,2.73499589763361,0.9824088140235148,-1.0870526690282454,0.03146465856633814,-0.2800601589905405,0.756074059957534,0.7398094019737926,-0.02138034113489299,-0.20979216269753412,0.7271056249951889,0.3311149877745545,0.12520917802961376,-0.18682752478093845,0.810318702107941,0.7390072926590063,0.8069271477790951,0.4126621254703293,0.31788195540932257,0.7883378075786789
0.6443633618815241,0.6138824029397193,-0.4288239013563283,-0.41318088717060397,0.606280017651579,0.4751339204391675,-0.48575081299100314,0.07749041771019531,1.4312191752496592,-1.3413403046982222,0.3514423688118654,2.734971353941004,0.98240791517895,-1.0870552456796367,0.03146465856633814,-0.2800601589905405,0.756074059957534,0.7398094019737926,-0.02138034113489299,-0.20979216269753412,0.7271056249951889,0.3311149877745545,0.12520917802961376,-0.18682752478093845,0.810318702107941,0.7390072926590063,0.8069271477790951,0.4126621254703293,0.31788195540932257,0.7883378075786789
0.6443051539195644,0.6136572184835198,-0.42874153426222794,-0.41306028421791696,0.6064638264329214,0.4752492015913352,-0.48551109690402744,0.07751959928803942,1.4315091934480537,-1.3413458774254408,0.3514518962370028,2.7349523710419277,0.9824095330991666,-1.087057043259683,0.031452494434827824,-0.28008495732465016,0.7561003228458386,0.7398563486638546,-0.0213893507725087,-0.2098002296240162,0.7272476993157178,0.3311149877745545,0.12519964241194925,-0.18695542140419455,0.8104428635017676,0.7390953498168731,0.8070650849146234,0.4126790197739789,0.31772972579016023,0.7882304659191552
0.6443051539195644,0.6136572184835198,-0.42874153426222794,-0.41306028421791696,0.6064638264329214,0.4752492015913352,-0.48551109690402744,0.07756537905615307,1.43176391814373,-1.3413454578919217,0.3514767035834091,2.734941153810825,0.9824143866416503,-1.087057762335335,0.031452494434827824,-0.28008495732465016,0.7561003228458386,0.7398563486638546,-0.0213893507725087,-0.2098002296240162,0.7272476993157178,0.3311149877745545,0.12519964241194925,-0.18695542140419455,0.8104428635017676,0.7390953498168731,0.8070650849146234,0.4126790197739789,0.31772972579016023,0.7882304659191552
0.6442635799968697,0.6134851069788269,-0.42866390905584073,-0.4129996848496628,0.6065725171732904,0.4753825650936795,-0.48529625851544683,0.07764645232698517,1.4319917382617375,-1.3413430611185264,0.35147999931045226,2.7349388527687393,0.9824187009864781,-1.087058001990858,0.031351394863601986,-0.28002868362350763,0.7560882927352901,0.7398800932486728,-0.021457672148957267,-0.20984731948594612,0.7272397581480036,0.3311149877745545,0.1250882848357988,-0.18678057219866276,0.8103713545615524,0.7390074646400508,0.8069914687378763,0.41262460846694204,0.31800074408539775,0.7882605005522885
0.6442635799968697,0.6134851069788269,-0.42866390905584073,-0.4129996848496628,0.6065725171732904,0.4753825650936795,-0.48529625851544683,0.07773861094747822,1.4321924740331633,-1.3413433007740494,0.35148844812211194,2.734937894059381,0.9824213375244794,-1.087057882217638,0.031351394863601986,-0.28002868362350763,0.7560882927352901,0.7398800932486728,-0.021457672148957267,-0.20984731948594612,0.7272397581480036,0.3311149877745545,0.1250882848357988,-0.18678057219866276,0.8103713545615524,0.7390074646400508,0.8069914687378763,0.41262460846694204,0.31800074408539775,0.7882605005522885
0.6442635799968697,0.6134851069788269,-0.42866390905584073,-0.4129996848496628,0.6065725171732904,0.4753825650936795,-0.48529625851544683,0.07783454471514334,1.4323908129221106,-1.3413429412362234,0.3515200265824344,2.7349377022476964,0.9824235546380449,-1.087057762335335,0.031515620629158705,-0.2801034663021954,0.7560960660082501,0.7399124481138302,-0.021421991648242805,-0.2097853205431662,0.7273275798325408,0.3311149877745545,0.12516886999237903,-0.18679006058542816,0.8103682835391567,0.7390164772314913,0.8070054517516247,0.41263118152519807,0.31784230345831366,0.7882775914020589
0.6442454514915956,0.6134041560106158,-0.4286300786855245,-0.41298684341490116,0.6066107505248647,0.4754588974342457,-0.4851846054487584,0.0779228085243275,1.4325644044603447,-1.341341802736136,0.3515634693546797,2.734937894059381,0.9824251125625684,-1.087057522679812,0.031515620629158705,-0.2801034663021954,0.7560960660082501,0.7399124481138302,-0.021421991648242805,-0.2097853205431662,0.7273275798325408,0.3311149877745545,0.12516886999237903,-0.18679006058542816,0.8103682835391567,0.7390164772314913,0.8070054517516247,0.41263118152519807,0.31784230345831366,0.7882775914020589
0.6442454514915956,0.6134041560106158,-0.4286300786855245,-0.41298684341490116,0.6066107505248647,0.4754588974342457,-0.4851846054487584,0.07800310283289781,1.4327240942329207,-1.341341503194003,0.35162476869958514,2.734938373501327,0.9824251724491784,-1.0870572230285962,0.031515620629158705,-0.2801034663021954,0.7560960660082501,0.7399124481138302,-0.021421991648242805,-0.2097853205431662,0.7273275798325408,0.3311149877745545,0.12516886999237903,-0.18679006058542816,0.8103682835391567,0.7390164772314913,0.8070054517516247,0.41263118152519807,0.31784230345831366,0.7882775914020589
0.6442101862997697,0.6132891290471982,-0.42854983872228647,-0.4129956438494845,0.6066523208068877,0.4755970699572631,-0.48498967707471147,0.07808914952851653,1.4328537036921707,-1.3413413833117,0.3516996101632399,2.7349386609570545,0.9824257716425272,-1.0870569833730732,0.031404373556544754,-0.2799928926197239,0.7561182155371439,0.7399120736039247,-0.021429488528041597,-0.20988779911213554,0.7271707304072513,0.3311149877745545,0.12494001285204911,-0.18690078370234886,0.8105205878840139,0.7390962839632631,0.8070770678298047,0.41271827782943893,0.31779690736789584,0.7882961745282857
0.6442101862997697,0.6132891290471982,-0.42854983872228647,-0.4129956438494845,0.6066523208068877,0.4755970699572631,-0.48498967707471147,0.0781723800263041,1.4329621009651075,-1.3413425816983977,0.3517709762400216,2.7349386609570545,0.9824254122137843,-1.0870571032553762,0.031404373556544754,-0.2799928926197239,0.7561182155371439,0.7399120736039247,-0.021429488528041597,-0.20988779911213554,0.7271707304072513,0.3311149877745545,0.12494001285204911,-0.18690078370234886,0.8105205878840139,0.7390962839632631,0.8070770678298047,0.41271827782943893,0.31779690736789584,0.7882961745282857
0.6441767474226711,0.6132294648132998,-0.4284549151244297,-0.4130520096678591,0.6066507603917745,0.47572020259010966,-0.4848228347273362,0.07825656914618331,1.433052581887857,-1.3413431808917464,0.35183928635436623,2.7349388527687393,0.9824257716425272,-1.0870571032553762,0.03132823981088066,-0.27999187105223716,0.7561393533373973,0.7398802847306781,-0.021448180176448593,-0.2097521341843206,0.7272240634562767,0.3311149877745545,0.12505024071504622,-0.1866523262787454,0.8102794065360038,0.739125990035483,0.807116503255435,0.41268553795590146,0.3179391346560426,0.7882644292804002
0.6441767474226711,0.6132294648132998,-0.4284549151244297,-0.4130520096678591,0.6066507603917745,0.47572020259010966,-0.4848228347273362,0.07834369445527978,1.433111364467981,-1.3413436603118754,0.35190226339701514,2.7349386609570545,0.982426310949266,-1.0870568036041603,0.03132823981088066,-0.27999187105223716,0.7561393533373973,0.7398802847306781,-0.021448180176448593,-0.2097521341843206,0.7272240634562767,0.3311149877745545,0.12505024071504622,-0.1866523262787454,0.8102794065360038,0.739125990035483,0.807116503255435,0.41268553795590146,0.3179391346560426,0.7882644292804002
0.6441520605517065,0.6132053242895955,-0.4283766761810823,-0.4131283926469012,0.6066228705476527,0.4758202491112494,-0.48469445494375296,0.07842566657067665,1.4331502533489586,-1.3413432408874395,0.35197165212483744,2.7349394280292607,0.982426490718179,-1.0870568036041603,0.03132690063595013,-0.2800549985435161,0.7561710585347717,0.7397710737567192,-0.021400466195604182,-0.20989198612498308,0.7273048164346219,0.3311149877745545,0.12508681133422114,-0.18681726251395742,0.8104154236562316,0.7390108740238914,0.8071048690301712,0.4125547467498713,0.31783224031920787,0.7882380898044207
0.6441520605517065,0.6132053242895955,-0.4283766761810823,-0.4131283926469012,0.6066228705476527,0.4758202491112494,-0.48469445494375296,0.07849745207189425,1.4331710458926699,-1.3413430611185264,0.3520453550884045,2.7349396198409455,0.982426430831569,-1.0870568036041603,0.03132690063595013,-0.2800549985435161,0.7561710585347717,0.7397710737567192,-0.021400466195604182,-0.20989198612498308,0.7273048164346219,0.3311149877745545,0.12508681133422114,-0.18681726251395742,0.8104154236562316,0.7390108740238914,0.8071048690301712,0.4125547467498713,0.31783224031920787,0.7882380898044207
0.6441341075691711,0.6132207606264537,-0.4283058505253389,-0.4132258071664235,0.6065674481851085,0.4758977201406172,-0.4846047080444289,0.07855419741644895,1.433185307196154,-1.3413427614673106,0.35210497662648343,2.7349400991083583,0.9824288876006574,-1.0870568036041603,0.03149486852964503,-0.28005645432096943,0.756098868936316,0.7398020436363549,-0.02146435888636214,-0.20985801875440288,0.7272831078551221,0.3311149877745545,0.12519927243040535,-0.18691787479207625,0.8103742726484491,0.7391763037919283,0.8070035637467645,0.412665229689635,0.3177899854146528,0.7882617285999762
0.6441341075691711,0.6132207606264537,-0.4283058505253389,-0.4132258071664235,0.6065674481851085,0.4758977201406172,-0.4846047080444289,0.07860656842048276,1.433189561545289,-1.3413428214630037,0.352158546126298,2.734940482731728,0.9824396734081855,-1.0870568036041603,0.03149486852964503,-0.28005645432096943,0.756098868936316,0.7398020436363549,-0.02146435888636214,-0.20985801875440288,0.7272831078551221,0.3311149877745545,0.12519927243040535,-0.18691787479207625,0.8103742726484491,0.7391763037919283,0.8070035637467645,0.412665229689635,0.3177899854146528,0.7882617285999762
0.6441341075691711,0.6132207606264537,-0.4283058505253389,-0.4132258071664235,0.6065674481851085,0.4758977201406172,-0.4846047080444289,0.07866067722703617,1.4331895016586789,-1.3413422821562648,0.3522106774748089,2.7349409619991403,0.9824559120606291,-1.0870568036041603,0.03149486852964503,-0.28005645432096943,0.756098868936316,0.7398020436363549,-0.02146435888636214,-0.20985801875440288,0.7272831078551221,0.3311149877745545,0.12519927243040535,-0.18691787479207625,0.8103742726484491,0.7391763037919283,0.8070035637467645,0.412665229689635,0.3177899854146528,0.7882617285999762
0.644125013467107,0.6132542126782256,-0.4282287692650605,-0.41332230208765036,0.6065095650591799,0.47595802140932847,-0.4845356374352734,0.07871496580250253,1.4331876440829394,-1.3413400650426992,0.35225657701614244,2.73494249596902,0.982471012103902,-1.0870569833730732,0.03154155186896787,-0.2800854153926533,0.7559877372914918,0.7399160505712331,-0.021418884344679867,-0.2098121521278065,0.7272565569337983,0.3311149877745545,0.125146772434268,-0.18670266247427328,0.8103086027824182,0.7390670767976782,0.8069869608883838,0.4126758275079453,0.31780125800840486,0.7882902781809313
0.644125013467107,0.6132542126782256,-0.4282287692650605,-0.41332230208765036,0.6065095650591799,0.47595802140932847,-0.4845356374352734,0.07877314918927779,1.4331864456962418,-1.3413396456182634,0.3522870768629872,2.7349430712295413,0.9824868313319097,-1.0870569234864633,0.03154155186896787,-0.2800854153926533,0.7559877372914918,0.7399160505712331,-0.021418884344679867,-0.2098121521278065,0.7272565569337983,0.3311149877745545,0.125146772434268,-0.18670266247427328,0.8103086027824182,0.7390670767976782,0.8069869608883838,0.4126758275079453,0.31780125800840486,0.7882902781809313
0.6441226706109018,0.6132822163995717,-0.42817072088625163,-0.41339701214715785,0.6064626505762816,0.47600405195148904,-0.48448540362900266,0.07882210480213162,1.4331860861584158,-1.3413398253871764,0.35229642462829475,2.734943263041226,0.9825025306776145,-1.0870569833730732,0.03140309694295935,-0.28021235907610154,0.7561239570223686,0.7397903614798839,-0.021403813760361823,-0.2097126414101746,0.7272895459302977,0.3311149877745545,0.12512535533607066,-0.186788995937933,0.81026547201917,0.7390260060976299,0.8070841329510378,0.4126116384879845,0.3178051229578558,0.788253415745878
0.6441226706109018,0.6132822163995717,-0.42817072088625163,-0.41339701214715785,0.6064626505762816,0.47600405195148904,-0.48448540362900266,0.0788647087255051,1.4331842285826764,-1.3413396456182634,0.3522979825528183,2.734943358859802,0.9825194284100169,-1.0870569234864633,0.03140309694295935,-0.28021235907610154,0.7561239570223686,0.7397903614798839,-0.021403813760361823,-0.2097126414101746,0.7272895459302977,0.3311149877745545,0.12512535533607066,-0.186788995937933,0.81026547201917,0.7390260060976299,0.8070841329510378,0.4126116384879845,0.3178051229578558,0.788253415745878
0.6441265491835464,0.6132968263489311,-0.42813311592283665,-0.41344792686022164,0.6064325449966027,0.4760383161636319,-0.4844459739620329,0.07890353761078961,1.4331803936579774,-1.3413391063115245,0.3522977428972954,2.7349439341203237,0.9825342887977668,-1.087057043259683,0.031337923498556436,-0.28004422634919623,0.7561157219971658,0.7398568531068381,-0.021345458966338184,-0.2097705435433839,0.727285747392634,0.3311149877745545,0.1250453133013037,-0.1866480029057382,0.8103171327777748,0.7389631390619702,0.8069764731419953,0.4126391711503665,0.3178152633712828,0.7882031830544399
0.6441265491835464,0.6132968263489311,-0.42813311592283665,-0.41344792686022164,0.6064325449966027,0.4760383161636319,-0.4844459739620329,0.07893835169337915,1.433177817006586,-1.3413387467736986,0.35229768290160235,2.7349443175691603,0.982541539331812,-1.0870569833730732,0.031337923498556436,-0.28004422634919623,0.7561157219971658,0.7398568531068381,-0.021345458966338184,-0.2097705435433839,0.727285747392634,0.3311149877745545,0.1250453133013037,-0.1866480029057382,0.8103171327777748,0.7389631390619702,0.8069764731419953,0.4126391711503665,0.3178152633712828,0.7882031830544399
0.6441304595464078,0.6133048941952893,-0.4281148022103617,-0.4134815602925017,0.6064110531630156,0.4760619377193965,-0.4844209588309059,0.07897682114992081,1.4331774574687601,-1.3413389864292216,0.3522974432460794,2.734944221750584,0.9825459734498597,-1.0870571032553762,0.03147404164594028,-0.2801078894680746,0.756103330342297,0.7397499116363057,-0.02140568525616053,-0.20983384600292557,0.7272949064198901,0.3311149877745545,0.12508181296625948,-0.18688391952169414,0.8103887278331378,0.7390383865914643,0.8069259974991477,0.4126127139928592,0.3178058666312841,0.7882642591318814
0.6441304595464078,0.6133048941952893,-0.4281148022103617,-0.4134815602925017,0.6064110531630156,0.4760619377193965,-0.4844209588309059,0.07900947811463796,1.4331769781577144,-1.3413391063115245,0.35229756312838245,2.734944413387736,0.9825516060636882,-1.087057043259683,0.03147404164594028,-0.2801078894680746,0.756103330342297,0.7397499116363057,-0.02140568525616053,-0.20983384600292557,0.7272949064198901,0.3311149877745545,0.12508181296625948,-0.18688391952169414,0.8103887278331378,0.7390383865914643,0.8069259974991477,0.4126127139928592,0.3178058666312841,0.7882642591318814
0.6441322899345054,0.6133093825319706,-0.4281040385630971,-0.4135109204633764,0.6063923764005139,0.4760832000422968,-0.4843983806107893,0.07903428546104427,1.4331741618508,-1.3413386268913956,0.3522982820949512,2.734944605199421,0.9825572386775168,-1.087057043259683,0.03153175670951001,-0.2801879365702963,0.7561370425588623,0.7397885263437188,-0.02140829953854419,-0.20984404816240296,0.7275372417569013,0.3311149877745545,0.12511854357968802,-0.18681448569393092,0.8104033055131088,0.7391602959292493,0.80694789103955,0.4126712672915243,0.318085517968018,0.7882047887242702
0.6441322899345054,0.6133093825319706,-0.4281040385630971,-0.4135109204633764,0.6063923764005139,0.4760832000422968,-0.4843983806107893,0.07905280111366328,1.433170686354844,-1.3413384471224827,0.3522985218595572,2.7349454680902032,0.982563590257914,-1.0870571032553762,0.031467679358563316,-0.2801716346624834,0.756079490909467,0.739697291720313,-0.021421631211129832,-0.20980998259360537,0.7275133669534665,0.3311149877745545,0.12512502663517644,-0.1867828898262235,0.8104148044066792,0.7390918771000246,0.8069882725984122,0.4126681513079621,0.31802477423817144,0.7882729913682579
0.6441322899345054,0.6133093825319706,-0.4281040385630971,-0.4135109204633764,0.6063923764005139,0.4760832000422968,-0.4843983806107893,0.07906376669010433,1.4331700272748853,-1.34133808769374,0.3522985817461671,2.7349461391693004,0.9825664664514382,-1.087057043259683,0.031467679358563316,-0.2801716346624834,0.756079490909467,0.739697291720313,-0.021421631211129832,-0.20980998259360537,0.7275133669534665,0.3311149877745545,0.12512502663517644,-0.1867828898262235,0.8104148044066792,0.7390918771000246,0.8069882725984122,0.4126681513079621,0.31802477423817144,0.7882729913682579
0.6441343532203696,0.613313623818055,-0.42809581702378896,-0.4135259044585317,0.6063821061490084,0.4760937724453479,-0.48438805468632584,0.07907335400185168,1.4331697876193623,-1.34133808769374,0.35229882140169005,2.734946522618137,0.9825677248338288,-1.0870571032553762,0.031415059621725805,-0.2800746133221043,0.7561021042775996,0.7399038340607043,-0.02145779631827966,-0.20977843102236274,0.7273568942065132,0.3311149877745545,0.12504567785123624,-0.1866758270197272,0.8104127143695458,0.7390311403661565,0.8069910922021993,0.41264531325308407,0.3178830911450968,0.7882780792487538
0.6441343532203696,0.613313623818055,-0.42809581702378896,-0.4135259044585317,0.6063821061490084,0.4760937724453479,-0.48438805468632584,0.07908437957398577,1.4331696677370593,-1.3413382074669598,0.3522988813973831,2.734946714429822,0.9825695225229584,-1.0870569833730732,0.031415059621725805,-0.2800746133221043,0.7561021042775996,0.7399038340607043,-0.02145779631827966,-0.20977843102236274,0.7273568942065132,0.3311149877745545,0.12504567785123624,-0.1866758270197272,0.8104127143695458,0.7390311403661565,0.8069910922021993,0.41264531325308407,0.3178830911450968,0.7882780792487538
0.6441349521575395,0.6133146213744978,-0.42809290933091887,-0.4135350369484251,0.6063761218976313,0.47610086109416677,-0.48438078210623337,0.07909468596138496,1.4331694280815364,-1.34133808769374,0.352299121052906,2.7349470978786585,0.982570720909656,-1.0870571032553762,0.031423679045704006,-0.280003147973684,0.756163352334254,0.7399232227703677,-0.021445473376578466,-0.2099600140858138,0.7272552914154461,0.3311149877745545,0.12495334261511955,-0.18673303352108656,0.8104672533699987,0.7391262325393165,0.807002398396052,0.4126682350467597,0.31799566253962935,0.7882854822440637
0.6441349521575395,0.6133146213744978,-0.42809290933091887,-0.4135350369484251,0.6063761218976313,0.47610086109416677,-0.48438078210623337,0.07910289511752171,1.4331691884260134,-1.34133808769374,0.35230007978408073,2.7349475773206042,0.9825725784853956,-1.0870568036041603,0.031423679045704006,-0.280003147973684,0.756163352334254,0.7399232227703677,-0.021445473376578466,-0.2099600140858138,0.7272552914154461,0.3311149877745545,0.12495334261511955,-0.18673303352108656,0.8104672533699987,0.7391262325393165,0.807002398396052,0.4126682350467597,0.31799566253962935,0.7882854822440637
0.6441355123875601,0.6133156482730058,-0.42808999155307503,-0.41354101621090067,0.6063719552768692,0.47610583559059033,-0.4843760038250746,0.07910619084456487,1.4331688887747975,-1.3413379079248269,0.35230025955299366,2.734947960769441,0.9825742562922222,-1.0870566238352473,0.03151343075983081,-0.28002789547445905,0.7561794043301029,0.7398402970076509,-0.02142914913870877,-0.20979671454561927,0.7271643381182804,0.3311149877745545,0.12507982893149588,-0.187001341661563,0.8104219214985279,0.7392269890602376,0.8068330512025638,0.4126700076452856,0.3178321500852867,0.7882554703034282
0.6441355123875601,0.6133156482730058,-0.42808999155307503,-0.41354101621090067,0.6063719552768692,0.47610583559059033,-0.4843760038250746,0.07910583130673896,1.4331688887747975,-1.3413378479291338,0.35230007978408073,2.7349481525811257,0.9825754546789198,-1.0870568036041603,0.03151343075983081,-0.28002789547445905,0.7561794043301029,0.7398402970076509,-0.02142914913870877,-0.20979671454561927,0.7271643381182804,0.3311149877745545,0.12507982893149588,-0.187001341661563,0.8104219214985279,0.7392269890602376,0.8068330512025638,0.4126700076452856,0.3178321500852867,0.7882554703034282
0.6441361708341047,0.6133160322838744,-0.4280878842844126,-0.4135416050012931,0.6063716953217597,0.47610656291679704,-0.48437511165740543,0.07910523211339013,1.4331690086571005,-1.341337788042524,0.3522998401285578,2.7349485360299624,0.9825762336411815,-1.0870568036041603,0.03142425156181952,-0.2800249324958881,0.7561270522318642,0.7398593281689599,-0.02136339333569847,-0.20986659910196911,0.7272871461744889,0.3311149877745545,0.12512248203192283,-0.1868461019432324,0.8102883021494938,0.7390915622653641,0.8069899007196364,0.41263552279973537,0.3179949286510181,0.7883121227127607
0.6441361708341047,0.6133160322838744,-0.4280878842844126,-0.4135416050012931,0.6063716953217597,0.47610656291679704,-0.48437511165740543,0.07910523211339013,1.4331688288881876,-1.3413378479291338,0.35229972024625483,2.734948631848538,0.9825763535234846,-1.0870568036041603,0.03142425156181952,-0.2800249324958881,0.7561270522318642,0.7398593281689599,-0.02136339333569847,-0.20986659910196911,0.7272871461744889,0.3311149877745545,0.12512248203192283,-0.1868461019432324,0.8102883021494938,0.7390915622653641,0.8069899007196364,0.41263552279973537,0.3179949286510181,0.7883121227127607
0.6441361696170391,0.6133161639278972,-0.4280878147210003,-0.41354163397236854,0.6063715921750815,0.4761066185805281,-0.4843751613350291,0.07910595107995887,1.4331687090058844,-1.341337788042524,0.3523003794352967,2.7349490154719076,0.9825768328345303,-1.0870566238352473,0.0315309381742977,-0.280143513929174,0.7561597670441059,0.7398757347822513,-0.02142195504083304,-0.2097909940744382,0.7271984547899755,0.3311149877745545,0.12508059018042983,-0.18670109299674842,0.8103257804811012,0.7390784967764541,0.8070741165629103,0.4126469599025854,0.31789196994187313,0.7883027955698696
0.6441361696170391,0.6133161639278972,-0.4280878147210003,-0.41354163397236854,0.6063715921750815,0.4761066185805281,-0.4843751613350291,0.07910619084456487,1.4331686491192746,-1.341337788042524,0.3523003794352967,2.7349492071090595,0.9825772522589663,-1.0870566238352473,0.0315309381742977,-0.280143513929174,0.7561597670441059,0.7398757347822513,-0.02142195504083304,-0.2097909940744382,0.7271984547899755,0.3311149877745545,0.12508059018042983,-0.18670109299674842,0.8103257804811012,0.7390784967764541,0.8070741165629103,0.4126469599025854,0.31789196994187313,0.7883027955698696
0.6441361696170391,0.6133161639278972,-0.4280878147210003,-0.41354163397236854,0.6063715921750815,0.4761066185805281,-0.4843751613350291,0.07910523211339013,1.4331685891235815,-1.3413379079248269,0.35230007978408073,2.7349492071090595,0.9825772522589663,-1.0870568036041603,0.0315309381742977,-0.280143513929174,0.7561597670441059,0.7398757347822513,-0.02142195504083304,-0.2097909940744382,0.7271984547899755,0.3311149877745545,0.12508059018042983,-0.18670109299674842,0.8103257804811012,0.7390784967764541,0.8070741165629103,0.4126469599025854,0.31789196994187313,0.7883027955698696
0.644136433611944,0.6133163860419129,-0.428086949832887,-0.41354228298110923,0.6063710644633016,0.4761073074066236,-0.4843745907894315,0.07910337453765062,1.4331685891235815,-1.3413378479291338,0.3522994205950389,2.7349493031021685,0.9825772522589663,-1.0870568036041603,0.031433106296273196,-0.27989534847462444,0.756128712747108,0.7398560830258004,-0.021474371881703296,-0.2098730177827121,0.7271768123352049,0.3311149877745545,0.12498512741566624,-0.18657493715165077,0.8104570188917142,0.7389598038320051,0.806986020921702,0.41259766972735185,0.31774947824213534,0.7882415673849373
0.644136433611944,0.6133163860419129,-0.428086949832887,-0.41354228298110923,0.6063710644633016,0.4761073074066236,-0.4843745907894315,0.07910175661743402,1.4331685891235815,-1.3413378479291338,0.3522988813973831,2.7349493989207443,0.9825771324857463,-1.0870568036041603,0.031433106296273196,-0.27989534847462444,0.756128712747108,0.7398560830258004,-0.021474371881703296,-0.2098730177827121,0.7271768123352049,0.3311149877745545,0.12498512741566624,-0.18657493715165077,0.8104570188917142,0.7389598038320051,0.806986020921702,0.41259766972735185,0.31774947824213534,0.7882415673849373
0.6441363413918251,0.6133162690884022,-0.42808749430353765,-0.4135408359163986,0.6063720209028338,0.4761061846089357,-0.4843757325392151,0.07910109753747524,1.4331685292369716,-1.3413378479291338,0.35229882140169005,2.7349492071090595,0.9825771324857463,-1.0870566238352473,0.03137256013301579,-0.280014704520167,0.7561648099569482,0.7399293310842674,-0.021413193193691997,-0.20986753444946055,0.727244808139377,0.3311149877745545,0.12509779195545645,-0.1864882157581369,0.8103127758452642,0.7392498959395233,0.8070245917628626,0.41261322869130657,0.3176777185997819,0.7882368469109392
0.6441363413918251,0.6133162690884022,-0.42808749430353765,-0.4135408359163986,0.6063720209028338,0.4761061846089357,-0.4843757325392151,0.07910127730638819,1.4331684693503617,-1.3413379678114368,0.35229882140169005,2.7349493031021685,0.9825769527168334,-1.0870568036041603,0.03137256013301579,-0.280014704520167,0.7561648099569482,0.7399293310842674,-0.021413193193691997,-0.20986753444946055,0.727244808139377,0.3311149877745545,0.12509779195545645,-0.1864882157581369,0.8103127758452642,0.7392498959395233,0.8070245917628626,0.41261322869130657,0.3176777185997819,0.7882368469109392
0.6441364340801333,0.6133160861549176,-0.4280878276006401,-0.4135402276675793,0.6063723886091124,0.4761057933551856,-0.4843761760932874,0.07910145707530114,1.4331682895814486,-1.3413379678114368,0.352299240935209,2.7349492071090595,0.9825766530656175,-1.0870569234864633,0.03142017569474121,-0.2800393374443427,0.7562127812268282,0.7398217961137337,-0.02138749960181545,-0.20973444782071535,0.7271537904586516,0.3311149877745545,0.12500497335238997,-0.1867939792183475,0.8103585789760158,0.739104127377965,0.8069964748547929,0.4126640906473875,0.3177772200845533,0.7883272119950981
0.6441364340801333,0.6133160861549176,-0.4280878276006401,-0.4135402276675793,0.6063723886091124,0.4761057933551856,-0.4843761760932874,0.07910187649973702,1.4331682895814486,-1.3413378479291338,0.35229930082181893,2.734949590732429,0.9825766530656175,-1.0870569234864633,0.03142017569474121,-0.2800393374443427,0.7562127812268282,0.7398217961137337,-0.02138749960181545,-0.20973444782071535,0.7271537904586516,0.3311149877745545,0.12500497335238997,-0.1867939792183475,0.8103585789760158,0.739104127377965,0.8069964748547929,0.4126640906473875,0.3177772200845533,0.7883272119950981
0.6441362476578562,0.6133163317168302,-0.4280879013645541,-0.4135405641051773,0.6063720648945412,0.4761058875727883,-0.4843762014938696,0.0791013970796081,1.4331682895814486,-1.3413378479291338,0.35229930082181893,2.7349493031021685,0.9825766530656175,-1.0870569234864633,0.031546848129949075,-0.28007031371749624,0.7561745560192905,0.7398899965300918,-0.021313091569327883,-0.20975969282309023,0.7271571693670362,0.3311149877745545,0.12510841422363445,-0.18681883989095852,0.8104834060542209,0.7391010586283215,0.8069963869260175,0.41257646264183223,0.31804965581258116,0.7883137993237261
0.6441362476578562,0.6133163317168302,-0.4280879013645541,-0.4135405641051773,0.6063720648945412,0.4761058875727883,-0.4843762014938696,0.07910073799964933,1.4331682295857557,-1.3413379678114368,0.352299121052906,2.7349493031021685,0.9825763535234846,-1.0870569833730732,0.031546848129949075,-0.28007031371749624,0.7561745560192905,0.7398899965300918,-0.021313091569327883,-0.20975969282309023,0.7271571693670362,0.3311149877745545,0.12510841422363445,-0.18681883989095852,0.8104834060542209,0.7391010586283215,0.8069963869260175,0.41257646264183223,0.31804965581258116,0.7883137993237261
0.6441363854954654,0.6133161262781194,-0.4280881840693558,-0.4135398300493798,0.606372525819635,0.4761054195659204,-0.4843767112009049,0.07909983915508455,1.4331681098125357,-1.341337788042524,0.352299121052906,2.7349493989207443,0.9825760538722687,-1.0870569234864633,0.03143117110137481,-0.280066227735885,0.7561763224632715,0.7398842817486105,-0.021404472020282932,-0.20975147356504698,0.727290590023763,0.3311149877745545,0.1251576109284868,-0.18678670864953814,0.8105003502562764,0.7391287738046525,0.8069386350150566,0.41253034867038024,0.31789618011941506,0.7882878892671139
0.6441363854954654,0.6133161262781194,-0.4280881840693558,-0.4135398300493798,0.606372525819635,0.4761054195659204,-0.4843767112009049,0.07909929984834568,1.4331681098125357,-1.341337308622395,0.352299121052906,2.734949590732429,0.9825762336411815,-1.0870568036041603,0.03143117110137481,-0.280066227735885,0.7561763224632715,0.7398842817486105,-0.021404472020282932,-0.20975147356504698,0.727290590023763,0.3311149877745545,0.1251576109284868,-0.18678670864953814,0.8105003502562764,0.7391287738046525,0.8069386350150566,0.41253034867038024,0.31789618011941506,0.7882878892671139
0.6441363854954654,0.6133161262781194,-0.4280881840693558,-0.4135398300493798,0.606372525819635,0.4761054195659204,-0.4843767112009049,0.07909971938186462,1.4331681098125357,-1.341337368618088,0.35229930082181893,2.734949590732429,0.9825764134100945,-1.0870568036041603,0.03143117110137481,-0.280066227735885,0.7561763224632715,0.7398842817486105,-0.021404472020282932,-0.20975147356504698,0.727290590023763,0.3311149877745545,0.1251576109284868,-0.18678670864953814,0.8105003502562764,0.7391287738046525,0.8069386350150566,0.41253034867038024,0.31789618011941506,0.7882878892671139
0.6441363957122066,0.613316103387356,-0.4280882127225288,-0.4135397647935387,0.6063723908371057,0.4761056206461112,-0.4843767382463553,0.07910025857952041,1.4331681098125357,-1.341337608273611,0.3522996603596449,2.734949590732429,0.9825763535234846,-1.0870569234864633,0.031449047251808304,-0.2800354522356974,0.7561452968234994,0.7397766924018299,-0.02142331336138014,-0.2098586883855699,0.7272888361561367,0.3311149877745545,0.12510686956158784,-0.18664528196663757,0.8103528737512559,0.7390237801981275,0.80705406042908,0.4126947807718611,0.3177988251711072,0.788335209402389
0.6441363957122066,0.613316103387356,-0.4280882127225288,-0.4135397647935387,0.6063723908371057,0.4761056206461112,-0.4843767382463553,0.07910037846182341,1.4331679300436229,-1.341337308622395,0.3522998401285578,2.734949782369581,0.9825762336411815,-1.0870568036041603,0.031449047251808304,-0.2800354522356974,0.7561452968234994,0.7397766924018299,-0.02142331336138014,-0.2098586883855699,0.7272888361561367,0.3311149877745545,0.12510686956158784,-0.18664528196663757,0.8103528737512559,0.7390237801981275,0.80705406042908,0.4126947807718611,0.3177988251711072,0.788335209402389
0.6441363355346716,0.6133161625990095,-0.42808835733136963,-0.41353999264384184,0.6063721647852407,0.4761057415828581,-0.4843767078314452,0.07910031857521345,1.4331679300436229,-1.3413371888491752,0.35229972024625483,2.73494987836269,0.9825763535234846,-1.0870569234864633,0.03131130278230031,-0.2799873374301002,0.7560812270469172,0.7398110151764267,-0.021388573682920617,-0.209825369674907,0.7273388051444649,0.3311149877745545,0.12498176621868963,-0.1867491291274563,0.8104104895250535,0.7389501084227446,0.8069376993338131,0.4126408852583839,0.31788921107967066,0.7882471525901644
0.6441363355346716,0.6133161625990095,-0.42808835733136963,-0.41353999264384184,0.6063721647852407,0.4761057415828581,-0.4843767078314452,0.0791000189239975,1.4331678701570127,-1.3413371888491752,0.3522996603596449,2.73494987836269,0.9825764134100945,-1.0870568036041603,0.03131130278230031,-0.2799873374301002,0.7560812270469172,0.7398110151764267,-0.021388573682920617,-0.209825369674907,0.7273388051444649,0.3311149877745545,0.12498176621868963,-0.1867491291274563,0.8104104895250535,0.7389501084227446,0.8069376993338131,0.4126408852583839,0.31788921107967066,0.7882471525901644
0.6441363791424461,0.6133160952226413,-0.4280883764484704,-0.4135398265753659,0.6063721134125891,0.4761059093513735,-0.4843767490211184,0.07909983915508455,1.4331678101613199,-1.3413371888491752,0.35229972024625483,2.734950069999842,0.9825763535234846,-1.0870568036041603,0.03136982255361972,-0.27996161493512295,0.7560969696333029,0.7399067988229717,-0.021406114029857717,-0.20974508829850766,0.7272925861175843,0.3311149877745545,0.12495452281579468,-0.1866704366675857,0.8104152896964365,0.7390346153805085,0.8070473260236356,0.4126256314160518,0.3178635650162239,0.7883939130138851
0.6441363791424461,0.6133160952226413,-0.4280883764484704,-0.4135398265753659,0.6063721134125891,0.4761059093513735,-0.4843767490211184,0.07909935984403872,1.4331678101613199,-1.341337068966872,0.35229954047734185,2.7349502618115267,0.9825762336411815,-1.0870568036041603,0.03136982255361972,-0.27996161493512295,0.7560969696333029,0.7399067988229717,-0.021406114029857717,-0.20974508829850766,0.7272925861175843,0.3311149877745545,0.12495452281579468,-0.1866704366675857,0.8104152896964365,0.7390346153805085,0.8070473260236356,0.4126256314160518,0.3178635650162239,0.7883939130138851
0.6441363743317045,0.6133160150554592,-0.428088789420207,-0.41353934830689926,0.6063721775083832,0.4761058174240325,-0.484377167464199,0.07909918007512576,1.4331678101613199,-1.341337068966872,0.35229930082181893,2.734950069999842,0.9825762336411815,-1.0870571032553762,0.03142201812700867,-0.28008446912603935,0.7561230075051881,0.7398008872692697,-0.021401988955842766,-0.20978735109299948,0.7273638567704697,0.3311149877745545,0.12506978733349394,-0.18665391167531692,0.8104382800760294,0.739098265412851,0.8069624474830781,0.412651382590195,0.3179761303442495,0.7883070912292351
0.6441363743317045,0.6133160150554592,-0.428088789420207,-0.41353934830689926,0.6063721775083832,0.4761058174240325,-0.484377167464199,0.07909953961295167,1.4331676303924068,-1.3413371888491752,0.3522996603596449,2.7349502618115267,0.9825760538722687,-1.0870568036041603,0.03142201812700867,-0.28008446912603935,0.7561230075051881,0.7398008872692697,-0.021401988955842766,-0.20978735109299948,0.7273638567704697,0.3311149877745545,0.12506978733349394,-0.18665391167531692,0.8104382800760294,0.739098265412851,0.8069624474830781,0.412651382590195,0.3179761303442495,0.7883070912292351
0.6441363128732859,0.6133162232197704,-0.4280887026353639,-0.4135397489740861,0.6063718667826551,0.4761059466304159,-0.4843770873773067,0.07909983915508455,1.433167330850274,-1.341337009080262,0.3522999599017777,2.7349502618115267,0.9825762336411815,-1.0870566238352473,0.03149335971609737,-0.28003563486399186,0.7561783130973441,0.7399584482977034,-0.02140999196943845,-0.20980591425881034,0.7274213181743934,0.3311149877745545,0.12507278766083385,-0.18675193280945887,0.8103993522196619,0.7390329776325504,0.8070203962310647,0.4126542570316263,0.3179411001847861,0.7883455237608059
0.6441363128732859,0.6133162232197704,-0.4280887026353639,-0.4135397489740861,0.6063718667826551,0.4761059466304159,-0.4843770873773067,0.07909977926847458,1.433166911425838,-1.341337068966872,0.3522998401285578,2.7349504534486786,0.9825760538722687,-1.0870568036041603,0.031427066057007534,-0.28004510342768435,0.7561569785490807,0.7398871204202447,-0.02138749645864998,-0.2098749777789908,0.7274262376984535,0.3311149877745545,0.12506242287284752,-0.1867102078845239,0.8103597071140864,0.7389803359109889,0.8069790503967964,0.41262279494100684,0.3179732737792487,0.7883574323901792
0.6441363128732859,0.6133162232197704,-0.4280887026353639,-0.4135397489740861,0.6063718667826551,0.4761059466304159,-0.4843770873773067,0.07909935984403872,1.433166911425838,-1.341337068966872,0.35229954047734185,2.734950069999842,0.9825760538722687,-1.0870568036041603,0.031427066057007534,-0.28004510342768435,0.7561569785490807,0.7398871204202447,-0.02138749645864998,-0.2098749777789908,0.7274262376984535,0.3311149877745545,0.12506242287284752,-0.1867102078845239,0.8103597071140864,0.7389803359109889,0.8069790503967964,0.41262279494100684,0.3179732737792487,0.7883574323901792
0.6441363815551201,0.613316316171101,-0.42808892145640165,-0.413539609194227,0.6063718686440335,0.4761057284064249,-0.4843774188824417,0.07909923996173572,1.4331667316569252,-1.341337009080262,0.3522996603596449,2.7349503576301024,0.9825760538722687,-1.0870569234864633,0.031569725242216226,-0.28004836605909417,0.7560460692659676,0.7398208105288179,-0.021335621368305246,-0.20971869833481893,0.7273483460001895,0.3311149877745545,0.12512125339247096,-0.18664238997468308,0.8103700500101908,0.7392216857547027,0.8068980261995035,0.41263235683013044,0.31781306952877,0.7882246860392472
0.6441363815551201,0.613316316171101,-0.42808892145640165,-0.413539609194227,0.6063718686440335,0.4761057284064249,-0.4843774188824417,0.07909912007943272,1.4331661923501862,-1.3413366495424361,0.3522998401285578,2.7349503576301024,0.9825760538722687,-1.0870569234864633,0.031569725242216226,-0.28004836605909417,0.7560460692659676,0.7398208105288179,-0.021335621368305246,-0.20971869833481893,0.7273483460001895,0.3311149877745545,0.12512125339247096,-0.18664238997468308,0.8103700500101908,0.7392216857547027,0.8068980261995035,0.41263235683013044,0.31781306952877,0.7882246860392472
0.6441363848706156,0.6133165513828753,-0.42808922130315763,-0.41353960790263705,0.6063716269806864,0.47610561868941076,-0.48437783035653237,0.07909900030621281,1.4331660724678832,-1.3413365296601332,0.35229972024625483,2.734950069999842,0.9825760538722687,-1.0870568036041603,0.03135616100841601,-0.28003746476291924,0.7561757563751637,0.7398789607091298,-0.02137130759484877,-0.20983024338320636,0.7271882892461001,0.3311149877745545,0.12497094705998671,-0.1866191414526304,0.8103043874425935,0.7391013065563029,0.8069912617668341,0.4127001726683536,0.31778600475926844,0.7882826635162519
0.6441363848706156,0.6133165513828753,-0.42808922130315763,-0.41353960790263705,0.6063716269806864,0.47610561868941076,-0.48437783035653237,0.07909900030621281,1.4331660724678832,-1.3413366495424361,0.3522996603596449,2.734950069999842,0.9825760538722687,-1.0870569234864633,0.03135616100841601,-0.28003746476291924,0.7561757563751637,0.7398789607091298,-0.02137130759484877,-0.20983024338320636,0.7271882892461001,0.3311149877745545,0.12497094705998671,-0.1866191414526304,0.8103043874425935,0.7391013065563029,0.8069912617668341,0.4127001726683536,0.31778600475926844,0.7882826635162519
0.6441364230984838,0.6133166885732115,-0.4280890905516347,-0.4135397300571825,0.6063715506419112,0.4761055779223839,-0.48437786170256564,0.07909923996173572,1.4331659525855802,-1.3413365296601332,0.3522998401285578,2.734950069999842,0.9825760538722687,-1.0870568036041603,0.031399729456078385,-0.28009796201191295,0.7561060147345231,0.7397684023400041,-0.0214592369507081,-0.20976500401079293,0.7273603307216202,0.3311149877745545,0.1251689879458385,-0.18673897532845363,0.8103764129280956,0.7390493008388607,0.807031487160241,0.41262440632029557,0.31778871217260035,0.7882950079212909
0.6441364230984838,0.6133166885732115,-0.4280890905516347,-0.4135397300571825,0.6063715506419112,0.4761055779223839,-0.48437786170256564,0.07909923996173572,1.4331658328123604,-1.3413364098869134,0.3522999599017777,2.734950069999842,0.9825760538722687,-1.0870568036041603,0.031399729456078385,-0.28009796201191295,0.7561060147345231,0.7397684023400041,-0.0214592369507081,-0.20976500401079293,0.7273603307216202,0.3311149877745545,0.1251689879458385,-0.18673897532845363,0.8103764129280956,0.7390493008388607,0.807031487160241,0.41262440632029557,0.31778871217260035,0.7882950079212909
0.6441364423099798,0.6133166594427788,-0.42808929550255026,-0.41353971096535236,0.6063714193215535,0.4761056873482147,-0.4843779348394617,0.07909929984834568,1.4331658328123604,-1.3413362900046104,0.35229972024625483,2.734950069999842,0.9825759339899656,-1.0870569234864633,0.031399729456078385,-0.28009796201191295,0.7561060147345231,0.7397684023400041,-0.0214592369507081,-0.20976500401079293,0.7273603307216202,0.3311149877745545,0.1251689879458385,-0.18673897532845363,0.8103764129280956,0.7390493008388607,0.807031487160241,0.41262440632029557,0.31778871217260035,0.7882950079212909
